gaodalingithub/END2JOINT/ik_net/save_real/error/ik_validation_log.csv
frame,is_init,real_joint_state_left_shoulder_pitch_joint1,real_joint_state_left_shoulder_roll_joint2,real_joint_state_left_shoulder_yaw_joint3,real_joint_state_left_elbow_pitch_joint4,real_joint_state_left_elbow_roll_joint5,real_joint_state_left_wrist_yaw_joint6,real_joint_state_left_wrist_pitch_joint7,real_joint_state_right_shoulder_pitch_joint1,real_joint_state_right_shoulder_roll_joint2,real_joint_state_right_shoulder_yaw_joint3,real_joint_state_right_elbow_pitch_joint4,real_joint_state_right_elbow_roll_joint5,real_joint_state_right_wrist_yaw_joint6,real_joint_state_right_wrist_pitch_joint7,real_joint_state_left_gripper_joint,real_joint_state_right_gripper_joint,pred_action_left_shoulder_pitch_joint1,pred_action_left_shoulder_roll_joint2,pred_action_left_shoulder_yaw_joint3,pred_action_left_elbow_pitch_joint4,pred_action_left_elbow_roll_joint5,pred_action_left_wrist_yaw_joint6,pred_action_left_wrist_pitch_joint7,pred_action_right_shoulder_pitch_joint1,pred_action_right_shoulder_roll_joint2,pred_action_right_shoulder_yaw_joint3,pred_action_right_elbow_pitch_joint4,pred_action_right_elbow_roll_joint5,pred_action_right_wrist_yaw_joint6,pred_action_right_wrist_pitch_joint7,pred_action_left_gripper_joint,pred_action_right_gripper_joint,timestamp,input_ee_eeL_x,input_ee_eeL_y,input_ee_eeL_z,input_ee_eeL_roll,input_ee_eeL_pitch,input_ee_eeL_yaw,input_ee_eeR_x,input_ee_eeR_y,input_ee_eeR_z,input_ee_eeR_roll,input_ee_eeR_pitch,input_ee_eeR_yaw,input_prev_joint_state_L_sh_pitch,input_prev_joint_state_L_sh_roll,input_prev_joint_state_L_sh_yaw,input_prev_joint_state_L_el_pitch,input_prev_joint_state_L_el_roll,input_prev_joint_state_L_wr_yaw,input_prev_joint_state_L_wr_pitch,input_prev_joint_state_R_sh_pitch,input_prev_joint_state_R_sh_roll,input_prev_joint_state_R_sh_yaw,input_prev_joint_state_R_el_pitch,input_prev_joint_state_R_el_roll,input_prev_joint_state_R_wr_yaw,input_prev_joint_state_R_wr_pitch
0,1,0.5,0.0,0.0,0.5,0.0,0.0,0.0,-0.5,0.0,0.0,-0.5,0.0,0.0,0.0,0.5,0.5,0.47801995277404785,0.004793621599674225,0.009346150793135166,0.46330204606056213,-0.021171892061829567,0.01506828423589468,-0.07572289556264877,-0.4818548560142517,-0.011312947608530521,0.013160906732082367,-0.49000534415245056,0.02231631986796856,-0.010872052982449532,-0.007438773289322853,0.0,0.0,,,,,,,,,,,,,,,,,,,,,,,,,,,
1,0,0.5,0.0,0.0,0.5,0.0,0.0,0.0,-0.5,0.0,0.0,-0.5,0.0,0.0,0.0,0.5,0.5,0.4685647487640381,0.004368208348751068,0.004613451659679413,0.4777202010154724,-0.008947670459747314,0.00555102713406086,-0.0431307852268219,-0.45887884497642517,-0.011866334825754166,0.013355515897274017,-0.4798959493637085,0.028757065534591675,-0.0049403756856918335,-0.024205386638641357,0.0,0.0,0.0,0.3296839783284264,0.21927637199572056,0.760148681816507,-0.022265430815224363,-0.049355232583983444,-0.022818094361451102,0.330191207700067,-0.23315866847036182,0.7593856539664704,0.006234445563278239,0.008222119939317646,0.004073582912385963,0.5,0.0,0.0,0.5,0.0,0.0,0.0,-0.5,0.0,0.0,-0.5,0.0,0.0,0.0
2,0,0.5,0.0,0.0,0.5,0.0,0.0,0.0,-0.5,0.0,0.0,-0.5,0.0,0.0,0.0,0.5,0.5,0.46845632791519165,0.004350222647190094,0.004622466862201691,0.47777435183525085,-0.009024202823638916,0.005498388782143593,-0.04276248812675476,-0.45888254046440125,-0.01177888736128807,0.013312321156263351,-0.48007115721702576,0.028801798820495605,-0.004912607371807098,-0.024577409029006958,0.0,0.0,0.0333000011742115,0.3297167619153547,0.21922337206930598,0.7600966229585842,-0.022244169327483743,-0.048797779588812595,-0.022700870437588172,0.3301742825954559,-0.2330989094783746,0.7594332914349736,0.0065855336993279395,0.008393390920635528,0.003858192145961712,0.5,0.0,0.0,0.5,0.0,0.0,0.0,-0.5,0.0,0.0,-0.5,0.0,0.0,0.0
3,0,0.5,0.0,0.0,0.5,0.0,0.0,0.0,-0.5,0.0,0.0,-0.5,0.0,0.0,0.0,0.5,0.5,0.4686198830604553,0.004687987267971039,0.004697136580944061,0.47790196537971497,-0.00894242525100708,0.005818674340844154,-0.04271608591079712,-0.4591420590877533,-0.01161361113190651,0.013135001063346863,-0.47996193170547485,0.028317749500274658,-0.004547864198684692,-0.02354702353477478,0.0,0.0,0.06669999659061432,0.32972861387635244,0.21921097536061224,0.760142072639706,-0.021561615979824644,-0.049066408025022934,-0.02343123641551026,0.33001374622614194,-0.23286490574400837,0.7596496928399527,0.005791445871701324,0.007085301034317459,0.003571592448628161,0.5,0.0,0.0,0.5,0.0,0.0,0.0,-0.5,0.0,0.0,-0.5,0.0,0.0,0.0
4,0,0.5,0.0,0.0,0.5,0.0,0.0,0.0,-0.5,0.0,0.0,-0.5,0.0,0.0,0.0,0.5,0.5,0.4682292938232422,0.004911432042717934,0.004540584981441498,0.4777121841907501,-0.009386509656906128,0.006101842969655991,-0.04217106103897095,-0.45893803238868713,-0.011466499418020248,0.013047222048044205,-0.47965794801712036,0.028311192989349365,-0.004389084875583649,-0.023581862449645996,0.0,0.0,0.10000000149011612,0.32989725644355306,0.21925230241682392,0.760118602492138,-0.0210628140834066,-0.048890822456340466,-0.023929326653512106,0.33001920385776085,-0.2327849787235774,0.7595451885381943,0.005867541564114636,0.007035954478827801,0.0031553435861557816,0.5,0.0,0.0,0.5,0.0,0.0,0.0,-0.5,0.0,0.0,-0.5,0.0,0.0,0.0
5,0,0.5,0.0,0.0,0.5,0.0,0.0,0.0,-0.5,0.0,0.0,-0.5,0.0,0.0,0.0,0.5,0.5,0.4681430459022522,0.005074964836239815,0.0045363083481788635,0.47769561409950256,-0.009477466344833374,0.006314460188150406,-0.042072415351867676,-0.4589765965938568,-0.011402357369661331,0.013019464910030365,-0.47964537143707275,0.028271377086639404,-0.004296973347663879,-0.023497194051742554,0.0,0.0,0.13330000638961792,0.3299249876847504,0.21923525656257842,0.7601135294956843,-0.020763120820846748,-0.04881521237260111,-0.024453752534151718,0.3300020964059501,-0.23274910568189897,0.7595444019315555,0.0060291755617475325,0.006982630008856317,0.0030340816467319433,0.5,0.0,0.0,0.5,0.0,0.0,0.0,-0.5,0.0,0.0,-0.5,0.0,0.0,0.0
6,0,0.5,0.0,0.0,0.5,0.0,0.0,0.0,-0.5,0.0,0.0,-0.5,0.0,0.0,0.0,0.5,0.5,0.4681716561317444,0.005224751308560371,0.004460886120796204,0.47765985131263733,-0.009723097085952759,0.006576875224709511,-0.042006611824035645,-0.45900478959083557,-0.011269889771938324,0.01284942775964737,-0.47964224219322205,0.028130948543548584,-0.004137404263019562,-0.023514002561569214,0.0,0.0,0.16670000553131104,0.3299271352036831,0.2193496746636932,0.7601070365915736,-0.02093740958123691,-0.04890954127529801,-0.02481110978524903,0.329909487407437,-0.23256202062846204,0.7594504353506998,0.0057823143946438265,0.007447228790918051,0.0030883375685499138,0.5,0.0,0.0,0.5,0.0,0.0,0.0,-0.5,0.0,0.0,-0.5,0.0,0.0,0.0
7,0,0.5,0.0,0.0,0.5,0.0,0.0,0.0,-0.5,0.0,0.0,-0.5,0.0,0.0,0.0,0.5,0.5,0.4681119918823242,0.005256816744804382,0.004382655024528503,0.47757524251937866,-0.009969145059585571,0.006710182875394821,-0.04179549217224121,-0.45907679200172424,-0.011074420064687729,0.012790806591510773,-0.47977498173713684,0.02823561429977417,-0.004022419452667236,-0.023801058530807495,0.0,0.0,0.20000000298023224,0.3298756717238568,0.21955941709652307,0.7600368607462162,-0.02106086385661987,-0.048680609250950635,-0.024574734526336073,0.3297887268645926,-0.2324801875611183,0.7593073610556744,0.006563970001435231,0.008048128473867879,0.002599493822265205,0.5,0.0,0.0,0.5,0.0,0.0,0.0,-0.5,0.0,0.0,-0.5,0.0,0.0,0.0
8,0,0.5,0.0,0.0,0.5,0.0,0.0,0.0,-0.5,0.0,0.0,-0.5,0.0,0.0,0.0,0.5,0.5,0.4680596590042114,0.005263557657599449,0.004066869616508484,0.47756630182266235,-0.010448455810546875,0.006765397265553474,-0.04132208228111267,-0.45927247405052185,-0.010999750345945358,0.012542292475700378,-0.4795280992984772,0.028088152408599854,-0.003939829766750336,-0.02329656481742859,0.0,0.0,0.23330000042915344,0.32986677070991516,0.21974831236986175,0.7599066095353406,-0.021669281006069685,-0.047599062942228265,-0.024244561554489064,0.3296817512388355,-0.2323549751823657,0.7593179194602503,0.0062020905192517435,0.007687044544699871,0.00279487421713268,0.5,0.0,0.0,0.5,0.0,0.0,0.0,-0.5,0.0,0.0,-0.5,0.0,0.0,0.0
9,0,0.5,0.0,0.0,0.5,0.0,0.0,0.0,-0.5,0.0,0.0,-0.5,0.0,0.0,0.0,0.5,0.5,0.4679630994796753,0.005246900022029877,0.0036945119500160217,0.47757190465927124,-0.011103004217147827,0.006770804524421692,-0.04052329063415527,-0.4594980776309967,-0.010898321866989136,0.012311045080423355,-0.479004830121994,0.027910470962524414,-0.0037770941853523254,-0.02230602502822876,0.0,0.0,0.26669999957084656,0.32986835837132644,0.21988950034512647,0.7598944081402804,-0.02241979279918649,-0.046574854011816935,-0.023766387136443523,0.32952288913985506,-0.23229337314407195,0.7592326125975636,0.005559243507367199,0.006993936939840353,0.0025047228561245133,0.5,0.0,0.0,0.5,0.0,0.0,0.0,-0.5,0.0,0.0,-0.5,0.0,0.0,0.0
10,0,0.5,0.0,0.0,0.5,0.0,0.0,0.0,-0.5,0.0,0.0,-0.5,0.0,0.0,0.0,0.5,0.5,0.46817368268966675,0.0053574517369270325,0.0036350488662719727,0.47746512293815613,-0.011365681886672974,0.007087811827659607,-0.04069864749908447,-0.4596903622150421,-0.010667990893125534,0.012208912521600723,-0.47911179065704346,0.027838051319122314,-0.003526046872138977,-0.02226117253303528,0.0,0.0,0.30000001192092896,0.3297515523369556,0.2200124757542653,0.7598863035376294,-0.022725981021881392,-0.047055228183412456,-0.02384663464221015,0.3294048710650813,-0.23223714768438114,0.7591463351993241,0.005601026366092665,0.007187803906147744,0.001791593297563667,0.5,0.0,0.0,0.5,0.0,0.0,0.0,-0.5,0.0,0.0,-0.5,0.0,0.0,0.0
11,0,0.5,0.0,0.0,0.5,0.0,0.0,0.0,-0.5,0.0,0.0,-0.5,0.0,0.0,0.0,0.5,0.5,0.467947781085968,0.005527663975954056,0.003364555537700653,0.4773639738559723,-0.01203244924545288,0.007408974692225456,-0.040104061365127563,-0.45969316363334656,-0.010512657463550568,0.012009449303150177,-0.4788343608379364,0.027779996395111084,-0.003354765474796295,-0.02206513285636902,0.0,0.0,0.33329999446868896,0.3297649892239514,0.22012794699298763,0.7597090675214359,-0.02280999741434675,-0.045861522017257794,-0.0240751938323851,0.32934246176434456,-0.23213139329673027,0.7590455465638026,0.005389101225743132,0.007290852897929504,0.0014862345226427257,0.5,0.0,0.0,0.5,0.0,0.0,0.0,-0.5,0.0,0.0,-0.5,0.0,0.0,0.0
12,0,0.5,0.0,0.0,0.5,0.0,0.0,0.0,-0.5,0.0,0.0,-0.5,0.0,0.0,0.0,0.5,0.5,0.4678038954734802,0.005686057731509209,0.003122672438621521,0.477235347032547,-0.01266932487487793,0.007753437384963036,-0.03960433602333069,-0.45971474051475525,-0.01026180014014244,0.011826664209365845,-0.4787091612815857,0.027742207050323486,-0.0031087473034858704,-0.022079795598983765,0.0,0.0,0.3666999936103821,0.32975523544786645,0.22024550496473677,0.759614328285792,-0.02300052093775795,-0.045291900072170765,-0.024205409395504862,0.32928263953181736,-0.23202389374481067,0.7589417368212804,0.005642714412298137,0.007458412646414793,0.0008977796253451397,0.5,0.0,0.0,0.5,0.0,0.0,0.0,-0.5,0.0,0.0,-0.5,0.0,0.0,0.0
13,0,0.5,0.0,0.0,0.5,0.0,0.0,0.0,-0.5,0.0,0.0,-0.5,0.0,0.0,0.0,0.5,0.5,0.4678661823272705,0.006189191713929176,0.0031654611229896545,0.4772326350212097,-0.012561827898025513,0.008313208818435669,-0.0397489070892334,-0.46013572812080383,-0.010019689798355103,0.011690251529216766,-0.47870364785194397,0.027360200881958008,-0.0027065053582191467,-0.02112138271331787,0.0,0.0,0.4000000059604645,0.3296142323583162,0.22023110925444767,0.759575726299929,-0.021729483205298994,-0.04527607766628883,-0.025373076614259915,0.32916069762983136,-0.23191022634311065,0.7589097371262542,0.006384678389848922,0.006920667064251647,0.0007821999039271269,0.5,0.0,0.0,0.5,0.0,0.0,0.0,-0.5,0.0,0.0,-0.5,0.0,0.0,0.0
14,0,0.5,0.0,0.0,0.5,0.0,0.0,0.0,-0.5,0.0,0.0,-0.5,0.0,0.0,0.0,0.5,0.5,0.4679376482963562,0.006369812414050102,0.0032405108213424683,0.47720298171043396,-0.012401103973388672,0.008542465046048164,-0.040016740560531616,-0.46021994948387146,-0.009898178279399872,0.011695727705955505,-0.47885096073150635,0.027280360460281372,-0.0025550872087478638,-0.021088629961013794,0.0,0.0,0.4332999885082245,0.32950227903464546,0.22023617263335768,0.7596334979117164,-0.02108014195216734,-0.045912646118981826,-0.02578857420596803,0.3291536591765968,-0.23188203968467627,0.7588447999641098,0.0072008376319131475,0.007056817242875686,0.0005602949222614698,0.5,0.0,0.0,0.5,0.0,0.0,0.0,-0.5,0.0,0.0,-0.5,0.0,0.0,0.0
15,0,0.5,0.0,0.0,0.5,0.0,0.0,0.0,-0.5,0.0,0.0,-0.5,0.0,0.0,0.0,0.5,0.5,0.4688027501106262,0.006342016160488129,0.003596395254135132,0.4769739806652069,-0.011151492595672607,0.008533518761396408,-0.04239475727081299,-0.4600941240787506,-0.009885389357805252,0.01171823963522911,-0.47943776845932007,0.026981502771377563,-0.002523258328437805,-0.021744072437286377,0.0,0.0,0.4666999876499176,0.32903073548715245,0.22047837034361858,0.7598899888373444,-0.019677782486762663,-0.04989909852571017,-0.02537275107214354,0.32936219902096686,-0.23170224360087907,0.7588380668282048,0.008203986074394518,0.007788123873461308,0.0008696874752609856,0.5,0.0,0.0,0.5,0.0,0.0,0.0,-0.5,0.0,0.0,-0.5,0.0,0.0,0.0
16,0,0.5,0.0,0.0,0.5,0.0,0.0,0.0,-0.5,0.0,0.0,-0.5,0.0,0.0,0.0,0.5,0.5,0.46935611963272095,0.006003431975841522,0.002750582993030548,0.4766269624233246,-0.011575073003768921,0.008060907945036888,-0.04304513335227966,-0.45995184779167175,-0.01010730117559433,0.010710418224334717,-0.4782925844192505,0.025870710611343384,-0.002584308385848999,-0.02042365074157715,0.0,0.0,0.5,0.32887157514227877,0.2210464929268835,0.7595406380496695,-0.020825247661349522,-0.04930910983338599,-0.023140621756109425,0.32955259578277396,-0.23106906886825349,0.7592322924864766,0.004273548085549493,0.005917001238969442,0.003124188743872612,0.5,0.0,0.0,0.5,0.0,0.0,0.0,-0.5,0.0,0.0,-0.5,0.0,0.0,0.0
17,0,0.5,0.0,0.0,0.5,0.0,0.0,0.0,-0.5,0.0,0.0,-0.5,0.0,0.0,0.0,0.5,0.5,0.46911025047302246,0.005667161196470261,0.0015528276562690735,0.47650280594825745,-0.013253390789031982,0.007824905216693878,-0.04155644774436951,-0.45989516377449036,-0.010119609534740448,0.009985961019992828,-0.47743576765060425,0.025488674640655518,-0.0025976747274398804,-0.019810527563095093,0.0,0.0,0.53329998254776,0.32902126670778,0.22147463961634956,0.7592171525019863,-0.023450383244540074,-0.046777420761643373,-0.02101866987599532,0.3296046302549126,-0.23073888354569888,0.7594500533665732,0.0017954917266309143,0.004562624797487566,0.004428087297275491,0.5,0.0,0.0,0.5,0.0,0.0,0.0,-0.5,0.0,0.0,-0.5,0.0,0.0,0.0
18,0,0.5,0.0,0.0,0.5,0.0,0.0,0.0,-0.5,0.0,0.0,-0.5,0.0,0.0,0.0,0.5,0.5,0.4690173864364624,0.005295637995004654,-0.0004833117127418518,0.47641125321388245,-0.016274094581604004,0.008012615144252777,-0.03905653953552246,-0.460681289434433,-0.009561020880937576,0.007818762212991714,-0.4749898612499237,0.022063851356506348,-0.0007490292191505432,-0.014089316129684448,0.0,0.0,0.5666999816894531,0.3292563848130425,0.22198740309209455,0.7590038046047856,-0.029196496834063,-0.04297165598167796,-0.019138061904631964,0.32954134528470536,-0.23020519432150624,0.7602543419564483,-0.004706002587232217,-0.0026301604910657717,0.00496004598292708,0.5,0.0,0.0,0.5,0.0,0.0,0.0,-0.5,0.0,0.0,-0.5,0.0,0.0,0.0
19,0,0.5,0.0,0.0,0.5,0.0,0.0,0.0,-0.5,0.0,0.0,-0.5,0.0,0.0,0.0,0.5,0.5,0.4688429832458496,0.005350027233362198,-0.0009516701102256775,0.47612160444259644,-0.017100661993026733,0.008397791534662247,-0.038694411516189575,-0.4606483280658722,-0.009179610759019852,0.006933482363820076,-0.474138081073761,0.020411014556884766,0.00027357786893844604,-0.012379378080368042,0.0,0.0,0.6000000238418579,0.32927504668867347,0.2220947568599873,0.7589749534933878,-0.02997895530333583,-0.04260506179340995,-0.018924413394655115,0.32962657312214205,-0.23007598675501378,0.7602942623955148,-0.007400553154880188,-0.003921718034604369,0.004033490845177993,0.5,0.0,0.0,0.5,0.0,0.0,0.0,-0.5,0.0,0.0,-0.5,0.0,0.0,0.0
20,0,0.5,0.0,0.0,0.5,0.0,0.0,0.0,-0.5,0.0,0.0,-0.5,0.0,0.0,0.0,0.5,0.5,0.46886277198791504,0.005449358373880386,-0.001786641776561737,0.4754231870174408,-0.017983436584472656,0.00890299677848816,-0.03862190246582031,-0.4612782895565033,-0.008327912539243698,0.005072904750704765,-0.4727194011211395,0.0167047381401062,0.002451658248901367,-0.007799595594406128,0.0,0.0,0.6333000063896179,0.32941117460123903,0.2222674290838807,0.7588558309361271,-0.03187068177825214,-0.04195813718950481,-0.01844695661546014,0.3296316698117039,-0.22992179462883894,0.761014779044649,-0.011055319002221677,-0.01021344643138353,0.00276806246083602,0.5,0.0,0.0,0.5,0.0,0.0,0.0,-0.5,0.0,0.0,-0.5,0.0,0.0,0.0
21,0,0.5,0.0,0.0,0.5,0.0,0.0,0.0,-0.5,0.0,0.0,-0.5,0.0,0.0,0.0,0.5,0.5,0.46904653310775757,0.005167756229639053,-0.0020602867007255554,0.47495296597480774,-0.017761260271072388,0.0085374116897583,-0.039306312799453735,-0.4612397253513336,-0.00822080671787262,0.004634281620383263,-0.47147849202156067,0.015202045440673828,0.0032214224338531494,-0.005071073770523071,0.0,0.0,0.666700005531311,0.32921008641667177,0.22235176632963682,0.7589460147342364,-0.03242121262786535,-0.042946850558318594,-0.01743100816934584,0.32995028995384057,-0.2301327013046762,0.7615717037851392,-0.012522974162280558,-0.015449154866109231,0.0019755043782428415,0.5,0.0,0.0,0.5,0.0,0.0,0.0,-0.5,0.0,0.0,-0.5,0.0,0.0,0.0
22,0,0.5,0.0,0.0,0.5,0.0,0.0,0.0,-0.5,0.0,0.0,-0.5,0.0,0.0,0.0,0.5,0.5,0.46821844577789307,0.005112931132316589,-0.002607397735118866,0.47430065274238586,-0.018763601779937744,0.008832590654492378,-0.03825598955154419,-0.46106967329978943,-0.007601015269756317,0.004792969673871994,-0.47011029720306396,0.014070212841033936,0.0047424063086509705,-0.002574741840362549,0.0,0.0,0.699999988079071,0.329251921729717,0.22246245737218373,0.7590142661054877,-0.03323873470431771,-0.04325795812260358,-0.016436329573487285,0.33044435358119173,-0.23068896492901383,0.7623775192618696,-0.013211534288243065,-0.021139502403846766,-0.002326766209378217,0.5,0.0,0.0,0.5,0.0,0.0,0.0,-0.5,0.0,0.0,-0.5,0.0,0.0,0.0
23,0,0.5,0.0,0.0,0.5,0.0,0.0,0.0,-0.5,0.0,0.0,-0.5,0.0,0.0,0.0,0.5,0.5,0.4673425555229187,0.004914138466119766,-0.0023722946643829346,0.4735737442970276,-0.018411368131637573,0.008400758728384972,-0.037690669298172,-0.46076926589012146,-0.007230188697576523,0.006174713373184204,-0.4683099389076233,0.014985799789428711,0.005294091999530792,-0.00027430057525634766,0.0,0.0,0.733299970626831,0.329297896787785,0.22248359690536698,0.759061779089194,-0.03367531920591027,-0.043031458613169704,-0.01610852268234897,0.3312538303509956,-0.2315309206736247,0.7632878439013905,-0.007742701652182049,-0.027512336761463807,-0.0054338180362019095,0.5,0.0,0.0,0.5,0.0,0.0,0.0,-0.5,0.0,0.0,-0.5,0.0,0.0,0.0
24,0,0.5,0.0,0.0,0.5,0.0,0.0,0.0,-0.5,0.0,0.0,-0.5,0.0,0.0,0.0,0.5,0.5,0.4651041626930237,0.005986381322145462,-0.0022522881627082825,0.47273895144462585,-0.01949116587638855,0.010091343894600868,-0.03484329581260681,-0.4590812623500824,-0.005705937743186951,0.008852614089846611,-0.4659116864204407,0.01658269762992859,0.007331050932407379,0.001478344202041626,0.0,0.0,0.766700029373169,0.32920702385960426,0.2221917780677494,0.7592792160936075,-0.03207965255816525,-0.04428087680518367,-0.01709114723525751,0.3328708835624591,-0.23267498978326537,0.7642348698788705,0.005036043495514342,-0.033777145146066,-0.01484269629123558,0.5,0.0,0.0,0.5,0.0,0.0,0.0,-0.5,0.0,0.0,-0.5,0.0,0.0,0.0
25,0,0.5,0.0,0.0,0.5,0.0,0.0,0.0,-0.5,0.0,0.0,-0.5,0.0,0.0,0.0,0.5,0.5,0.4627155661582947,0.008710531517863274,-0.0023281052708625793,0.47185179591178894,-0.018210291862487793,0.012916026636958122,-0.034389108419418335,-0.4557751715183258,-0.004369448870420456,0.009565398097038269,-0.46103692054748535,0.012619376182556152,0.011027507483959198,0.009219139814376831,0.0,0.0,0.800000011920929,0.3291078147754195,0.22165190100109544,0.7592423771338647,-0.028266597060381926,-0.04479315555779362,-0.021611328065321622,0.3349252681281539,-0.23344900408117267,0.7659399722101758,0.004575020016247766,-0.04704075318180223,-0.020057542082527746,0.5,0.0,0.0,0.5,0.0,0.0,0.0,-0.5,0.0,0.0,-0.5,0.0,0.0,0.0
26,0,0.5,0.0,0.0,0.5,0.0,0.0,0.0,-0.5,0.0,0.0,-0.5,0.0,0.0,0.0,0.5,0.5,0.45997124910354614,0.010470399633049965,-0.0021509453654289246,0.47208309173583984,-0.017961472272872925,0.014766426756978035,-0.0316300094127655,-0.45250317454338074,-0.0037063248455524445,0.011159077286720276,-0.459454745054245,0.013348102569580078,0.011848531663417816,0.009139686822891235,0.0,0.0,0.833299994468689,0.32909385626581183,0.22159467828291277,0.7591577559227213,-0.02656625970031934,-0.04436279815734778,-0.022955648962714292,0.33641039125841465,-0.23383360437731338,0.7671661158687072,0.009891482806709817,-0.051296933427742,-0.024833899141710525,0.5,0.0,0.0,0.5,0.0,0.0,0.0,-0.5,0.0,0.0,-0.5,0.0,0.0,0.0
27,0,0.5,0.0,0.0,0.5,0.0,0.0,0.0,-0.5,0.0,0.0,-0.5,0.0,0.0,0.0,0.5,0.5,0.4575498104095459,0.012026220560073853,-0.001887492835521698,0.4725971519947052,-0.018148690462112427,0.016564374789595604,-0.029398292303085327,-0.44891229271888733,-0.0037946924567222595,0.013024486601352692,-0.4592534899711609,0.01581740379333496,0.011119604110717773,0.005213916301727295,0.0,0.0,0.8666999936103821,0.32890094690821053,0.22135664547194467,0.7592497478622524,-0.024260329384087065,-0.04615323274430372,-0.024827035620103466,0.33861717970588007,-0.2338514095552615,0.7691161000877818,0.016018886594920012,-0.05585429986745449,-0.02763402904762513,0.5,0.0,0.0,0.5,0.0,0.0,0.0,-0.5,0.0,0.0,-0.5,0.0,0.0,0.0
28,0,0.5,0.0,0.0,0.5,0.0,0.0,0.0,-0.5,0.0,0.0,-0.5,0.0,0.0,0.0,0.5,0.5,0.45773375034332275,0.012133607640862465,-0.0020141154527664185,0.4725167751312256,-0.01809719204902649,0.01674141176044941,-0.030073225498199463,-0.4482310712337494,-0.003958944231271744,0.012757938355207443,-0.45879682898521423,0.015167534351348877,0.011189907789230347,0.005374729633331299,0.0,0.0,0.8999999761581421,0.3288340921876848,0.22131699932035448,0.7591482581265119,-0.023407145051636213,-0.04625688155167573,-0.025330838884009665,0.33935870686131564,-0.23382123935068455,0.7699808913535623,0.013442924109366317,-0.057814977882530094,-0.02730595366182076,0.5,0.0,0.0,0.5,0.0,0.0,0.0,-0.5,0.0,0.0,-0.5,0.0,0.0,0.0
29,0,0.5,0.0,0.0,0.5,0.0,0.0,0.0,-0.5,0.0,0.0,-0.5,0.0,0.0,0.0,0.5,0.5,0.4578372836112976,0.012550406157970428,-0.0016152560710906982,0.47266703844070435,-0.016423285007476807,0.01680503599345684,-0.030749619007110596,-0.4472111165523529,-0.0037386417388916016,0.012656453996896744,-0.4569985866546631,0.012520194053649902,0.012653090059757233,0.010018795728683472,0.0,0.0,0.9333000183105469,0.32872681238075446,0.2212431757410515,0.7590068171837213,-0.02200817059468152,-0.04588575667146877,-0.026261758408108182,0.34142932580295715,-0.23445208588860666,0.772960982344424,0.010912080681817482,-0.07043613153142347,-0.029547295866951373,0.5,0.0,0.0,0.5,0.0,0.0,0.0,-0.5,0.0,0.0,-0.5,0.0,0.0,0.0
30,0,0.5,0.0,0.0,0.5,0.0,0.0,0.0,-0.5,0.0,0.0,-0.5,0.0,0.0,0.0,0.5,0.5,0.4566030502319336,0.013228870928287506,-0.0013761743903160095,0.47370246052742004,-0.015607357025146484,0.01726398430764675,-0.029652714729309082,-0.4443124830722809,-0.004637822508811951,0.014502335339784622,-0.4568728506565094,0.013825476169586182,0.011688321828842163,0.007833361625671387,0.0,0.0,0.96670001745224,0.32857185787899984,0.22097318566088234,0.7589366582381223,-0.02042764301046196,-0.04513670861088892,-0.027770424945916528,0.3441213371027727,-0.2351390483056668,0.7755376931521273,0.011311003293681843,-0.07718539698051385,-0.031490352956471845,0.5,0.0,0.0,0.5,0.0,0.0,0.0,-0.5,0.0,0.0,-0.5,0.0,0.0,0.0
31,0,0.5,0.0,0.0,0.5,0.0,0.0,0.0,-0.5,0.0,0.0,-0.5,0.0,0.0,0.0,0.5,0.5,0.4562579393386841,0.013516660779714584,-0.0011687800288200378,0.47424399852752686,-0.015374362468719482,0.017601346597075462,-0.029646575450897217,-0.4430246651172638,-0.0053970180451869965,0.01562752202153206,-0.4572051167488098,0.015296101570129395,0.01059124618768692,0.005815416574478149,0.0,0.0,1.0,0.3284883132451334,0.2207703937523042,0.7589359690945923,-0.019622206785633534,-0.045199134231348914,-0.028896314094474906,0.3451258686391675,-0.23540967789789807,0.7763836646454306,0.011177531886507275,-0.07838627646799567,-0.03101385096253928,0.5,0.0,0.0,0.5,0.0,0.0,0.0,-0.5,0.0,0.0,-0.5,0.0,0.0,0.0
32,0,0.5,0.0,0.0,0.5,0.0,0.0,0.0,-0.5,0.0,0.0,-0.5,0.0,0.0,0.0,0.5,0.5,0.45578622817993164,0.014918820932507515,-0.0010883957147598267,0.47478538751602173,-0.01419687271118164,0.019255543127655983,-0.03040936589241028,-0.43960055708885193,-0.005531594157218933,0.016249138861894608,-0.4551644027233124,0.012748301029205322,0.011947408318519592,0.008556574583053589,0.0,0.0,1.0333000421524048,0.32843214677431015,0.2202787252631368,0.7588849550053977,-0.01652206593655947,-0.0453760513821182,-0.031965366579794985,0.34825747432014065,-0.23644015487490128,0.7791244819302685,0.002916834036317706,-0.0879466598922618,-0.03485062639621894,0.5,0.0,0.0,0.5,0.0,0.0,0.0,-0.5,0.0,0.0,-0.5,0.0,0.0,0.0
33,0,0.5,0.0,0.0,0.5,0.0,0.0,0.0,-0.5,0.0,0.0,-0.5,0.0,0.0,0.0,0.5,0.5,0.4535330533981323,0.015618687495589256,0.0008301287889480591,0.4769276976585388,-0.013058662414550781,0.020198704674839973,-0.029214203357696533,-0.43361130356788635,-0.008450623601675034,0.021327082067728043,-0.45514416694641113,0.017828643321990967,0.008703932166099548,0.004395276308059692,0.0,0.0,1.0666999816894531,0.32854983898352014,0.22001998532982295,0.7587526529244893,-0.01573820550962335,-0.0450819932121207,-0.03406205649776295,0.3518738949525835,-0.23800780028203652,0.7819098815184373,0.0046963995539814896,-0.09328917417943128,-0.03570377941815295,0.5,0.0,0.0,0.5,0.0,0.0,0.0,-0.5,0.0,0.0,-0.5,0.0,0.0,0.0
34,0,0.5,0.0,0.0,0.5,0.0,0.0,0.0,-0.5,0.0,0.0,-0.5,0.0,0.0,0.0,0.5,0.5,0.4527021050453186,0.015949351713061333,0.0020406991243362427,0.4781639277935028,-0.01226988434791565,0.02053835429251194,-0.02852928638458252,-0.42991694808006287,-0.00947655737400055,0.023458566516637802,-0.454723984003067,0.019714772701263428,0.007812038064002991,0.0022904574871063232,0.0,0.0,1.100000023841858,0.32857679760448133,0.21993247947057573,0.7587395467540651,-0.015555931148433455,-0.045135333612105644,-0.03465983937863548,0.35313433757007884,-0.23854182485735426,0.7827643455382988,0.005909263304958223,-0.09445237418154395,-0.036015422773868266,0.5,0.0,0.0,0.5,0.0,0.0,0.0,-0.5,0.0,0.0,-0.5,0.0,0.0,0.0
35,0,0.5,0.0,0.0,0.5,0.0,0.0,0.0,-0.5,0.0,0.0,-0.5,0.0,0.0,0.0,0.5,0.5,0.45326370000839233,0.016237450763583183,0.004180997610092163,0.4812074899673462,-0.009854346513748169,0.020840512588620186,-0.02970743179321289,-0.4191422164440155,-0.011668004095554352,0.026329275220632553,-0.45144420862197876,0.019825607538223267,0.007462948560714722,0.0003726184368133545,0.0,0.0,1.1332999467849731,0.32860520962822604,0.21975183066589082,0.7586829638474041,-0.015625672373365873,-0.0449588382190127,-0.03471488094259456,0.35699523410699024,-0.23977893686029494,0.7855403367304205,-0.0036020915022998423,-0.10224527026281871,-0.03578708135123776,0.5,0.0,0.0,0.5,0.0,0.0,0.0,-0.5,0.0,0.0,-0.5,0.0,0.0,0.0
36,0,0.5,0.0,0.0,0.5,0.0,0.0,0.0,-0.5,0.0,0.0,-0.5,0.0,0.0,0.0,0.5,0.5,0.45139551162719727,0.01647304557263851,0.007875241339206696,0.483982115983963,-0.006566166877746582,0.02056918479502201,-0.028643816709518433,-0.4085223376750946,-0.01398622989654541,0.03206949681043625,-0.4497862160205841,0.0258939266204834,0.00489749014377594,-0.004482954740524292,0.0,0.0,1.166700005531311,0.32856073823801785,0.2196144808375667,0.7586428216346582,-0.01572418197233283,-0.044788156739320684,-0.03379758159231283,0.3607254212333538,-0.24164930016710007,0.7881163877793098,-0.0003451027489767,-0.10638964890403102,-0.034874864038226594,0.5,0.0,0.0,0.5,0.0,0.0,0.0,-0.5,0.0,0.0,-0.5,0.0,0.0,0.0
37,0,0.5,0.0,0.0,0.5,0.0,0.0,0.0,-0.5,0.0,0.0,-0.5,0.0,0.0,0.0,0.5,0.5,0.44989585876464844,0.017050545662641525,0.010404162108898163,0.4862387478351593,-0.003355652093887329,0.020308444276452065,-0.027363061904907227,-0.3997444808483124,-0.014850854873657227,0.03582841157913208,-0.44810736179351807,0.02848222851753235,0.00453813374042511,-0.00854066014289856,0.0,0.0,1.2000000476837158,0.3285143108772709,0.21956092067584287,0.7586877084732004,-0.015713975604140895,-0.04553935637080864,-0.03323812507721202,0.3633256611357071,-0.24255997133831475,0.7896722016800176,0.0020542089091253324,-0.10873429880268937,-0.03675628373102802,0.5,0.0,0.0,0.5,0.0,0.0,0.0,-0.5,0.0,0.0,-0.5,0.0,0.0,0.0
38,0,0.5,0.0,0.0,0.5,0.0,0.0,0.0,-0.5,0.0,0.0,-0.5,0.0,0.0,0.0,0.5,0.5,0.4509938955307007,0.01630215160548687,0.010963372886180878,0.4880927801132202,1.2814998626708984e-05,0.018489757552742958,-0.02960669994354248,-0.39204686880111694,-0.016362644731998444,0.03729046881198883,-0.44515520334243774,0.027820974588394165,0.004049137234687805,-0.010364532470703125,0.0,0.0,1.233299970626831,0.32849066373846253,0.21938783589336594,0.7585927923216724,-0.016483239383986437,-0.04501588144073532,-0.03229130679117986,0.3674632232757292,-0.24351850383703652,0.7919165406581763,-0.007677003463679277,-0.11426775324816152,-0.03600294425850237,0.5,0.0,0.0,0.5,0.0,0.0,0.0,-0.5,0.0,0.0,-0.5,0.0,0.0,0.0
39,0,0.5,0.0,0.0,0.5,0.0,0.0,0.0,-0.5,0.0,0.0,-0.5,0.0,0.0,0.0,0.5,0.5,0.45070886611938477,0.016007190570235252,0.01180257648229599,0.489371657371521,0.0016081631183624268,0.017681876197457314,-0.02958005666732788,-0.3879106044769287,-0.017359137535095215,0.03892841935157776,-0.4444507956504822,0.029423177242279053,0.0029953494668006897,-0.012770980596542358,0.0,0.0,1.266700029373169,0.32855896831113596,0.2193446921396129,0.758531852401694,-0.01645623132133034,-0.04435002800451615,-0.03198508424815838,0.3704352949233759,-0.24408123331576093,0.7931691654723347,-0.007390415397112715,-0.11595443142806339,-0.034345774938018714,0.5,0.0,0.0,0.5,0.0,0.0,0.0,-0.5,0.0,0.0,-0.5,0.0,0.0,0.0
40,0,0.5,0.0,0.0,0.5,0.0,0.0,0.0,-0.5,0.0,0.0,-0.5,0.0,0.0,0.0,0.5,0.5,0.45153242349624634,0.015396758913993835,0.011380836367607117,0.49001383781433105,0.0012499094009399414,0.01740136183798313,-0.03111448884010315,-0.3838287889957428,-0.01844213157892227,0.039101794362068176,-0.4443710148334503,0.03112506866455078,0.0012340396642684937,-0.018549859523773193,0.0,0.0,1.2999999523162842,0.3285763333262651,0.21913194571983272,0.758588353954935,-0.01645987276059424,-0.044112384123085935,-0.03193863967317556,0.3748151900165647,-0.24396658717528966,0.7950235355690427,-0.010635984197237214,-0.11500214684122545,-0.031159612355549537,0.5,0.0,0.0,0.5,0.0,0.0,0.0,-0.5,0.0,0.0,-0.5,0.0,0.0,0.0
41,0,0.5,0.0,0.0,0.5,0.0,0.0,0.0,-0.5,0.0,0.0,-0.5,0.0,0.0,0.0,0.5,0.5,0.45242416858673096,0.015095755457878113,0.010476626455783844,0.48999011516571045,0.000316619873046875,0.017507588490843773,-0.03207269310951233,-0.3818955421447754,-0.018595583736896515,0.03842432051897049,-0.4439365565776825,0.03103390336036682,0.0008783191442489624,-0.021059274673461914,0.0,0.0,1.333299994468689,0.3286288963584031,0.21907582765586242,0.7585730080937549,-0.016539055447907458,-0.04369602097855818,-0.032048404272126074,0.3767600442375707,-0.24386126830866767,0.7957055442003755,-0.013228126940235008,-0.11431854194170965,-0.029920945379482866,0.5,0.0,0.0,0.5,0.0,0.0,0.0,-0.5,0.0,0.0,-0.5,0.0,0.0,0.0
42,0,0.5,0.0,0.0,0.5,0.0,0.0,0.0,-0.5,0.0,0.0,-0.5,0.0,0.0,0.0,0.5,0.5,0.4524245858192444,0.01509326696395874,0.010477721691131592,0.4899948537349701,0.0003216564655303955,0.01750032790005207,-0.03206366300582886,-0.38186293840408325,-0.018592283129692078,0.0384199358522892,-0.4439241290092468,0.03102770447731018,0.0008824169635772705,-0.021071672439575195,0.0,0.0,1.3667000532150269,0.3286290000095252,0.21907566448282775,0.7585744027795014,-0.01653905355885321,-0.04369559284494784,-0.03204837126110416,0.3767743085174469,-0.24386030689021407,0.7957030082180877,-0.013228331360267465,-0.1143181165019187,-0.029921382268113028,0.5,0.0,0.0,0.5,0.0,0.0,0.0,-0.5,0.0,0.0,-0.5,0.0,0.0,0.0
43,0,0.5,0.0,0.0,0.5,0.0,0.0,0.0,-0.5,0.0,0.0,-0.5,0.0,0.0,0.0,0.5,0.5,0.4524245858192444,0.01509319432079792,0.010477811098098755,0.48999494314193726,0.00032189488410949707,0.017500096932053566,-0.032063454389572144,-0.3818623721599579,-0.0185922309756279,0.038419850170612335,-0.4439238905906677,0.031027555465698242,0.0008824914693832397,-0.021071672439575195,0.0,0.0,1.399999976158142,0.3286289903511004,0.2190756427180024,0.7585744156672292,-0.016539052016919964,-0.04369555992246754,-0.03204836957225243,0.37677446712369755,-0.24386032313526637,0.7957028718946367,-0.013228331996197884,-0.11431815268340983,-0.0299213829710685,0.5,0.0,0.0,0.5,0.0,0.0,0.0,-0.5,0.0,0.0,-0.5,0.0,0.0,0.0
44,0,0.5,0.0,0.0,0.5,0.0,0.0,0.0,-0.5,0.0,0.0,-0.5,0.0,0.0,0.0,0.5,0.5,0.4516921043395996,0.00838455930352211,0.01032988727092743,0.4806098937988281,-0.0009856820106506348,0.016847187653183937,-0.04014712572097778,-0.3689112663269043,-0.023380286991596222,0.037493813782930374,-0.43579021096229553,0.036989063024520874,-0.00603291392326355,-0.03374013304710388,0.0,0.0,1.4333000183105469,0.32905226795693276,0.2186815825823194,0.7587396581220309,-0.01714060926503569,-0.043691878697348585,-0.031456419824511084,0.3893136440566064,-0.2431932387113651,0.7998699419109537,-0.017315304608487292,-0.11133915449192378,-0.018273242230863573,0.5,0.0,0.0,0.5,0.0,0.0,0.0,-0.5,0.0,0.0,-0.5,0.0,0.0,0.0
45,0,0.5,0.0,0.0,0.5,0.0,0.0,0.0,-0.5,0.0,0.0,-0.5,0.0,0.0,0.0,0.5,0.5,0.45011353492736816,0.005842255428433418,0.013899765908718109,0.4747314155101776,0.0008840560913085938,0.017449935898184776,-0.04278379678726196,-0.3587668538093567,-0.024182923138141632,0.04014018177986145,-0.4279802739620209,0.040072083473205566,-0.006054781377315521,-0.03795686364173889,0.0,0.0,1.4666999578475952,0.329271676118855,0.21849616218063006,0.7588053616125527,-0.016812085700621537,-0.04340251081087354,-0.031145636826390266,0.3945117992862722,-0.24334053562067376,0.802324332056415,-0.011368112727173418,-0.11228483378320986,-0.019537798920112426,0.5,0.0,0.0,0.5,0.0,0.0,0.0,-0.5,0.0,0.0,-0.5,0.0,0.0,0.0
46,0,0.5,0.0,0.0,0.5,0.0,0.0,0.0,-0.5,0.0,0.0,-0.5,0.0,0.0,0.0,0.5,0.5,0.45024216175079346,0.0037470534443855286,0.014736317098140717,0.4704001247882843,0.001672297716140747,0.01679479144513607,-0.04594731330871582,-0.3553908169269562,-0.02433200180530548,0.04003167897462845,-0.4245481491088867,0.04063275456428528,-0.0061529651284217834,-0.039406657218933105,0.0,0.0,1.5,0.32945935636923207,0.2185936031560444,0.7590184760896391,-0.017499015711042176,-0.04436198081177123,-0.029486071302861294,0.39869309459734825,-0.24330176840341716,0.8046801342509825,-0.009029588933176846,-0.11461573213872223,-0.017793228245243764,0.5,0.0,0.0,0.5,0.0,0.0,0.0,-0.5,0.0,0.0,-0.5,0.0,0.0,0.0
47,0,0.5,0.0,0.0,0.5,0.0,0.0,0.0,-0.5,0.0,0.0,-0.5,0.0,0.0,0.0,0.5,0.5,0.4498751163482666,0.002338571473956108,0.015824273228645325,0.4673375189304352,0.002384394407272339,0.01715712435543537,-0.04750564694404602,-0.3501163721084595,-0.024378493428230286,0.04067754000425339,-0.41991522908210754,0.04083448648452759,-0.005435869097709656,-0.04034435749053955,0.0,0.0,1.5333000421524048,0.3296863048618608,0.2186786832171482,0.7589452224407678,-0.017535003088223533,-0.04295287890833688,-0.028546779210439244,0.40167053067832836,-0.2435039561432263,0.8061149241436477,-0.009968265327487735,-0.1159318911385725,-0.018078889484975935,0.5,0.0,0.0,0.5,0.0,0.0,0.0,-0.5,0.0,0.0,-0.5,0.0,0.0,0.0
48,0,0.5,0.0,0.0,0.5,0.0,0.0,0.0,-0.5,0.0,0.0,-0.5,0.0,0.0,0.0,0.5,0.5,0.4498063921928406,0.0022424422204494476,0.015985198318958282,0.46711522340774536,0.0025300681591033936,0.01715203933417797,-0.0475030243396759,-0.3495681583881378,-0.0243089497089386,0.04066396504640579,-0.4194221496582031,0.04071548581123352,-0.005273468792438507,-0.04024270176887512,0.0,0.0,1.5666999816894531,0.32970484026313773,0.218671568315985,0.758974916139228,-0.01753434722973557,-0.04293977228680257,-0.028543565925105874,0.40183591373366556,-0.24345937621639624,0.8060763704621956,-0.009980683565876891,-0.1159350344906187,-0.018096802532627798,0.5,0.0,0.0,0.5,0.0,0.0,0.0,-0.5,0.0,0.0,-0.5,0.0,0.0,0.0
49,0,0.5,0.0,0.0,0.5,0.0,0.0,0.0,-0.5,0.0,0.0,-0.5,0.0,0.0,0.0,0.5,0.5,0.44957059621810913,0.00014538690447807312,0.017733149230480194,0.46334245800971985,0.004373461008071899,0.01700628735125065,-0.048580437898635864,-0.33579570055007935,-0.023267239332199097,0.041171737015247345,-0.40890949964523315,0.03900370001792908,-0.0022957250475883484,-0.04198157787322998,0.0,0.0,1.600000023841858,0.32985699422186626,0.2185352306672793,0.7591850808253925,-0.017758930705324527,-0.04257654874606054,-0.028544110302521464,0.40643739084370434,-0.24383257300065492,0.8070447639107975,-0.01160584906927209,-0.11812025097936374,-0.020491824887579835,0.5,0.0,0.0,0.5,0.0,0.0,0.0,-0.5,0.0,0.0,-0.5,0.0,0.0,0.0
50,0,0.5,0.0,0.0,0.5,0.0,0.0,0.0,-0.5,0.0,0.0,-0.5,0.0,0.0,0.0,0.5,0.5,0.44926977157592773,-0.00015762168914079666,0.01772920787334442,0.46321380138397217,0.004701763391494751,0.016183150932192802,-0.04543942213058472,-0.318999707698822,-0.020244136452674866,0.04026567190885544,-0.39827945828437805,0.03457975387573242,0.002854950726032257,-0.04342305660247803,0.0,0.0,1.6332999467849731,0.3301803431435613,0.21841600586095206,0.7592140865253949,-0.01794436400452959,-0.04097933921479102,-0.028705612595534724,0.41049369317364837,-0.24448148673431955,0.8071551396669694,-0.016557619344065966,-0.12036954030824898,-0.02500479818676693,0.5,0.0,0.0,0.5,0.0,0.0,0.0,-0.5,0.0,0.0,-0.5,0.0,0.0,0.0
51,0,0.5,0.0,0.0,0.5,0.0,0.0,0.0,-0.5,0.0,0.0,-0.5,0.0,0.0,0.0,0.5,0.5,0.44897931814193726,-0.000552925281226635,0.01870086044073105,0.4624815583229065,0.005288124084472656,0.016007376834750175,-0.04466250538825989,-0.31315094232559204,-0.019090667366981506,0.04048093408346176,-0.3943164646625519,0.033455461263656616,0.005003549158573151,-0.04477044939994812,0.0,0.0,1.666700005531311,0.33022121354976885,0.21834909328086305,0.759319546501522,-0.017886892498365725,-0.04106784650527562,-0.02875046703706685,0.4119512892222321,-0.24480130512543707,0.8070804485633387,-0.015480804327391517,-0.11916361984670942,-0.027380387523780136,0.5,0.0,0.0,0.5,0.0,0.0,0.0,-0.5,0.0,0.0,-0.5,0.0,0.0,0.0
52,0,0.5,0.0,0.0,0.5,0.0,0.0,0.0,-0.5,0.0,0.0,-0.5,0.0,0.0,0.0,0.5,0.5,0.44837260246276855,-0.0011482024565339088,0.021931476891040802,0.46072739362716675,0.008392155170440674,0.015473151579499245,-0.04409262537956238,-0.29840999841690063,-0.01605675369501114,0.04183837026357651,-0.3849871754646301,0.030690699815750122,0.010718263685703278,-0.04891747236251831,0.0,0.0,1.7000000476837158,0.33040413910061733,0.21810617282324976,0.7595912857004411,-0.017188127349107685,-0.04179843318986931,-0.028914098135697675,0.41579269703457933,-0.24583185750771572,0.8071633932526493,-0.005208729251312771,-0.1135743591406686,-0.03204599547201781,0.5,0.0,0.0,0.5,0.0,0.0,0.0,-0.5,0.0,0.0,-0.5,0.0,0.0,0.0
53,0,0.5,0.0,0.0,0.5,0.0,0.0,0.0,-0.5,0.0,0.0,-0.5,0.0,0.0,0.0,0.5,0.5,0.44746482372283936,-0.0011535249650478363,0.023794181644916534,0.46094411611557007,0.011290222406387329,0.013992158696055412,-0.0430130660533905,-0.28631171584129333,-0.014172986149787903,0.04257596284151077,-0.37829479575157166,0.02954256534576416,0.013421609997749329,-0.05220162868499756,0.0,0.0,1.733299970626831,0.3304495155937406,0.21801905302945596,0.7598849220928754,-0.016376387379219093,-0.043940365428533745,-0.029184665763241302,0.4179460057360609,-0.24641508119748515,0.8072487114123402,-0.00041662347192072957,-0.11343480969958097,-0.03440805635117661,0.5,0.0,0.0,0.5,0.0,0.0,0.0,-0.5,0.0,0.0,-0.5,0.0,0.0,0.0
54,0,0.5,0.0,0.0,0.5,0.0,0.0,0.0,-0.5,0.0,0.0,-0.5,0.0,0.0,0.0,0.5,0.5,0.44556891918182373,-0.0012101409956812859,0.024654731154441833,0.4603189527988434,0.012635767459869385,0.013041643425822258,-0.041559696197509766,-0.2753434479236603,-0.012837585061788559,0.04315546154975891,-0.3719453811645508,0.02941715717315674,0.01508912444114685,-0.05534669756889343,0.0,0.0,1.766700029373169,0.3305270190577234,0.2180568749142574,0.7600921952435139,-0.016037295438586785,-0.045634319545514224,-0.029014740069380096,0.42081702830633183,-0.24713252634334062,0.8074159856788737,0.0009136139340619742,-0.11311850782975919,-0.037152928802035134,0.5,0.0,0.0,0.5,0.0,0.0,0.0,-0.5,0.0,0.0,-0.5,0.0,0.0,0.0
55,0,0.5,0.0,0.0,0.5,0.0,0.0,0.0,-0.5,0.0,0.0,-0.5,0.0,0.0,0.0,0.5,0.5,0.4440602660179138,-0.0017386320978403091,0.025232598185539246,0.4593072533607483,0.013238340616226196,0.012653214856982231,-0.04092487692832947,-0.2691415548324585,-0.012679144740104675,0.04367201030254364,-0.3678158223628998,0.030324608087539673,0.015182338654994965,-0.057366251945495605,0.0,0.0,1.7999999523162842,0.33062798597655907,0.21812757850822095,0.760229324604074,-0.016144956037476454,-0.046269169659055365,-0.028230628408251857,0.42279240813636587,-0.2475934788819436,0.8073802787810531,0.002476582934555882,-0.11222689278411524,-0.03815198620155469,0.5,0.0,0.0,0.5,0.0,0.0,0.0,-0.5,0.0,0.0,-0.5,0.0,0.0,0.0
56,0,0.5,0.0,0.0,0.5,0.0,0.0,0.0,-0.5,0.0,0.0,-0.5,0.0,0.0,0.0,0.5,0.5,0.44277000427246094,-0.0025943517684936523,0.02560337632894516,0.45774781703948975,0.013995736837387085,0.01217491365969181,-0.04132208228111267,-0.2641344964504242,-0.013110369443893433,0.044061094522476196,-0.3638332486152649,0.031292349100112915,0.014602325856685638,-0.0584695041179657,0.0,0.0,1.833299994468689,0.3307256564734629,0.21826121257018474,0.760295862660818,-0.016375103808440095,-0.0465714380609743,-0.027021141728861053,0.4244991009305076,-0.24776815004307792,0.8073915916476245,0.0027182597690909027,-0.11267819971444126,-0.03720928356140618,0.5,0.0,0.0,0.5,0.0,0.0,0.0,-0.5,0.0,0.0,-0.5,0.0,0.0,0.0
57,0,0.5,0.0,0.0,0.5,0.0,0.0,0.0,-0.5,0.0,0.0,-0.5,0.0,0.0,0.0,0.5,0.5,0.4417262673377991,-0.0036427555605769157,0.025459647178649902,0.4559774100780487,0.014181584119796753,0.011858759447932243,-0.04230889678001404,-0.2594973146915436,-0.014016438275575638,0.044172145426273346,-0.35889679193496704,0.0319521427154541,0.0137004554271698,-0.05800953507423401,0.0,0.0,1.8667000532150269,0.3308551127772823,0.21835134246151908,0.7603871740535142,-0.0167252955218129,-0.04658336190710566,-0.026105552309100943,0.42729704439707716,-0.24838744351309236,0.8068784964833342,-0.0024673309075140537,-0.11255196737250417,-0.036269060440248246,0.5,0.0,0.0,0.5,0.0,0.0,0.0,-0.5,0.0,0.0,-0.5,0.0,0.0,0.0
58,0,0.5,0.0,0.0,0.5,0.0,0.0,0.0,-0.5,0.0,0.0,-0.5,0.0,0.0,0.0,0.5,0.5,0.43937450647354126,-0.0036938386037945747,0.02629675716161728,0.4567740261554718,0.014159053564071655,0.011014590039849281,-0.03792533278465271,-0.24922886490821838,-0.0125616155564785,0.04478587955236435,-0.3527705669403076,0.03249409794807434,0.015299670398235321,-0.061238765716552734,0.0,0.0,1.899999976158142,0.3308420138148337,0.2184143976880849,0.7606673850432772,-0.01553440305829401,-0.04773625985321761,-0.02577905532033009,0.4305119033737729,-0.24986974808973592,0.8055474300114498,-0.0014892940972113244,-0.10781759178778705,-0.04117999205698242,0.5,0.0,0.0,0.5,0.0,0.0,0.0,-0.5,0.0,0.0,-0.5,0.0,0.0,0.0
59,0,0.5,0.0,0.0,0.5,0.0,0.0,0.0,-0.5,0.0,0.0,-0.5,0.0,0.0,0.0,0.5,0.5,0.4367162585258484,-0.004729660227894783,0.028455674648284912,0.45552727580070496,0.015124410390853882,0.0107310451567173,-0.03595089912414551,-0.24322184920310974,-0.01275753602385521,0.04657639563083649,-0.3487869203090668,0.03587880730628967,0.014629825949668884,-0.06525075435638428,0.0,0.0,1.9333000183105469,0.33081050844133486,0.2184100188443592,0.7607472242509585,-0.015133615953882629,-0.04836351614501977,-0.025824065036113897,0.4319413338567427,-0.2506508679701946,0.8047482201140409,0.006184877852116966,-0.10233913401318873,-0.04142205649217967,0.5,0.0,0.0,0.5,0.0,0.0,0.0,-0.5,0.0,0.0,-0.5,0.0,0.0,0.0
60,0,0.5,0.0,0.0,0.5,0.0,0.0,0.0,-0.5,0.0,0.0,-0.5,0.0,0.0,0.0,0.5,0.5,0.431662917137146,-0.005966869182884693,0.03177076578140259,0.4567771255970001,0.014263421297073364,0.009638644754886627,-0.025612443685531616,-0.22089311480522156,-0.010007921606302261,0.04818616062402725,-0.33662548661231995,0.038294702768325806,0.018199868500232697,-0.07493561506271362,0.0,0.0,1.9666999578475952,0.3307678032633111,0.21852696383730688,0.7609431103278522,-0.014636867202532322,-0.04959056654266325,-0.025406002869605704,0.43570452650455804,-0.2529207560842983,0.8026576144616617,0.008852355298035075,-0.09357409189617849,-0.04846263628025271,0.5,0.0,0.0,0.5,0.0,0.0,0.0,-0.5,0.0,0.0,-0.5,0.0,0.0,0.0
61,0,0.5,0.0,0.0,0.5,0.0,0.0,0.0,-0.5,0.0,0.0,-0.5,0.0,0.0,0.0,0.5,0.5,0.4292815327644348,-0.006228707730770111,0.03162149339914322,0.4596575200557709,0.014140605926513672,0.005031822249293327,-0.015018254518508911,-0.19107595086097717,-0.004709210246801376,0.04621882736682892,-0.32055366039276123,0.033918172121047974,0.024230077862739563,-0.08217105269432068,0.0,0.0,2.0,0.33083992752134805,0.2189425948134278,0.7611461935038683,-0.01595499506675635,-0.05072688458455055,-0.022284797260348377,0.43946019950050524,-0.25495545657734714,0.8003524427257315,0.0011559263722724644,-0.09022602320738171,-0.05363116222162345,0.5,0.0,0.0,0.5,0.0,0.0,0.0,-0.5,0.0,0.0,-0.5,0.0,0.0,0.0
62,0,0.5,0.0,0.0,0.5,0.0,0.0,0.0,-0.5,0.0,0.0,-0.5,0.0,0.0,0.0,0.5,0.5,0.4266752004623413,-0.007323531899601221,0.03199969232082367,0.46156030893325806,0.01164129376411438,0.003358112648129463,-0.0065177977085113525,-0.16962221264839172,-0.0020321309566497803,0.045080944895744324,-0.31050366163253784,0.036056846380233765,0.025613106787204742,-0.09194859862327576,0.0,0.0,2.0332999229431152,0.3308635604709337,0.21902638376703604,0.7611699599238266,-0.01644146128368451,-0.050843896278616185,-0.021203748853449778,0.4411032176575486,-0.2557111770840582,0.7993127788653734,0.004774192910616648,-0.08543648645436042,-0.05350883446736887,0.5,0.0,0.0,0.5,0.0,0.0,0.0,-0.5,0.0,0.0,-0.5,0.0,0.0,0.0
63,0,0.5,0.0,0.0,0.5,0.0,0.0,0.0,-0.5,0.0,0.0,-0.5,0.0,0.0,0.0,0.5,0.5,0.4223838448524475,-0.011024516075849533,0.02947387844324112,0.4695470631122589,-5.263090133666992e-05,9.592622518539429e-05,0.017252594232559204,-0.10375118255615234,0.005785137414932251,0.04001713544130325,-0.2807830274105072,0.04455044865608215,0.02771400660276413,-0.12389147281646729,0.0,0.0,2.066699981689453,0.33086807214345815,0.21904056821439974,0.7613329092777037,-0.016321729692723608,-0.051272824990830745,-0.019930990950621563,0.4453990989195274,-0.25780251355033734,0.7965846419655189,0.014051874936013231,-0.06815675332056825,-0.051339343124833015,0.5,0.0,0.0,0.5,0.0,0.0,0.0,-0.5,0.0,0.0,-0.5,0.0,0.0,0.0
64,0,0.5,0.0,0.0,0.5,0.0,0.0,0.0,-0.5,0.0,0.0,-0.5,0.0,0.0,0.0,0.5,0.5,0.4259832501411438,-0.00799466297030449,0.02280530333518982,0.48069289326667786,-0.004067480564117432,-0.003159560263156891,0.02380862832069397,-0.08269919455051422,0.010396607220172882,0.03608854115009308,-0.2712935209274292,0.036758989095687866,0.03360483795404434,-0.12987056374549866,0.0,0.0,2.0999999046325684,0.3307213836645334,0.21884798448446588,0.761565036132018,-0.014710242449190947,-0.053690986956784315,-0.020286248073237978,0.44939779654673107,-0.25958179585850194,0.7944843847672102,0.011477917356250256,-0.05755553263778035,-0.05388933590779166,0.5,0.0,0.0,0.5,0.0,0.0,0.0,-0.5,0.0,0.0,-0.5,0.0,0.0,0.0
65,0,0.5,0.0,0.0,0.5,0.0,0.0,0.0,-0.5,0.0,0.0,-0.5,0.0,0.0,0.0,0.5,0.5,0.4273104667663574,-0.005486426874995232,0.017246857285499573,0.4880640208721161,-0.007454514503479004,-0.0041821859776973724,0.028236597776412964,-0.06995745003223419,0.010823316872119904,0.03455708175897598,-0.26676926016807556,0.03771054744720459,0.03232266753911972,-0.1446250081062317,0.0,0.0,2.1333000659942627,0.3306610046911194,0.21883774230256464,0.7616414764849728,-0.014256792915787297,-0.0544484602595432,-0.02007247939362866,0.4519935002851725,-0.26069831459214593,0.7928076987282411,0.027999304432100303,-0.0434076860644832,-0.04718915672970869,0.5,0.0,0.0,0.5,0.0,0.0,0.0,-0.5,0.0,0.0,-0.5,0.0,0.0,0.0
66,0,0.5,0.0,0.0,0.5,0.0,0.0,0.0,-0.5,0.0,0.0,-0.5,0.0,0.0,0.0,0.5,0.5,0.42822229862213135,-0.004078150726854801,0.01362602412700653,0.49245357513427734,-0.009217232465744019,-0.00415610708296299,0.031357139348983765,-0.05552007257938385,0.010031577199697495,0.03391793742775917,-0.2573043406009674,0.04219213128089905,0.029274851083755493,-0.16185417771339417,0.0,0.0,2.1666998863220215,0.3305891977569188,0.21886165230623553,0.7616864387798893,-0.013967369424015441,-0.05495398167386645,-0.019779692138100824,0.4548251124306144,-0.261901725223464,0.7911259699451508,0.03019059906212851,-0.030126585973799802,-0.04522587983498916,0.5,0.0,0.0,0.5,0.0,0.0,0.0,-0.5,0.0,0.0,-0.5,0.0,0.0,0.0
67,0,0.5,0.0,0.0,0.5,0.0,0.0,0.0,-0.5,0.0,0.0,-0.5,0.0,0.0,0.0,0.5,0.5,0.430553674697876,-0.0038085859268903732,0.011463217437267303,0.49522125720977783,-0.008502453565597534,-0.004582280293107033,0.030709773302078247,-0.04269024729728699,0.008353527635335922,0.03430261090397835,-0.24679678678512573,0.04638117551803589,0.02613697201013565,-0.1748684048652649,0.0,0.0,2.200000047683716,0.3304595119263554,0.21892020351452193,0.7617333196715901,-0.013892653714846492,-0.055386613706124965,-0.018362031064824258,0.45766388417092413,-0.2634842127377642,0.789703096393572,0.022523756688261454,-0.02111597157507772,-0.0425289014688488,0.5,0.0,0.0,0.5,0.0,0.0,0.0,-0.5,0.0,0.0,-0.5,0.0,0.0,0.0
68,0,0.5,0.0,0.0,0.5,0.0,0.0,0.0,-0.5,0.0,0.0,-0.5,0.0,0.0,0.0,0.5,0.5,0.43186092376708984,-0.004071919247508049,0.011223182082176208,0.4998742341995239,-0.007132589817047119,-0.006134280003607273,0.03375503420829773,-0.03065916895866394,0.008215796202421188,0.03620448708534241,-0.2374446839094162,0.052326709032058716,0.022915072739124298,-0.18879646062850952,0.0,0.0,2.233299970626831,0.33039406453453024,0.2189956912739295,0.7618161687072317,-0.013912696643770595,-0.05557466788757548,-0.01752790095434964,0.4595580548364846,-0.26473901260740595,0.7883838360722474,0.037284015911071666,-0.009200519238715898,-0.039125875498494445,0.5,0.0,0.0,0.5,0.0,0.0,0.0,-0.5,0.0,0.0,-0.5,0.0,0.0,0.0
69,0,0.5,0.0,0.0,0.5,0.0,0.0,0.0,-0.5,0.0,0.0,-0.5,0.0,0.0,0.0,0.5,0.5,0.4327550530433655,-0.004097398370504379,0.010114692151546478,0.4998193383216858,-0.006591618061065674,-0.006494062952697277,0.03149345517158508,-0.02235841006040573,0.007445238530635834,0.03896322473883629,-0.226636603474617,0.05749917030334473,0.01869574934244156,-0.20041102170944214,0.0,0.0,2.266700029373169,0.3302951446997542,0.21905822289158716,0.7617749554827669,-0.014059861580067778,-0.0555182599749906,-0.016112195941679452,0.46101794203411506,-0.266339322046434,0.7881434322565366,0.04701557897926234,-0.001378736231139932,-0.033867601635650946,0.5,0.0,0.0,0.5,0.0,0.0,0.0,-0.5,0.0,0.0,-0.5,0.0,0.0,0.0
70,0,0.5,0.0,0.0,0.5,0.0,0.0,0.0,-0.5,0.0,0.0,-0.5,0.0,0.0,0.0,0.5,0.5,0.4320352077484131,-0.004906304180622101,0.009662993252277374,0.4976509213447571,-0.006384730339050293,-0.006528440862894058,0.029295802116394043,-0.01711716502904892,0.006559297442436218,0.04151224344968796,-0.21793903410434723,0.06485989689826965,0.013369567692279816,-0.21015048027038574,0.0,0.0,2.299999952316284,0.33027502618154425,0.21909849049193608,0.7617429992106935,-0.014588376168747086,-0.05466766565764969,-0.014687262693411807,0.46153316507242664,-0.2674198494440002,0.7885519871675615,0.05744096651427055,0.00037481445305509453,-0.026489405758275186,0.5,0.0,0.0,0.5,0.0,0.0,0.0,-0.5,0.0,0.0,-0.5,0.0,0.0,0.0
71,0,0.5,0.0,0.0,0.5,0.0,0.0,0.0,-0.5,0.0,0.0,-0.5,0.0,0.0,0.0,0.5,0.5,0.4302949905395508,-0.005177910439670086,0.009396493434906006,0.4968931972980499,-0.007452845573425293,-0.006384660489857197,0.029799997806549072,-0.015332229435443878,0.006178759038448334,0.04415905475616455,-0.21455954015254974,0.07070255279541016,0.01022987812757492,-0.21528998017311096,0.0,0.037802089005708694,2.3333001136779785,0.3302477057487111,0.21924842286446805,0.76169708359643,-0.015825293046711764,-0.05399584422187109,-0.012916526603649281,0.46140878583010214,-0.26824577263110816,0.7893606819103461,0.06202611731330876,-0.00011870710745176538,-0.02532471277371906,0.5,0.0,0.0,0.5,0.0,0.0,0.0,-0.5,0.0,0.0,-0.5,0.0,0.0,0.0
72,0,0.5,0.0,0.0,0.5,0.0,0.0,0.0,-0.5,0.0,0.0,-0.5,0.0,0.0,0.0,0.5,0.5,0.4276907444000244,-0.006312877405434847,0.010452590882778168,0.4959941506385803,-0.00827452540397644,-0.006276032887399197,0.0307827889919281,-0.01660984754562378,0.004561830312013626,0.048173628747463226,-0.21400070190429688,0.07974162697792053,0.005518145859241486,-0.2207595705986023,0.0,0.7305493950843811,2.3666999340057373,0.3302463657100939,0.21947978695463657,0.7615157027488183,-0.017526131949516355,-0.051647419932866256,-0.009882993494544134,0.46089478002500406,-0.2694189962648985,0.7910798823052192,0.07028554126434416,-0.005176999956244099,-0.022788244842055327,0.5,0.0,0.0,0.5,0.0,0.0,0.0,-0.5,0.0,0.0,-0.5,0.0,0.0,0.0
73,0,0.5,0.0,0.0,0.5,0.0,0.0,0.0,-0.5,0.0,0.0,-0.5,0.0,0.0,0.0,0.5,0.5,0.42319488525390625,-0.01059886533766985,0.01630336046218872,0.48746779561042786,-0.004062175750732422,-0.005442352034151554,0.025914311408996582,-0.02602379024028778,-0.0022928528487682343,0.05063676834106445,-0.21803924441337585,0.089835524559021,-0.0027096346020698547,-0.22411483526229858,0.0,1.6553846597671509,2.4000000953674316,0.33026781184200227,0.21959788673855715,0.7614665806409104,-0.01924270014888263,-0.04950323280905078,-0.007134395206066735,0.4598160715664039,-0.26926755589048784,0.7930656409663823,0.07089100175043983,-0.01743349640990699,-0.009643980248855044,0.5,0.0,0.0,0.5,0.0,0.0,0.0,-0.5,0.0,0.0,-0.5,0.0,0.0,0.0
74,0,0.5,0.0,0.0,0.5,0.0,0.0,0.0,-0.5,0.0,0.0,-0.5,0.0,0.0,0.0,0.5,0.5,0.423179566860199,-0.010787855833768845,0.01674605906009674,0.48754051327705383,-0.003389596939086914,-0.0055109309032559395,0.025673627853393555,-0.025126919150352478,-0.0029062479734420776,0.05087529867887497,-0.21700036525726318,0.09108656644821167,-0.003604583442211151,-0.22646626830101013,0.0,1.7964835166931152,2.433300018310547,0.3302925190518594,0.2196315695104037,0.7614706072999741,-0.01959928989722881,-0.04906521596406055,-0.006425019887517092,0.46001336710000296,-0.26960994445156167,0.793148817699731,0.0683238653089564,-0.015702937938016248,-0.007989869730430588,0.5,0.0,0.0,0.5,0.0,0.0,0.0,-0.5,0.0,0.0,-0.5,0.0,0.0,0.0
75,0,0.5,0.0,0.0,0.5,0.0,0.0,0.0,-0.5,0.0,0.0,-0.5,0.0,0.0,0.0,0.5,0.5,0.42435193061828613,-0.00974737387150526,0.016249530017375946,0.4904040992259979,-0.003996431827545166,-0.005662140436470509,0.027010738849639893,-0.023482292890548706,-0.002015531063079834,0.05138394236564636,-0.21676485240459442,0.09079492092132568,-0.0026606544852256775,-0.2289145588874817,0.0,1.7999999523162842,2.4667000770568848,0.3303124721160152,0.21965504793157753,0.7615634687636015,-0.020713528585505347,-0.048330070870407305,-0.005447829934072335,0.4598358460120868,-0.26986123810766977,0.7942320210785512,0.06724782130577855,-0.013507225854490823,-0.01080093412769001,0.5,0.0,0.0,0.5,0.0,0.0,0.0,-0.5,0.0,0.0,-0.5,0.0,0.0,0.0
76,0,0.5,0.0,0.0,0.5,0.0,0.0,0.0,-0.5,0.0,0.0,-0.5,0.0,0.0,0.0,0.5,0.5,0.42380261421203613,-0.009758100844919682,0.016560599207878113,0.49077528715133667,-0.004019707441329956,-0.005662189796566963,0.027530699968338013,-0.022946715354919434,-0.002263180911540985,0.05209661275148392,-0.21670371294021606,0.0921049416065216,-0.0031364187598228455,-0.23037749528884888,0.0,1.7999999523162842,2.5,0.33034455163825027,0.21962041865321044,0.761560778880272,-0.020856536887750465,-0.04781620125030139,-0.005402469025457712,0.4597503603391846,-0.27000442573763367,0.7947879702551234,0.06879558680919029,-0.01375500281546449,-0.010766380406703746,0.5,0.0,0.0,0.5,0.0,0.0,0.0,-0.5,0.0,0.0,-0.5,0.0,0.0,0.0
77,0,0.5,0.0,0.0,0.5,0.0,0.0,0.0,-0.5,0.0,0.0,-0.5,0.0,0.0,0.0,0.5,0.5,0.4214637875556946,-0.010040581226348877,0.017469637095928192,0.4887331426143646,-0.0034759044647216797,-0.00438305176794529,0.026605933904647827,-0.023943953216075897,-0.0044388361275196075,0.05288831889629364,-0.21783623099327087,0.09546467661857605,-0.005660884082317352,-0.23384490609169006,0.0,1.7999999523162842,2.5332999229431152,0.33041583356268306,0.21944672728623787,0.7615782792673502,-0.021455172912293374,-0.047505870075020606,-0.006131716096939854,0.45946060684807066,-0.2698374787177446,0.7961900615132232,0.0664052359985079,-0.013833904627115423,-0.0074408472149825045,0.5,0.0,0.0,0.5,0.0,0.0,0.0,-0.5,0.0,0.0,-0.5,0.0,0.0,0.0
78,0,0.5,0.0,0.0,0.5,0.0,0.0,0.0,-0.5,0.0,0.0,-0.5,0.0,0.0,0.0,0.5,0.5,0.4145756959915161,-0.011031417176127434,0.020596295595169067,0.48515450954437256,-0.003891080617904663,-0.0012782551348209381,0.028135448694229126,-0.02628704160451889,-0.009002447128295898,0.05564388632774353,-0.2218891829252243,0.10362115502357483,-0.009380333125591278,-0.23714879155158997,0.0,1.7999999523162842,2.566699981689453,0.3305441399775196,0.21921965959007872,0.7614247720611453,-0.02204308739109706,-0.04653568509123396,-0.0073186206711479684,0.45909203449708774,-0.2698279682439463,0.797983914213498,0.06158939162648247,-0.01536166634660363,-0.008381129932960807,0.5,0.0,0.0,0.5,0.0,0.0,0.0,-0.5,0.0,0.0,-0.5,0.0,0.0,0.0
79,0,0.5,0.0,0.0,0.5,0.0,0.0,0.0,-0.5,0.0,0.0,-0.5,0.0,0.0,0.0,0.5,0.5,0.40914779901504517,-0.012302746996283531,0.022978760302066803,0.4807845950126648,-0.003709644079208374,0.0014217421412467957,0.02783474326133728,-0.031045645475387573,-0.01393076404929161,0.056219398975372314,-0.22749342024326324,0.1101718544960022,-0.01374778151512146,-0.23832538723945618,0.0,1.7999999523162842,2.5999999046325684,0.3306747477204013,0.21911096335921115,0.7613987817937766,-0.02285483224966267,-0.04531860828412837,-0.00746098738152412,0.4588056651490048,-0.26943541829081274,0.7995633487692888,0.05449367586280429,-0.018325414942754303,-0.0043794217827803905,0.5,0.0,0.0,0.5,0.0,0.0,0.0,-0.5,0.0,0.0,-0.5,0.0,0.0,0.0
80,0,0.5,0.0,0.0,0.5,0.0,0.0,0.0,-0.5,0.0,0.0,-0.5,0.0,0.0,0.0,0.5,0.5,0.40745341777801514,-0.012409932911396027,0.023536473512649536,0.48013412952423096,-0.0038577914237976074,0.00205853208899498,0.028420478105545044,-0.031060144305229187,-0.014907605946063995,0.056825973093509674,-0.22816996276378632,0.112343430519104,-0.014715306460857391,-0.23969560861587524,0.0,1.7999999523162842,2.6333000659942627,0.33070380645296865,0.21901968805618946,0.7614284189541384,-0.023137470026548534,-0.045194362600220916,-0.007959898953469047,0.458806733832014,-0.26945019126156566,0.7998804382383455,0.055070442961861144,-0.017944763965319854,-0.004119805105586849,0.5,0.0,0.0,0.5,0.0,0.0,0.0,-0.5,0.0,0.0,-0.5,0.0,0.0,0.0
81,0,0.5,0.0,0.0,0.5,0.0,0.0,0.0,-0.5,0.0,0.0,-0.5,0.0,0.0,0.0,0.5,0.5,0.40238815546035767,-0.012829095125198364,0.025347761809825897,0.477668821811676,-0.0043363869190216064,0.003997044637799263,0.02980533242225647,-0.032937198877334595,-0.017760448157787323,0.058660201728343964,-0.2317000776529312,0.1179126501083374,-0.01700352132320404,-0.24110552668571472,0.0,1.7999999523162842,2.6666998863220215,0.3308026581247518,0.21888055216171992,0.7614186868385092,-0.023188480997564653,-0.04466120170728782,-0.009114916145126717,0.4586713244241578,-0.26938320614871664,0.8008917790098926,0.05610204915854489,-0.01964716768119512,-0.004699507004787051,0.5,0.0,0.0,0.5,0.0,0.0,0.0,-0.5,0.0,0.0,-0.5,0.0,0.0,0.0
82,0,0.5,0.0,0.0,0.5,0.0,0.0,0.0,-0.5,0.0,0.0,-0.5,0.0,0.0,0.0,0.5,0.5,0.40220993757247925,-0.012858769856393337,0.02543587237596512,0.4775756895542145,-0.004339426755905151,0.0040696170181035995,0.029848545789718628,-0.033010393381118774,-0.01787826418876648,0.05872771888971329,-0.2318343222141266,0.11813896894454956,-0.017100654542446136,-0.24118968844413757,0.0,1.7999999523162842,2.700000047683716,0.330807160775932,0.21888335469165687,0.7614265129275642,-0.023189001886328775,-0.04465786433158847,-0.009116495452666573,0.4586415838519125,-0.2693807292345896,0.8009212282061832,0.05610422333150522,-0.01964155900298925,-0.00469959575182477,0.5,0.0,0.0,0.5,0.0,0.0,0.0,-0.5,0.0,0.0,-0.5,0.0,0.0,0.0
83,0,0.5,0.0,0.0,0.5,0.0,0.0,0.0,-0.5,0.0,0.0,-0.5,0.0,0.0,0.0,0.5,0.5,0.3935288190841675,-0.01434276532381773,0.028071895241737366,0.4699201285839081,-0.005326211452484131,0.007870985195040703,0.028339028358459473,-0.040643110871315,-0.023565329611301422,0.061133064329624176,-0.241575688123703,0.12885907292366028,-0.023382030427455902,-0.24367046356201172,0.0,1.7999999523162842,2.733299970626831,0.3310431524931492,0.2185803140702282,0.761416896797806,-0.02358057931063895,-0.043993854595318016,-0.012367455487547918,0.4582097354980602,-0.26783944441556856,0.8058070170896173,0.06363459935683052,-0.027622914708890035,0.002377222568728293,0.5,0.0,0.0,0.5,0.0,0.0,0.0,-0.5,0.0,0.0,-0.5,0.0,0.0,0.0
84,0,0.5,0.0,0.0,0.5,0.0,0.0,0.0,-0.5,0.0,0.0,-0.5,0.0,0.0,0.0,0.5,0.5,0.3993736505508423,-0.012850403785705566,0.0255417600274086,0.47223731875419617,-0.003650754690170288,0.00607619434595108,0.024644523859024048,-0.0417020320892334,-0.021387547254562378,0.05864889174699783,-0.24264883995056152,0.12252196669578552,-0.021257154643535614,-0.24358879029750824,0.0,1.7999999523162842,2.766700029373169,0.3310538216030843,0.21864671889299192,0.7613711021962313,-0.024258009141781667,-0.043640271163838396,-0.012286052769671318,0.4581904741430739,-0.2673225184463307,0.8071268847998065,0.06485397457602324,-0.026578960057611716,0.003964290451475361,0.5,0.0,0.0,0.5,0.0,0.0,0.0,-0.5,0.0,0.0,-0.5,0.0,0.0,0.0
85,0,0.5,0.0,0.0,0.5,0.0,0.0,0.0,-0.5,0.0,0.0,-0.5,0.0,0.0,0.0,0.5,0.5,0.40597379207611084,-0.012751965783536434,0.02358703315258026,0.47168201208114624,-0.0015175044536590576,0.004193829372525215,0.017162621021270752,-0.049697935581207275,-0.019887663424015045,0.05635051429271698,-0.24859865009784698,0.11541473865509033,-0.01936904340982437,-0.2386922538280487,0.0,1.7999999523162842,2.799999952316284,0.33104112098090055,0.21891246408155868,0.7612920130581693,-0.02575345297668008,-0.04253836530204236,-0.011382523003293343,0.45789467816459517,-0.26627379447146415,0.8097927744901257,0.06956009866583457,-0.033207873597168085,0.007797015087630291,0.5,0.0,0.0,0.5,0.0,0.0,0.0,-0.5,0.0,0.0,-0.5,0.0,0.0,0.0
86,0,0.5,0.0,0.0,0.5,0.0,0.0,0.0,-0.5,0.0,0.0,-0.5,0.0,0.0,0.0,0.5,0.5,0.4059937000274658,-0.012707144021987915,0.02355807274580002,0.47157999873161316,-0.0014707446098327637,0.004188286140561104,0.016990363597869873,-0.04999874532222748,-0.01991063356399536,0.05635817348957062,-0.2488584667444229,0.11532154679298401,-0.019382178783416748,-0.2386539876461029,0.0,1.7999999523162842,2.8333001136779785,0.3310416060164805,0.21892599245467248,0.7613155211902306,-0.02575827007217324,-0.04252999440376337,-0.01138402607458655,0.45781191765489404,-0.26626512577444833,0.8098527969918355,0.0695652141233805,-0.03320143453974867,0.007799070959001136,0.5,0.0,0.0,0.5,0.0,0.0,0.0,-0.5,0.0,0.0,-0.5,0.0,0.0,0.0
87,0,0.5,0.0,0.0,0.5,0.0,0.0,0.0,-0.5,0.0,0.0,-0.5,0.0,0.0,0.0,0.5,0.5,0.4059963822364807,-0.012705698609352112,0.023556873202323914,0.471577912569046,-0.0014682412147521973,0.00418725423514843,0.01698407530784607,-0.050006985664367676,-0.019910641014575958,0.05635770410299301,-0.24886564910411835,0.11531665921211243,-0.01938161998987198,-0.23865294456481934,0.0,1.7999999523162842,2.8666999340057373,0.3310414665206727,0.21892607112233034,0.7613159369367741,-0.025758284459267866,-0.0425298971254664,-0.011384043193316984,0.4578098014860981,-0.26626486499070506,0.8098546640417086,0.0695652789592779,-0.03320097062041467,0.007799030441616658,0.5,0.0,0.0,0.5,0.0,0.0,0.0,-0.5,0.0,0.0,-0.5,0.0,0.0,0.0
88,0,0.5,0.0,0.0,0.5,0.0,0.0,0.0,-0.5,0.0,0.0,-0.5,0.0,0.0,0.0,0.5,0.5,0.4275496006011963,-0.013436011038720608,0.017331115901470184,0.4709281325340271,0.007474362850189209,-0.0010496396571397781,-0.009459197521209717,-0.07735836505889893,-0.01617594063282013,0.05061045289039612,-0.2655613422393799,0.09368789196014404,-0.014693476259708405,-0.22562965750694275,0.0,1.7999999523162842,2.9000000953674316,0.3308936046666098,0.2190042605321994,0.7614764821318577,-0.025746951540999152,-0.04383839614299845,-0.010905311955224484,0.4565205164281625,-0.2631416242035199,0.8180356988659055,0.08541172390147167,-0.04717497752671741,0.018026988576909493,0.5,0.0,0.0,0.5,0.0,0.0,0.0,-0.5,0.0,0.0,-0.5,0.0,0.0,0.0
89,0,0.5,0.0,0.0,0.5,0.0,0.0,0.0,-0.5,0.0,0.0,-0.5,0.0,0.0,0.0,0.5,0.5,0.4313380718231201,-0.014553520828485489,0.016858413815498352,0.4671769142150879,0.010391861200332642,0.0014379750937223434,-0.022005707025527954,-0.10195223987102509,-0.020058095455169678,0.05080045014619827,-0.2804652154445648,0.09070611000061035,-0.016214244067668915,-0.21538704633712769,0.0,1.7999999523162842,2.933300018310547,0.3309174704484943,0.21911128377572456,0.761425875195141,-0.026151739964869858,-0.0436910684774805,-0.011163041018320996,0.45583304627497817,-0.26160413524007303,0.8227625015879307,0.08213026231008093,-0.056171580572285905,0.01907123431802047,0.5,0.0,0.0,0.5,0.0,0.0,0.0,-0.5,0.0,0.0,-0.5,0.0,0.0,0.0
90,0,0.5,0.0,0.0,0.5,0.0,0.0,0.0,-0.5,0.0,0.0,-0.5,0.0,0.0,0.0,0.5,0.5,0.4369741678237915,-0.019492726773023605,0.014708474278450012,0.4581303894519806,0.01333567500114441,0.003433169797062874,-0.04176279902458191,-0.15063433349132538,-0.02579876035451889,0.050716839730739594,-0.30945494771003723,0.0911085307598114,-0.02245422452688217,-0.20266765356063843,0.0,1.7999999523162842,2.9667000770568848,0.33090097467691176,0.21920990440736557,0.7613427694026419,-0.028071260662540176,-0.04248332471891825,-0.010282322221518037,0.4550141231519349,-0.2592070581326374,0.8299858313731601,0.0921106019829191,-0.06610527717633384,0.026471845676002106,0.5,0.0,0.0,0.5,0.0,0.0,0.0,-0.5,0.0,0.0,-0.5,0.0,0.0,0.0
91,0,0.5,0.0,0.0,0.5,0.0,0.0,0.0,-0.5,0.0,0.0,-0.5,0.0,0.0,0.0,0.5,0.5,0.4395812153816223,-0.02326769381761551,0.01381491869688034,0.45019617676734924,0.014226168394088745,0.005673050880432129,-0.05554085969924927,-0.1887105405330658,-0.03278572857379913,0.0507659986615181,-0.33054715394973755,0.09309014678001404,-0.027291610836982727,-0.1917913556098938,0.0,1.7999999523162842,3.0,0.33084965819768697,0.219255037706434,0.7613477348107471,-0.028824760574826414,-0.04231140004375744,-0.009863860935331203,0.45437065879993366,-0.25745690409023536,0.8363154062249171,0.09182667828719829,-0.07707905909648684,0.029319344183435625,0.5,0.0,0.0,0.5,0.0,0.0,0.0,-0.5,0.0,0.0,-0.5,0.0,0.0,0.0
92,0,0.5,0.0,0.0,0.5,0.0,0.0,0.0,-0.5,0.0,0.0,-0.5,0.0,0.0,0.0,0.5,0.5,0.438198447227478,-0.02455105073750019,0.01432376354932785,0.4485337734222412,0.012905776500701904,0.00656488724052906,-0.0558183491230011,-0.19621947407722473,-0.03523877263069153,0.051082588732242584,-0.3366839289665222,0.0991286039352417,-0.02988170087337494,-0.19460514187812805,0.0,1.7999999523162842,3.0332999229431152,0.3308300699825648,0.2192309783086468,0.7613327171784526,-0.0290059292671474,-0.04245101624524539,-0.010049908415267428,0.4540372728177457,-0.2568216474986951,0.8385568562387115,0.09672451463189857,-0.08081852491256494,0.030593440596683272,0.5,0.0,0.0,0.5,0.0,0.0,0.0,-0.5,0.0,0.0,-0.5,0.0,0.0,0.0
93,0,0.5,0.0,0.0,0.5,0.0,0.0,0.0,-0.5,0.0,0.0,-0.5,0.0,0.0,0.0,0.5,0.5,0.4387550354003906,-0.02783840522170067,0.013405047357082367,0.44341418147087097,0.010270029306411743,0.007867708802223206,-0.061674684286117554,-0.22097143530845642,-0.04069904983043671,0.04760555922985077,-0.3571447432041168,0.10444015264511108,-0.034616775810718536,-0.19417771697044373,0.0,1.7999999523162842,3.066699981689453,0.33077231220145875,0.21914271664296078,0.761254843127562,-0.029377381687882842,-0.042513946548286,-0.010853507106083349,0.45320564222008847,-0.2542659327707178,0.8453058571334199,0.09898423189314604,-0.09292799887967028,0.036210492923485965,0.5,0.0,0.0,0.5,0.0,0.0,0.0,-0.5,0.0,0.0,-0.5,0.0,0.0,0.0
94,0,0.5,0.0,0.0,0.5,0.0,0.0,0.0,-0.5,0.0,0.0,-0.5,0.0,0.0,0.0,0.5,0.5,0.44321686029434204,-0.03163512051105499,0.009602278470993042,0.4385030269622803,0.007724404335021973,0.007049400359392166,-0.07112371921539307,-0.24129140377044678,-0.04240943491458893,0.0416027307510376,-0.3732684850692749,0.10245907306671143,-0.037138380110263824,-0.18876197934150696,0.0,1.7999999523162842,3.0999999046325684,0.33072140906191755,0.21916629337022406,0.7611511209923012,-0.030567725442718796,-0.04208816242067259,-0.011340853773695425,0.45249208034240046,-0.25117037167157785,0.8521972660966147,0.09903466464006053,-0.10494457847737555,0.046689176640064785,0.5,0.0,0.0,0.5,0.0,0.0,0.0,-0.5,0.0,0.0,-0.5,0.0,0.0,0.0
95,0,0.5,0.0,0.0,0.5,0.0,0.0,0.0,-0.5,0.0,0.0,-0.5,0.0,0.0,0.0,0.5,0.5,0.4443666934967041,-0.03313193470239639,0.007683597505092621,0.4364264905452728,0.0072370171546936035,0.006166927516460419,-0.07575953006744385,-0.25164994597435,-0.04269290715456009,0.03964952379465103,-0.3819524943828583,0.10072043538093567,-0.03805907070636749,-0.1816737949848175,0.0,1.7999999523162842,3.1333000659942627,0.33066224154209506,0.21916367304418877,0.7610259913392129,-0.030921211548885275,-0.04150918576621354,-0.011969963439853348,0.45199304496985027,-0.24884376418720683,0.8569280194542211,0.10214667386380309,-0.11625776403259483,0.05425724131002414,0.5,0.0,0.0,0.5,0.0,0.0,0.0,-0.5,0.0,0.0,-0.5,0.0,0.0,0.0
96,0,0.5,0.0,0.0,0.5,0.0,0.0,0.0,-0.5,0.0,0.0,-0.5,0.0,0.0,0.0,0.5,0.5,0.4476144313812256,-0.035797130316495895,0.005757912993431091,0.4335521459579468,0.0048454999923706055,0.006760604679584503,-0.0819610059261322,-0.2624237537384033,-0.043404534459114075,0.0364275760948658,-0.3915664851665497,0.10150665044784546,-0.038655079901218414,-0.18052545189857483,0.0,1.7999999523162842,3.1666998863220215,0.33042848088718524,0.21919522807308922,0.760990815558106,-0.03136065476857608,-0.04221476333461771,-0.01294347277350072,0.4516525712322307,-0.2452041831206745,0.8633061280570172,0.1072265949305505,-0.12544968206890564,0.06211008218443458,0.5,0.0,0.0,0.5,0.0,0.0,0.0,-0.5,0.0,0.0,-0.5,0.0,0.0,0.0
97,0,0.5,0.0,0.0,0.5,0.0,0.0,0.0,-0.5,0.0,0.0,-0.5,0.0,0.0,0.0,0.5,0.5,0.4523307681083679,-0.03685509413480759,0.003180593252182007,0.4324783384799957,0.0038400590419769287,0.006020562723278999,-0.0876413881778717,-0.2717336118221283,-0.04080352932214737,0.03322456404566765,-0.39878952503204346,0.09474286437034607,-0.03628869354724884,-0.17342400550842285,0.0,1.7999999523162842,3.200000047683716,0.33034491764861335,0.21926947592661558,0.7608754453036781,-0.031429444113434624,-0.042300657442388534,-0.013173626617596135,0.450833672996898,-0.2423664263146457,0.8682548788987666,0.10757097552291871,-0.13595445513783025,0.06639402934968384,0.5,0.0,0.0,0.5,0.0,0.0,0.0,-0.5,0.0,0.0,-0.5,0.0,0.0,0.0
98,0,0.5,0.0,0.0,0.5,0.0,0.0,0.0,-0.5,0.0,0.0,-0.5,0.0,0.0,0.0,0.5,0.5,0.4555036425590515,-0.03672806918621063,0.0006669983267784119,0.4307693839073181,0.005079835653305054,0.004291430115699768,-0.09412747621536255,-0.2812918424606323,-0.03763384371995926,0.030547719448804855,-0.40571990609169006,0.08559262752532959,-0.034373119473457336,-0.1636541187763214,0.0,1.7999999523162842,3.233299970626831,0.33025323562377806,0.21942219108154187,0.7607778295075803,-0.03221286641934329,-0.041905949701442236,-0.012634843049008637,0.45065355918294336,-0.23912474081887028,0.8724918341187446,0.11245188932780954,-0.14416593182647014,0.07432398447868938,0.5,0.0,0.0,0.5,0.0,0.0,0.0,-0.5,0.0,0.0,-0.5,0.0,0.0,0.0
99,0,0.5,0.0,0.0,0.5,0.0,0.0,0.0,-0.5,0.0,0.0,-0.5,0.0,0.0,0.0,0.5,0.5,0.45653802156448364,-0.03577394038438797,-0.0008622333407402039,0.43171200156211853,0.0030233263969421387,0.005827814340591431,-0.09404867887496948,-0.28157976269721985,-0.035158514976501465,0.029033511877059937,-0.4093485474586487,0.08172264695167542,-0.03156360238790512,-0.16284048557281494,0.0,1.7999999523162842,3.266700029373169,0.3300449575446507,0.2195894362669434,0.7607082914724923,-0.03340815206085379,-0.04193976129521282,-0.011682651920470022,0.4501409706266316,-0.23423312844551286,0.8787310674041311,0.11602990584912237,-0.15294943015415613,0.07714123251076384,0.5,0.0,0.0,0.5,0.0,0.0,0.0,-0.5,0.0,0.0,-0.5,0.0,0.0,0.0
100,0,0.5,0.0,0.0,0.5,0.0,0.0,0.0,-0.5,0.0,0.0,-0.5,0.0,0.0,0.0,0.5,0.5,0.4579682946205139,-0.03544221818447113,-0.0003180578351020813,0.4330258071422577,0.005926460027694702,0.004339843988418579,-0.09528452157974243,-0.2797888517379761,-0.03165599703788757,0.027734093368053436,-0.41189947724342346,0.07693272829055786,-0.029837414622306824,-0.15829184651374817,0.0,1.7999999523162842,3.299999952316284,0.32975264573341545,0.2197003968999733,0.7606824463175247,-0.0333067949786483,-0.04269264274657347,-0.011348354066090582,0.44875490263115714,-0.2282441928254526,0.8851366034486381,0.1217954377194349,-0.16761640543730585,0.08859302231525314,0.5,0.0,0.0,0.5,0.0,0.0,0.0,-0.5,0.0,0.0,-0.5,0.0,0.0,0.0
101,0,0.5,0.0,0.0,0.5,0.0,0.0,0.0,-0.5,0.0,0.0,-0.5,0.0,0.0,0.0,0.5,0.5,0.4589163661003113,-0.03422434628009796,-0.0011531487107276917,0.43535828590393066,0.0065264105796813965,0.0035659167915582657,-0.0942012369632721,-0.2802653908729553,-0.029090650379657745,0.026700571179389954,-0.4149492681026459,0.07309380173683167,-0.028257504105567932,-0.15641528367996216,0.0,1.7999999523162842,3.3333001136779785,0.32962684649484125,0.21977000187361856,0.7606869303449736,-0.03325844678530743,-0.04317146225711399,-0.010991305554795439,0.4481683756479443,-0.22618286802155183,0.887186932510294,0.1251455840564671,-0.1724315161647643,0.09105692085642432,0.5,0.0,0.0,0.5,0.0,0.0,0.0,-0.5,0.0,0.0,-0.5,0.0,0.0,0.0
102,0,0.5,0.0,0.0,0.5,0.0,0.0,0.0,-0.5,0.0,0.0,-0.5,0.0,0.0,0.0,0.5,0.5,0.46172016859054565,-0.031872548162937164,-0.0030563771724700928,0.4400375485420227,0.006963789463043213,0.002610648050904274,-0.09219858050346375,-0.28038761019706726,-0.024104781448841095,0.02355007454752922,-0.420671671628952,0.06601002812385559,-0.025044173002243042,-0.15534311532974243,0.0,1.7999999523162842,3.3666999340057373,0.3292923343547477,0.2202394281104998,0.7606475870518368,-0.03422525292731038,-0.04462995227868349,-0.008737210713460897,0.44715266938736176,-0.21934443318680197,0.8926897671706603,0.1278225418003755,-0.17871001318687774,0.10043585711116006,0.5,0.0,0.0,0.5,0.0,0.0,0.0,-0.5,0.0,0.0,-0.5,0.0,0.0,0.0
103,0,0.5,0.0,0.0,0.5,0.0,0.0,0.0,-0.5,0.0,0.0,-0.5,0.0,0.0,0.0,0.5,0.5,0.4638735055923462,-0.030055051669478416,-0.003927737474441528,0.44348961114883423,0.007525712251663208,0.0020467042922973633,-0.09045472741127014,-0.28026583790779114,-0.0208265483379364,0.020961806178092957,-0.424586683511734,0.06103873252868652,-0.022410698235034943,-0.15446466207504272,0.0,1.7999999523162842,3.4000000953674316,0.32912682380998004,0.2206541104829096,0.760457064936616,-0.035914165816223864,-0.04374464934291211,-0.0065130897415923705,0.4459169881681771,-0.21409235945425314,0.8962723840797197,0.12806950808278672,-0.18295477308141925,0.10783817029562928,0.5,0.0,0.0,0.5,0.0,0.0,0.0,-0.5,0.0,0.0,-0.5,0.0,0.0,0.0
104,0,0.5,0.0,0.0,0.5,0.0,0.0,0.0,-0.5,0.0,0.0,-0.5,0.0,0.0,0.0,0.5,0.5,0.4646177887916565,-0.029510103166103363,-0.004339568316936493,0.44427165389060974,0.007557690143585205,0.0020216163247823715,-0.09012794494628906,-0.2791531980037689,-0.019423991441726685,0.019750285893678665,-0.42555877566337585,0.05937480926513672,-0.021580830216407776,-0.15423798561096191,0.0,1.7999999523162842,3.433300018310547,0.32908762375690026,0.2208500863857305,0.7603322541329318,-0.036918103593954754,-0.04285980310280646,-0.005526532978346044,0.44540367064828157,-0.21137678785645544,0.8978715545366043,0.12782686210965613,-0.1855927475701275,0.11336481790648632,0.5,0.0,0.0,0.5,0.0,0.0,0.0,-0.5,0.0,0.0,-0.5,0.0,0.0,0.0
105,0,0.5,0.0,0.0,0.5,0.0,0.0,0.0,-0.5,0.0,0.0,-0.5,0.0,0.0,0.0,0.5,0.5,0.46721965074539185,-0.027566391974687576,-0.00722329318523407,0.44638320803642273,0.0046956539154052734,0.0036974307149648666,-0.08908838033676147,-0.28002846240997314,-0.014114122837781906,0.01488913968205452,-0.4321863055229187,0.05548706650733948,-0.019405364990234375,-0.15557143092155457,0.0,1.7999999523162842,3.4667000770568848,0.3288364427682684,0.22129250679722184,0.7601219364816736,-0.03872143957075336,-0.04224550735051569,-0.0031795176202109587,0.4436523060278853,-0.20110531343101523,0.9034626039895743,0.1411502910745158,-0.1910074363853142,0.13375880552786426,0.5,0.0,0.0,0.5,0.0,0.0,0.0,-0.5,0.0,0.0,-0.5,0.0,0.0,0.0
106,0,0.5,0.0,0.0,0.5,0.0,0.0,0.0,-0.5,0.0,0.0,-0.5,0.0,0.0,0.0,0.5,0.5,0.4705275893211365,-0.024326525628566742,-0.008813239634037018,0.4491426646709442,-0.0025168955326080322,0.008675836026668549,-0.08701816201210022,-0.2828090488910675,-0.01020517572760582,0.009574860334396362,-0.4401085078716278,0.053243160247802734,-0.014489367604255676,-0.15870380401611328,0.0,1.7999999523162842,3.5,0.32865291838056526,0.2214213472338648,0.759958488910252,-0.038528068874751575,-0.04263643605801892,-0.0037396185849591923,0.4421327433192493,-0.19258389825234754,0.9075316016359687,0.14594724426803454,-0.19530338361537447,0.14606342153091173,0.5,0.0,0.0,0.5,0.0,0.0,0.0,-0.5,0.0,0.0,-0.5,0.0,0.0,0.0
107,0,0.5,0.0,0.0,0.5,0.0,0.0,0.0,-0.5,0.0,0.0,-0.5,0.0,0.0,0.0,0.5,0.5,0.47119778394699097,-0.02342122234404087,-0.009210482239723206,0.44991862773895264,-0.006890684366226196,0.010959494858980179,-0.08554637432098389,-0.28440946340560913,-0.009840790182352066,0.007351905107498169,-0.4441070854663849,0.05485960841178894,-0.012762270867824554,-0.1629694104194641,0.0,1.7999999523162842,3.5332999229431152,0.3286480445766161,0.2214946941528157,0.7598309439273,-0.038484070676538806,-0.042288420241175295,-0.003753794266398547,0.4418969071881627,-0.18970392731160174,0.9084730512754333,0.14827594388012086,-0.19320011778199087,0.15147472657505867,0.5,0.0,0.0,0.5,0.0,0.0,0.0,-0.5,0.0,0.0,-0.5,0.0,0.0,0.0
108,0,0.5,0.0,0.0,0.5,0.0,0.0,0.0,-0.5,0.0,0.0,-0.5,0.0,0.0,0.0,0.5,0.5,0.4740403890609741,-0.022368520498275757,-0.010152578353881836,0.45160341262817383,-0.01650354266166687,0.014074014499783516,-0.08150044083595276,-0.2847572863101959,-0.00978420302271843,-0.0049888864159584045,-0.45378607511520386,0.059345543384552,-0.014503233134746552,-0.16708225011825562,0.0,1.7999999523162842,3.566699981689453,0.32858769976857594,0.2217507463808643,0.7596829250889107,-0.040173708381752604,-0.041758722861158226,-0.0021074380860319764,0.44106053611064905,-0.18137048824823426,0.9107922641523165,0.15157861846754886,-0.19363604655069874,0.16550689440609279,0.5,0.0,0.0,0.5,0.0,0.0,0.0,-0.5,0.0,0.0,-0.5,0.0,0.0,0.0
109,0,0.5,0.0,0.0,0.5,0.0,0.0,0.0,-0.5,0.0,0.0,-0.5,0.0,0.0,0.0,0.5,0.5,0.47521883249282837,-0.0222039632499218,-0.008721232414245605,0.4528235197067261,-0.020122617483139038,0.015395810827612877,-0.07903289794921875,-0.28201475739479065,-0.01232781633734703,-0.011895134113729,-0.4568897783756256,0.0666271448135376,-0.0184074267745018,-0.17497920989990234,0.0,1.7999999523162842,3.5999999046325684,0.3285288670296077,0.2219249413161396,0.7596122029294783,-0.04115122226056611,-0.04168381764408524,-0.0015107235835030153,0.440685079436803,-0.17531639199279914,0.9119076173259711,0.15172637906218778,-0.18885673303447773,0.17454028154520293,0.5,0.0,0.0,0.5,0.0,0.0,0.0,-0.5,0.0,0.0,-0.5,0.0,0.0,0.0
110,0,0.5,0.0,0.0,0.5,0.0,0.0,0.0,-0.5,0.0,0.0,-0.5,0.0,0.0,0.0,0.5,0.5,0.4783821702003479,-0.023578474298119545,-0.007609575986862183,0.4561879336833954,-0.029002457857131958,0.014104647561907768,-0.07028326392173767,-0.272621214389801,-0.01743759959936142,-0.03323768824338913,-0.4623383581638336,0.0820881724357605,-0.03212545067071915,-0.18556857109069824,0.0,1.7999999523162842,3.6333000659942627,0.32848561330256165,0.22213125670535958,0.7594106550878204,-0.042154750169501654,-0.04059056997906296,-0.0006829449024552403,0.43980279599197947,-0.16700843647631927,0.9134777148081306,0.15090060713809975,-0.1869451051944322,0.18935298336018688,0.5,0.0,0.0,0.5,0.0,0.0,0.0,-0.5,0.0,0.0,-0.5,0.0,0.0,0.0
111,0,0.5,0.0,0.0,0.5,0.0,0.0,0.0,-0.5,0.0,0.0,-0.5,0.0,0.0,0.0,0.5,0.5,0.4905349612236023,-0.026028193533420563,-0.006583593785762787,0.46500933170318604,-0.019246846437454224,0.015753285959362984,-0.07523798942565918,-0.24143752455711365,-0.005272276699542999,-0.06452956795692444,-0.44775256514549255,0.07164144515991211,-0.03534376993775368,-0.20043891668319702,0.0,1.7999999523162842,3.6666998863220215,0.3283689000085088,0.22230472828674389,0.7594276959689416,-0.04346470788943834,-0.0410986297917165,0.00015021830997117945,0.43915665069526844,-0.15932684939456368,0.9143432809088056,0.14682386606970485,-0.1840685905765818,0.19688957433857165,0.5,0.0,0.0,0.5,0.0,0.0,0.0,-0.5,0.0,0.0,-0.5,0.0,0.0,0.0
112,0,0.5,0.0,0.0,0.5,0.0,0.0,0.0,-0.5,0.0,0.0,-0.5,0.0,0.0,0.0,0.5,0.5,0.4945216178894043,-0.027093589305877686,-0.0065247416496276855,0.4684995114803314,-0.015628188848495483,0.015811873599886894,-0.07710960507392883,-0.23184502124786377,0.0004439428448677063,-0.07361869513988495,-0.44277310371398926,0.06678399443626404,-0.03484201431274414,-0.20515590906143188,0.0,1.7999999523162842,3.700000047683716,0.32833380858939354,0.2224099188597522,0.7593634802735075,-0.04403399909535601,-0.04079352112434374,0.0006573929081039693,0.4390315106084099,-0.15667730822773662,0.9146112348521096,0.1480148649898162,-0.18091112255075265,0.20007894955747033,0.5,0.0,0.0,0.5,0.0,0.0,0.0,-0.5,0.0,0.0,-0.5,0.0,0.0,0.0
113,0,0.5,0.0,0.0,0.5,0.0,0.0,0.0,-0.5,0.0,0.0,-0.5,0.0,0.0,0.0,0.5,0.5,0.5022440552711487,-0.03009871020913124,-0.006580479443073273,0.4740538001060486,-0.006702244281768799,0.011156812310218811,-0.08061337471008301,-0.20991641283035278,0.014892954379320145,-0.09168317168951035,-0.4296342730522156,0.05279102921485901,-0.03153480589389801,-0.21093332767486572,0.0,1.7999999523162842,3.733299970626831,0.32821644474687456,0.22282828409492028,0.7592260802489551,-0.04660358768364574,-0.03907233528540585,0.003242497686591385,0.4386004949239165,-0.1473439285524129,0.9161395758477927,0.15175852551976776,-0.17499577312950587,0.2088408555190101,0.5,0.0,0.0,0.5,0.0,0.0,0.0,-0.5,0.0,0.0,-0.5,0.0,0.0,0.0
114,0,0.5,0.0,0.0,0.5,0.0,0.0,0.0,-0.5,0.0,0.0,-0.5,0.0,0.0,0.0,0.5,0.5,0.50642329454422,-0.030792858451604843,-0.007421530783176422,0.47667330503463745,-0.0029479265213012695,0.008913122117519379,-0.08263486623764038,-0.20234757661819458,0.021778585389256477,-0.10203190892934799,-0.42700985074043274,0.041380882263183594,-0.028192684054374695,-0.21106886863708496,0.0,1.7999999523162842,3.766700029373169,0.32809811001713923,0.2229577210075485,0.7592243997240116,-0.04763041241319058,-0.0387806937403116,0.004040296058911092,0.4384626869919091,-0.14275474129439503,0.9167778720362733,0.1472466524968159,-0.1726783030240927,0.2102077687567463,0.5,0.0,0.0,0.5,0.0,0.0,0.0,-0.5,0.0,0.0,-0.5,0.0,0.0,0.0
115,0,0.5,0.0,0.0,0.5,0.0,0.0,0.0,-0.5,0.0,0.0,-0.5,0.0,0.0,0.0,0.5,0.5,0.5080574750900269,-0.03112814947962761,-0.007472679018974304,0.47845855355262756,-0.0007044374942779541,0.0075718704611063,-0.08301243185997009,-0.19687893986701965,0.02549847774207592,-0.1073894202709198,-0.425272673368454,0.03731778264045715,-0.027178429067134857,-0.21385863423347473,0.0,1.7999999523162842,3.799999952316284,0.32807450426153006,0.22306677243975465,0.7591882812673638,-0.048429508598457106,-0.0385488704961878,0.00433159705710143,0.43842411412218946,-0.14021684762770822,0.9170396203569798,0.14916464980329158,-0.16938169745934828,0.2130282645327817,0.5,0.0,0.0,0.5,0.0,0.0,0.0,-0.5,0.0,0.0,-0.5,0.0,0.0,0.0
116,0,0.5,0.0,0.0,0.5,0.0,0.0,0.0,-0.5,0.0,0.0,-0.5,0.0,0.0,0.0,0.5,0.5,0.5108915567398071,-0.03219469264149666,-0.007550127804279327,0.4830973148345947,0.0033093392848968506,0.003227030858397484,-0.08116856217384338,-0.18601441383361816,0.032768845558166504,-0.11910728365182877,-0.42405107617378235,0.030084431171417236,-0.026047557592391968,-0.21960261464118958,0.0,1.7999999523162842,3.8333001136779785,0.32802879052239997,0.22358469662881353,0.7590904995814943,-0.050862161452433864,-0.03698482728110751,0.007123060427565599,0.4376590682417322,-0.13315726785504858,0.9182948884081152,0.15368493161186383,-0.16443185022173187,0.22539021342926174,0.5,0.0,0.0,0.5,0.0,0.0,0.0,-0.5,0.0,0.0,-0.5,0.0,0.0,0.0
117,0,0.5,0.0,0.0,0.5,0.0,0.0,0.0,-0.5,0.0,0.0,-0.5,0.0,0.0,0.0,0.5,0.5,0.5142611265182495,-0.03450269252061844,-0.009677872061729431,0.48857569694519043,0.003796190023422241,-0.0012809429317712784,-0.07609310746192932,-0.1683102548122406,0.0419221930205822,-0.1364988088607788,-0.41808387637138367,0.02215421199798584,-0.025205209851264954,-0.2330613136291504,0.0,1.7999999523162842,3.8666999340057373,0.3279916608955057,0.22419030829209377,0.7590261358953493,-0.05392180654004139,-0.03560482437358369,0.0108328164827006,0.43729206014279653,-0.12610136521461807,0.9190341579044914,0.15159477917016176,-0.15979753499706145,0.2343887684409473,0.5,0.0,0.0,0.5,0.0,0.0,0.0,-0.5,0.0,0.0,-0.5,0.0,0.0,0.0
118,0,0.5,0.0,0.0,0.5,0.0,0.0,0.0,-0.5,0.0,0.0,-0.5,0.0,0.0,0.0,0.5,0.5,0.5150783658027649,-0.03525640815496445,-0.010761305689811707,0.4909748136997223,0.002742081880569458,-0.0024222880601882935,-0.07284972071647644,-0.15889105200767517,0.04644789919257164,-0.1440809667110443,-0.4141997694969177,0.02142554521560669,-0.024991095066070557,-0.2438526749610901,0.0,1.7999999523162842,3.9000000953674316,0.3279989061713371,0.22439361689357912,0.7589786421015234,-0.05491053819712359,-0.035061202086544604,0.01194017735178509,0.4368802218777613,-0.12358712464026796,0.9194777253909829,0.15284040199489748,-0.15712494995016196,0.23757393598871782,0.5,0.0,0.0,0.5,0.0,0.0,0.0,-0.5,0.0,0.0,-0.5,0.0,0.0,0.0
119,0,0.5,0.0,0.0,0.5,0.0,0.0,0.0,-0.5,0.0,0.0,-0.5,0.0,0.0,0.0,0.5,0.5,0.5087040066719055,-0.03968614339828491,-0.017669677734375,0.4903844892978668,-0.008235365152359009,-0.009778574109077454,-0.05532354116439819,-0.12934677302837372,0.06310746818780899,-0.17770329117774963,-0.3994055390357971,0.026520490646362305,-0.029666133224964142,-0.28774702548980713,0.0,1.7999999523162842,3.933300018310547,0.32774289807976453,0.2245855563538143,0.7590915567849809,-0.05653242952347064,-0.03437773525930647,0.013466567050282865,0.4349813566597354,-0.1154960364806396,0.9205919022456143,0.15057283071650535,-0.15648472899521548,0.25834966866853454,0.5,0.0,0.0,0.5,0.0,0.0,0.0,-0.5,0.0,0.0,-0.5,0.0,0.0,0.0
120,0,0.5,0.0,0.0,0.5,0.0,0.0,0.0,-0.5,0.0,0.0,-0.5,0.0,0.0,0.0,0.5,0.5,0.504297137260437,-0.037705425173044205,-0.026626944541931152,0.5065273642539978,-0.023552894592285156,-0.023853937163949013,-0.02718856930732727,-0.08130812644958496,0.1062527447938919,-0.21901935338974,-0.36649543046951294,0.02312299609184265,-0.020782895386219025,-0.3308328688144684,0.0,1.7999999523162842,3.9667000770568848,0.3276795328599363,0.2251687681105086,0.758917189676901,-0.057974515294821435,-0.03304828910302669,0.01588304939551905,0.4330408164758417,-0.1071744518911801,0.9205457896342376,0.1390647942946689,-0.1527184796385799,0.27804260813610215,0.5,0.0,0.0,0.5,0.0,0.0,0.0,-0.5,0.0,0.0,-0.5,0.0,0.0,0.0
121,0,0.5,0.0,0.0,0.5,0.0,0.0,0.0,-0.5,0.0,0.0,-0.5,0.0,0.0,0.0,0.5,0.5,0.49779605865478516,-0.03935211896896362,-0.029027018696069717,0.5021427869796753,-0.029240161180496216,-0.028604945167899132,-0.015057384967803955,-0.06624236702919006,0.12318456172943115,-0.23772099614143372,-0.35747599601745605,0.01928621530532837,-0.01576201617717743,-0.34871822595596313,0.0,1.7999999523162842,4.0,0.3276278410950927,0.2256723197894897,0.7587142142130651,-0.059577363579987885,-0.03144554288522097,0.01731463429793205,0.4317662359387555,-0.10149115141871261,0.9200419414157041,0.135487221383812,-0.14528229065978895,0.28999619193186477,0.5,0.0,0.0,0.5,0.0,0.0,0.0,-0.5,0.0,0.0,-0.5,0.0,0.0,0.0
122,0,0.5,0.0,0.0,0.5,0.0,0.0,0.0,-0.5,0.0,0.0,-0.5,0.0,0.0,0.0,0.5,0.5,0.49569767713546753,-0.040427371859550476,-0.029793482273817062,0.5002554059028625,-0.029904991388320923,-0.030243095010519028,-0.011548787355422974,-0.06480641663074493,0.12732163071632385,-0.24814915657043457,-0.3618468642234802,0.013155132532119751,-0.014333866536617279,-0.3502294719219208,0.0,1.7999999523162842,4.033299922943115,0.3275930769119607,0.2261045059516063,0.758633176896327,-0.06132933628523003,-0.030059015176032804,0.018631671901340352,0.4301138117881805,-0.09542072540646791,0.9197129644611578,0.13343161855107644,-0.14420692013500816,0.30451562320759673,0.5,0.0,0.0,0.5,0.0,0.0,0.0,-0.5,0.0,0.0,-0.5,0.0,0.0,0.0
123,0,0.5,0.0,0.0,0.5,0.0,0.0,0.0,-0.5,0.0,0.0,-0.5,0.0,0.0,0.0,0.5,0.5,0.49478471279144287,-0.0387348011136055,-0.029630791395902634,0.5006428360939026,-0.028356224298477173,-0.030267074704170227,-0.011289775371551514,-0.061966702342033386,0.12993909418582916,-0.25666680932044983,-0.3691318929195404,0.0034482181072235107,-0.013509310781955719,-0.35572028160095215,0.0,1.7999999523162842,4.066699981689453,0.3274715050060203,0.22658186469374847,0.7585389223273761,-0.062183056335882836,-0.02950157749055919,0.01877982925925372,0.42720855979565797,-0.08650612319260702,0.9185900461159867,0.12250690811665126,-0.13821512393037286,0.3267008985325552,0.5,0.0,0.0,0.5,0.0,0.0,0.0,-0.5,0.0,0.0,-0.5,0.0,0.0,0.0
124,0,0.5,0.0,0.0,0.5,0.0,0.0,0.0,-0.5,0.0,0.0,-0.5,0.0,0.0,0.0,0.5,0.5,0.4957767724990845,-0.038407839834690094,-0.029522322118282318,0.5028706789016724,-0.0277521014213562,-0.03153232857584953,-0.01151779294013977,-0.05656266212463379,0.13446027040481567,-0.2611151933670044,-0.3666846752166748,0.0002745985984802246,-0.013250023126602173,-0.3587138056755066,0.0,1.7999999523162842,4.099999904632568,0.3274053135682637,0.22687609395949349,0.75852756321297,-0.06254347527518343,-0.028763745439342354,0.019130799540281258,0.425459449012792,-0.08143028018784679,0.9175951623166667,0.12049828039498596,-0.13563808339856112,0.3377168089871016,0.5,0.0,0.0,0.5,0.0,0.0,0.0,-0.5,0.0,0.0,-0.5,0.0,0.0,0.0
125,0,0.5,0.0,0.0,0.5,0.0,0.0,0.0,-0.5,0.0,0.0,-0.5,0.0,0.0,0.0,0.5,0.5,0.4986569285392761,-0.038081638514995575,-0.02951924502849579,0.5071093440055847,-0.026976317167282104,-0.03396837040781975,-0.012055724859237671,-0.045908764004707336,0.1441672146320343,-0.2680054008960724,-0.35939809679985046,-0.005284816026687622,-0.01131584495306015,-0.3611050248146057,0.0,1.7999999523162842,4.133299827575684,0.3271888293513502,0.22753824696872393,0.7585939269062725,-0.06337413381782732,-0.02965460919243422,0.020967676895500695,0.4230477128708923,-0.07480722513936215,0.915676322541696,0.11679388502862839,-0.13356149872277145,0.34581779779713023,0.5,0.0,0.0,0.5,0.0,0.0,0.0,-0.5,0.0,0.0,-0.5,0.0,0.0,0.0
126,0,0.5,0.0,0.0,0.5,0.0,0.0,0.0,-0.5,0.0,0.0,-0.5,0.0,0.0,0.0,0.5,0.5,0.5011290311813354,-0.037408120930194855,-0.029782991856336594,0.5104039907455444,-0.024721622467041016,-0.03571783006191254,-0.013648003339767456,-0.03772185742855072,0.1501559615135193,-0.2727092206478119,-0.35587456822395325,-0.0115775465965271,-0.01037590205669403,-0.3619396388530731,0.0,1.7999999523162842,4.1666998863220215,0.3269462775314148,0.22824732422636432,0.75838887355209,-0.06395540055219275,-0.029824407914760837,0.02281289735085139,0.42133472650429993,-0.069244500919447,0.9133830086690962,0.11898268293290495,-0.12776513642451642,0.35263437648916385,0.5,0.0,0.0,0.5,0.0,0.0,0.0,-0.5,0.0,0.0,-0.5,0.0,0.0,0.0
127,0,0.5,0.0,0.0,0.5,0.0,0.0,0.0,-0.5,0.0,0.0,-0.5,0.0,0.0,0.0,0.5,0.5,0.5027502179145813,-0.03729546070098877,-0.029850777238607407,0.5118752121925354,-0.02372637391090393,-0.036479804664850235,-0.014539480209350586,-0.033969372510910034,0.15379437804222107,-0.2741530239582062,-0.35341984033584595,-0.014606773853302002,-0.00859013944864273,-0.36197787523269653,0.0,1.7999999523162842,4.199999809265137,0.32684564953684847,0.22849413715209269,0.7583704136193552,-0.06455581287529984,-0.03005534813890411,0.023116500869299977,0.4210032601279043,-0.06759433825516423,0.9125068207035484,0.12185686567830865,-0.12550382098458676,0.3521509648073771,0.5,0.0,0.0,0.5,0.0,0.0,0.0,-0.5,0.0,0.0,-0.5,0.0,0.0,0.0
128,0,0.5,0.0,0.0,0.5,0.0,0.0,0.0,-0.5,0.0,0.0,-0.5,0.0,0.0,0.0,0.5,0.5,0.5045797228813171,-0.037648096680641174,-0.02946631610393524,0.512956440448761,-0.022944748401641846,-0.037743616849184036,-0.015407025814056396,-0.029311195015907288,0.16008663177490234,-0.27530327439308167,-0.3488677442073822,-0.01866769790649414,-0.003887854516506195,-0.3621140122413635,0.0,1.7999999523162842,4.23330020904541,0.3266804038787008,0.22915738446316,0.758207018256797,-0.0661467971484574,-0.029184921027293902,0.024716631690438338,0.4204607757857673,-0.0649377937733972,0.9111075980832446,0.12790252906479277,-0.1236197557918775,0.3456169245119246,0.5,0.0,0.0,0.5,0.0,0.0,0.0,-0.5,0.0,0.0,-0.5,0.0,0.0,0.0
129,0,0.5,0.0,0.0,0.5,0.0,0.0,0.0,-0.5,0.0,0.0,-0.5,0.0,0.0,0.0,0.5,0.5,0.5058944225311279,-0.038347478955984116,-0.02774680405855179,0.5135879516601562,-0.019367218017578125,-0.0396043136715889,-0.018079131841659546,-0.026204504072666168,0.1707250475883484,-0.27822843194007874,-0.3396463394165039,-0.032359540462493896,0.007853277027606964,-0.34935319423675537,0.0,1.7999999523162842,4.26669979095459,0.32647676692744565,0.2302216970030195,0.7577971908364899,-0.06904892462172009,-0.02655359005087411,0.0280089606718606,0.4203626272616975,-0.0596791070642641,0.9084011820826298,0.13395588426829505,-0.12486480237260796,0.3274108782938633,0.5,0.0,0.0,0.5,0.0,0.0,0.0,-0.5,0.0,0.0,-0.5,0.0,0.0,0.0
130,0,0.5,0.0,0.0,0.5,0.0,0.0,0.0,-0.5,0.0,0.0,-0.5,0.0,0.0,0.0,0.5,0.5,0.5064042210578918,-0.03831734508275986,-0.02773279696702957,0.5130674839019775,-0.017971068620681763,-0.04036080837249756,-0.019774258136749268,-0.02565900981426239,0.1746152937412262,-0.27843770384788513,-0.33681434392929077,-0.03736647963523865,0.0115785151720047,-0.3448137938976288,0.0,1.7999999523162842,4.300000190734863,0.3264177811212651,0.23042261294913735,0.7577375979241482,-0.06958292503723505,-0.0261201443959138,0.028118266464841807,0.4204574584180335,-0.05827784855111302,0.9076089166702178,0.14104838375488973,-0.12519301430873941,0.3227123952424272,0.5,0.0,0.0,0.5,0.0,0.0,0.0,-0.5,0.0,0.0,-0.5,0.0,0.0,0.0
131,0,0.5,0.0,0.0,0.5,0.0,0.0,0.0,-0.5,0.0,0.0,-0.5,0.0,0.0,0.0,0.5,0.5,0.5074130892753601,-0.03755307197570801,-0.028527427464723587,0.5120795369148254,-0.015112221240997314,-0.041658349335193634,-0.02371269464492798,-0.023606956005096436,0.1854459047317505,-0.2810782194137573,-0.3291034996509552,-0.05332896113395691,0.022242777049541473,-0.33036571741104126,0.0,1.7999999523162842,4.3333001136779785,0.3262140913772995,0.23080818765656058,0.7575575629558264,-0.06992006341824936,-0.02578934956112755,0.028106048286555052,0.4204250214018977,-0.0542742012219604,0.9055909230888888,0.14827444369715376,-0.12887739482689564,0.30328116903337454,0.5,0.0,0.0,0.5,0.0,0.0,0.0,-0.5,0.0,0.0,-0.5,0.0,0.0,0.0
132,0,0.5,0.0,0.0,0.5,0.0,0.0,0.0,-0.5,0.0,0.0,-0.5,0.0,0.0,0.0,0.5,0.5,0.5083038806915283,-0.036943934857845306,-0.02923525497317314,0.5123631358146667,-0.014409005641937256,-0.04167070984840393,-0.02544879913330078,-0.024049527943134308,0.18802419304847717,-0.2826484143733978,-0.3272155523300171,-0.059440791606903076,0.024788551032543182,-0.32275402545928955,0.0,1.7999999523162842,4.366700172424316,0.32609189120088866,0.23097049341262127,0.757516665777593,-0.06972093187898577,-0.02588770012017797,0.027961770504594613,0.42034553472598046,-0.05263640645265226,0.9048467508971343,0.1463460369962692,-0.13224043336038274,0.2987193849583889,0.5,0.0,0.0,0.5,0.0,0.0,0.0,-0.5,0.0,0.0,-0.5,0.0,0.0,0.0
133,0,0.5,0.0,0.0,0.5,0.0,0.0,0.0,-0.5,0.0,0.0,-0.5,0.0,0.0,0.0,0.5,0.5,0.5121771097183228,-0.03480737656354904,-0.0315413735806942,0.5138328671455383,-0.011006057262420654,-0.041778817772865295,-0.031718909740448,-0.02673078328371048,0.19724619388580322,-0.28753724694252014,-0.3202994167804718,-0.08418154716491699,0.036260031163692474,-0.2879645824432373,0.0,1.7999999523162842,4.400000095367432,0.32567772942090767,0.23169887192339456,0.7570944377788916,-0.07022318465470463,-0.026595246957308794,0.02869631945901484,0.4210514374805548,-0.04772000126744552,0.9016242175180695,0.14093368148775928,-0.14454280515031084,0.2795692472732542,0.5,0.0,0.0,0.5,0.0,0.0,0.0,-0.5,0.0,0.0,-0.5,0.0,0.0,0.0
134,0,0.5,0.0,0.0,0.5,0.0,0.0,0.0,-0.5,0.0,0.0,-0.5,0.0,0.0,0.0,0.5,0.5,0.511281430721283,-0.034827932715415955,-0.03136172890663147,0.512297511100769,-0.00896260142326355,-0.04330752044916153,-0.030861645936965942,-0.01739734411239624,0.2081688791513443,-0.28835177421569824,-0.30704405903816223,-0.09236955642700195,0.04521354287862778,-0.281646192073822,0.0,1.7999999523162842,4.433300018310547,0.3254188649399893,0.23214105416970499,0.7568558673759139,-0.07002632126720791,-0.02617385885446123,0.02973208843820041,0.42254045555496306,-0.045585221579912225,0.8991448063398403,0.1506088145979146,-0.13992205335118046,0.2651739226536421,0.5,0.0,0.0,0.5,0.0,0.0,0.0,-0.5,0.0,0.0,-0.5,0.0,0.0,0.0
135,0,0.5,0.0,0.0,0.5,0.0,0.0,0.0,-0.5,0.0,0.0,-0.5,0.0,0.0,0.0,0.5,0.5,0.512748658657074,-0.03526023030281067,-0.030662398785352707,0.5129721760749817,-0.007063686847686768,-0.04434255138039589,-0.03173893690109253,-0.014750301837921143,0.2134302854537964,-0.28883105516433716,-0.2994699478149414,-0.0992971658706665,0.051337309181690216,-0.2680264115333557,0.0,1.7999999523162842,4.466700077056885,0.32517605147443207,0.23249132967861072,0.756718477046758,-0.069440222937074,-0.026273180783716946,0.030625754522117975,0.42323953253705626,-0.04420594191697504,0.8976466562752425,0.16077392986883546,-0.14538404416704817,0.2550779634630845,0.5,0.0,0.0,0.5,0.0,0.0,0.0,-0.5,0.0,0.0,-0.5,0.0,0.0,0.0
136,0,0.5,0.0,0.0,0.5,0.0,0.0,0.0,-0.5,0.0,0.0,-0.5,0.0,0.0,0.0,0.5,0.5,0.5117573738098145,-0.03669830411672592,-0.02930915728211403,0.5111932158470154,-0.004364132881164551,-0.0471406951546669,-0.030305206775665283,0.00024410337209701538,0.22722026705741882,-0.28969401121139526,-0.27540549635887146,-0.10895797610282898,0.06370653957128525,-0.2511782646179199,0.0,1.7999999523162842,4.5,0.3247971566471717,0.23293606359287963,0.7564347061657408,-0.06822102536385403,-0.026987678651902724,0.03123484150218804,0.42551614994452436,-0.04251393915497168,0.8941203786068217,0.16169792005563752,-0.14624885044960312,0.24044028394505523,0.5,0.0,0.0,0.5,0.0,0.0,0.0,-0.5,0.0,0.0,-0.5,0.0,0.0,0.0
137,0,0.5,0.0,0.0,0.5,0.0,0.0,0.0,-0.5,0.0,0.0,-0.5,0.0,0.0,0.0,0.5,0.5,0.5081687569618225,-0.037567928433418274,-0.031141411513090134,0.5052780508995056,-0.00407940149307251,-0.04932241886854172,-0.029585421085357666,0.025385253131389618,0.24319523572921753,-0.2887198328971863,-0.24443812668323517,-0.11365693807601929,0.07615632563829422,-0.25239646434783936,0.0,1.7999999523162842,4.533299922943115,0.3243385781075011,0.2336749848615191,0.7560917396552068,-0.06788284354196654,-0.02665307493880885,0.03253424167251237,0.42755165269181805,-0.04226035513732643,0.8908718480478932,0.16539631112618333,-0.13676874755488694,0.22645117898465947,0.5,0.0,0.0,0.5,0.0,0.0,0.0,-0.5,0.0,0.0,-0.5,0.0,0.0,0.0
138,0,0.5,0.0,0.0,0.5,0.0,0.0,0.0,-0.5,0.0,0.0,-0.5,0.0,0.0,0.0,0.5,0.5,0.5072279572486877,-0.03747157007455826,-0.03191607818007469,0.5042826533317566,-0.004529714584350586,-0.05001203715801239,-0.028589874505996704,0.031389154493808746,0.24637442827224731,-0.2884313762187958,-0.2365998774766922,-0.11583089828491211,0.07845252007246017,-0.24946625530719757,0.0,1.7999999523162842,4.566699981689453,0.3241926454136866,0.2339480509336583,0.7558790313566772,-0.06798371847041275,-0.026023597971944055,0.03291141086634244,0.42815205100730125,-0.04214804616302807,0.8901158134213877,0.16653294241288225,-0.13676752245736368,0.22477651571465915,0.5,0.0,0.0,0.5,0.0,0.0,0.0,-0.5,0.0,0.0,-0.5,0.0,0.0,0.0
139,0,0.5,0.0,0.0,0.5,0.0,0.0,0.0,-0.5,0.0,0.0,-0.5,0.0,0.0,0.0,0.5,0.5,0.5041168332099915,-0.036724966019392014,-0.034957386553287506,0.5010918974876404,-0.00566023588180542,-0.05212140828371048,-0.024384677410125732,0.05470157414674759,0.258600652217865,-0.287177175283432,-0.2039955109357834,-0.12749260663986206,0.0891101136803627,-0.23114269971847534,0.0,1.7999999523162842,4.599999904632568,0.32354381477819927,0.2352742251759731,0.755225889927866,-0.06787023018193149,-0.0234854830641343,0.035350901515798894,0.4304648867752015,-0.04349294658974677,0.8870031536476495,0.16697227734894685,-0.14021727795873454,0.2098277088189601,0.5,0.0,0.0,0.5,0.0,0.0,0.0,-0.5,0.0,0.0,-0.5,0.0,0.0,0.0
140,0,0.5,0.0,0.0,0.5,0.0,0.0,0.0,-0.5,0.0,0.0,-0.5,0.0,0.0,0.0,0.5,0.5,0.5011310577392578,-0.037056922912597656,-0.03550523892045021,0.49899011850357056,-0.004587888717651367,-0.05477643758058548,-0.021606504917144775,0.07002191245555878,0.2642222046852112,-0.28644996881484985,-0.18256345391273499,-0.13359838724136353,0.09362659603357315,-0.21947762370109558,0.0,1.7999999523162842,4.633299827575684,0.3232131920440693,0.23603113903248527,0.7548240309959485,-0.06788433438051969,-0.02218270253196317,0.03762048113349698,0.4319093283437987,-0.04376324374658003,0.8850040414993353,0.16774241179207425,-0.14299652599781304,0.20351631553289914,0.5,0.0,0.0,0.5,0.0,0.0,0.0,-0.5,0.0,0.0,-0.5,0.0,0.0,0.0
