gaodalingithub/END2JOINT/ik_net/save_real/0623_moredata_fk_1/ik_validation_log.csv
frame,is_init,real_joint_state_left_shoulder_pitch_joint1,real_joint_state_left_shoulder_roll_joint2,real_joint_state_left_shoulder_yaw_joint3,real_joint_state_left_elbow_pitch_joint4,real_joint_state_left_elbow_roll_joint5,real_joint_state_left_wrist_yaw_joint6,real_joint_state_left_wrist_pitch_joint7,real_joint_state_right_shoulder_pitch_joint1,real_joint_state_right_shoulder_roll_joint2,real_joint_state_right_shoulder_yaw_joint3,real_joint_state_right_elbow_pitch_joint4,real_joint_state_right_elbow_roll_joint5,real_joint_state_right_wrist_yaw_joint6,real_joint_state_right_wrist_pitch_joint7,real_joint_state_left_gripper_joint,real_joint_state_right_gripper_joint,pred_action_left_shoulder_pitch_joint1,pred_action_left_shoulder_roll_joint2,pred_action_left_shoulder_yaw_joint3,pred_action_left_elbow_pitch_joint4,pred_action_left_elbow_roll_joint5,pred_action_left_wrist_yaw_joint6,pred_action_left_wrist_pitch_joint7,pred_action_right_shoulder_pitch_joint1,pred_action_right_shoulder_roll_joint2,pred_action_right_shoulder_yaw_joint3,pred_action_right_elbow_pitch_joint4,pred_action_right_elbow_roll_joint5,pred_action_right_wrist_yaw_joint6,pred_action_right_wrist_pitch_joint7,pred_action_left_gripper_joint,pred_action_right_gripper_joint,timestamp,input_ee_eeL_x,input_ee_eeL_y,input_ee_eeL_z,input_ee_eeL_roll,input_ee_eeL_pitch,input_ee_eeL_yaw,input_ee_eeR_x,input_ee_eeR_y,input_ee_eeR_z,input_ee_eeR_roll,input_ee_eeR_pitch,input_ee_eeR_yaw,input_prev_joint_state_L_sh_pitch,input_prev_joint_state_L_sh_roll,input_prev_joint_state_L_sh_yaw,input_prev_joint_state_L_el_pitch,input_prev_joint_state_L_el_roll,input_prev_joint_state_L_wr_yaw,input_prev_joint_state_L_wr_pitch,input_prev_joint_state_R_sh_pitch,input_prev_joint_state_R_sh_roll,input_prev_joint_state_R_sh_yaw,input_prev_joint_state_R_el_pitch,input_prev_joint_state_R_el_roll,input_prev_joint_state_R_wr_yaw,input_prev_joint_state_R_wr_pitch
0,1,0.4952769875526428,-0.011312947608530521,-0.01506828423589468,0.4976348578929901,-0.00667582219466567,0.005912871100008488,-0.00667582219466567,-0.4956604838371277,-0.005560601130127907,0.009727626107633114,-0.507553219795227,0.0020981156267225742,-0.007057297509163618,0.00019073777366429567,0.06847485899925232,0.06275273114442825,0.47801995277404785,0.004793621599674225,0.009346150793135166,0.46330204606056213,-0.021171892061829567,0.01506828423589468,-0.07572289556264877,-0.4818548560142517,-0.011312947608530521,0.013160906732082367,-0.49000534415245056,0.02231631986796856,-0.010872052982449532,-0.007438773289322853,0.0,0.0,,,,,,,,,,,,,,,,,,,,,,,,,,,
1,0,0.4952769875526428,-0.011312947608530521,-0.01506828423589468,0.4976348578929901,-0.007057297509163618,0.005912871100008488,-0.00667582219466567,-0.4956604838371277,-0.005560601130127907,0.009727626107633114,-0.507553219795227,0.0020981156267225742,-0.007057297509163618,0.00019073777366429567,0.06847485899925232,0.06275273114442825,0.479312002658844,-0.0010398555314168334,0.01021286565810442,0.4557487964630127,-0.01624438911676407,0.015717146918177605,-0.0725398063659668,-0.4826728105545044,-0.017308998852968216,0.015144016593694687,-0.48577141761779785,0.02862551249563694,-0.009310904890298843,-0.011569216847419739,0.0,0.0,0.0,0.3296839783284264,0.21927637199572056,0.760148681816507,-0.022265430815224363,-0.049355232583983444,-0.022818094361451102,0.330191207700067,-0.23315866847036182,0.7593856539664704,0.006234445563278239,0.008222119939317646,0.004073582912385963,0.4952769875526428,-0.011312947608530521,-0.01506828423589468,0.4976348578929901,-0.007057297509163618,0.005912871100008488,-0.00667582219466567,-0.4956604838371277,-0.005560601130127907,0.009727626107633114,-0.507553219795227,0.0020981156267225742,-0.007057297509163618,0.00019073777366429567
2,0,0.48032090067863464,-0.008245029486715794,-0.0020981156267225742,0.46215763688087463,-0.019645990803837776,0.009346150793135166,-0.06961929053068161,-0.4807043969631195,-0.005944090895354748,0.010872052982449532,-0.49305713176727295,0.018120087683200836,-0.0078202486038208,-0.005912871100008488,0.06809338182210922,0.06198977679014206,0.47914546728134155,-0.002021926688030362,0.009823895059525967,0.4556061029434204,-0.015516831539571285,0.016364559531211853,-0.07195165753364563,-0.48275116086006165,-0.016887376084923744,0.0151144964620471,-0.4861043095588684,0.028592173010110855,-0.00925254076719284,-0.01199312973767519,0.0,0.0,0.0333000011742115,0.3297167619153547,0.21922337206930598,0.7600966229585842,-0.022244169327483743,-0.048797779588812595,-0.022700870437588172,0.3301742825954559,-0.2330989094783746,0.7594332914349736,0.0065855336993279395,0.008393390920635528,0.003858192145961712,0.48032090067863464,-0.008245029486715794,-0.0020981156267225742,0.46215763688087463,-0.019645990803837776,0.009346150793135166,-0.06961929053068161,-0.4807043969631195,-0.005944090895354748,0.010872052982449532,-0.49305713176727295,0.018120087683200836,-0.0078202486038208,-0.005912871100008488
3,0,0.4787869453430176,-0.0028761730063706636,0.005531395319849253,0.46063172817230225,-0.018501564860343933,0.010872052982449532,-0.0715266615152359,-0.4764859974384308,-0.00671107042580843,0.010872052982449532,-0.49076828360557556,0.021553369238972664,-0.0078202486038208,-0.0078202486038208,0.06809338182210922,0.06198977679014206,0.4791143238544464,-0.0007656848756596446,0.010336073115468025,0.4555598199367523,-0.01572049967944622,0.016038253903388977,-0.07225865125656128,-0.48332422971725464,-0.016399232670664787,0.014502592384815216,-0.4865991175174713,0.02708178199827671,-0.008660182356834412,-0.010581500828266144,0.0,0.0,0.06669999659061432,0.32972861387635244,0.21921097536061224,0.760142072639706,-0.021561615979824644,-0.049066408025022934,-0.02343123641551026,0.33001374622614194,-0.23286490574400837,0.7596496928399527,0.005791445871701324,0.007085301034317459,0.003571592448628161,0.4787869453430176,-0.0028761730063706636,0.005531395319849253,0.46063172817230225,-0.018501564860343933,0.010872052982449532,-0.0715266615152359,-0.4764859974384308,-0.00671107042580843,0.010872052982449532,-0.49076828360557556,0.021553369238972664,-0.0078202486038208,-0.0078202486038208
4,0,0.47917044162750244,-0.0032596627715975046,0.005531395319849253,0.46063172817230225,-0.018501564860343933,0.010872052982449532,-0.0715266615152359,-0.4772529900074005,-0.011312947608530521,0.010872052982449532,-0.49076828360557556,0.021553369238972664,-0.0078202486038208,-0.008201723918318748,0.06809338182210922,0.06198977679014206,0.47854310274124146,-6.112112168921158e-05,0.010413352400064468,0.45516476035118103,-0.015818271785974503,0.01611163094639778,-0.07191687077283859,-0.483233779668808,-0.01595228910446167,0.014299719594419003,-0.48616328835487366,0.02666313387453556,-0.00828425120562315,-0.01018001139163971,0.0,0.0,0.10000000149011612,0.32989725644355306,0.21925230241682392,0.760118602492138,-0.0210628140834066,-0.048890822456340466,-0.023929326653512106,0.33001920385776085,-0.2327849787235774,0.7595451885381943,0.005867541564114636,0.007035954478827801,0.0031553435861557816,0.47917044162750244,-0.0032596627715975046,0.005531395319849253,0.46063172817230225,-0.018501564860343933,0.010872052982449532,-0.0715266615152359,-0.4772529900074005,-0.011312947608530521,0.010872052982449532,-0.49076828360557556,0.021553369238972664,-0.0078202486038208,-0.008201723918318748
5,0,0.47917044162750244,-0.0032596627715975046,0.005531395319849253,0.46063172817230225,-0.018501564860343933,0.010490577667951584,-0.0715266615152359,-0.47801995277404785,-0.013997375033795834,0.010872052982449532,-0.49076828360557556,0.021553369238972664,-0.0078202486038208,-0.008201723918318748,0.06809338182210922,0.06198977679014206,0.47846007347106934,0.000443542143329978,0.01054150890558958,0.455117404460907,-0.015905452892184258,0.016274841502308846,-0.07180984318256378,-0.48328590393066406,-0.015741921961307526,0.014251272194087505,-0.48618680238723755,0.02661575935781002,-0.008216786198318005,-0.010097376070916653,0.0,0.0,0.13330000638961792,0.3299249876847504,0.21923525656257842,0.7601135294956843,-0.020763120820846748,-0.04881521237260111,-0.024453752534151718,0.3300020964059501,-0.23274910568189897,0.7595444019315555,0.0060291755617475325,0.006982630008856317,0.0030340816467319433,0.47917044162750244,-0.0032596627715975046,0.005531395319849253,0.46063172817230225,-0.018501564860343933,0.010490577667951584,-0.0715266615152359,-0.47801995277404785,-0.013997375033795834,0.010872052982449532,-0.49076828360557556,0.021553369238972664,-0.0078202486038208,-0.008201723918318748
6,0,0.47917044162750244,-0.0032596627715975046,0.005531395319849253,0.46063172817230225,-0.018501564860343933,0.010872052982449532,-0.0715266615152359,-0.47801995277404785,-0.014380864799022675,0.010872052982449532,-0.49076828360557556,0.021553369238972664,-0.0078202486038208,-0.008201723918318748,0.06809338182210922,0.06198977679014206,0.47844621539115906,0.0007344179903157055,0.010174719616770744,0.45502692461013794,-0.016492260619997978,0.01684926636517048,-0.07197028398513794,-0.48359909653663635,-0.015596948564052582,0.01374708954244852,-0.4863224923610687,0.026005398482084274,-0.007891411893069744,-0.010370580479502678,0.0,0.0,0.16670000553131104,0.3299271352036831,0.2193496746636932,0.7601070365915736,-0.02093740958123691,-0.04890954127529801,-0.02481110978524903,0.329909487407437,-0.23256202062846204,0.7594504353506998,0.0057823143946438265,0.007447228790918051,0.0030883375685499138,0.47917044162750244,-0.0032596627715975046,0.005531395319849253,0.46063172817230225,-0.018501564860343933,0.010872052982449532,-0.0715266615152359,-0.47801995277404785,-0.014380864799022675,0.010872052982449532,-0.49076828360557556,0.021553369238972664,-0.0078202486038208,-0.008201723918318748
7,0,0.47917044162750244,-0.0032596627715975046,0.005531395319849253,0.46063172817230225,-0.018501564860343933,0.010490577667951584,-0.0715266615152359,-0.47801995277404785,-0.014380864799022675,0.010872052982449532,-0.49076828360557556,0.021553369238972664,-0.0078202486038208,-0.008201723918318748,0.06809338182210922,0.06198977679014206,0.478617787361145,0.0009338014642708004,0.00972726009786129,0.4550100266933441,-0.016992198303341866,0.016935057938098907,-0.07192916423082352,-0.48397859930992126,-0.01500560063868761,0.013604305684566498,-0.4864378273487091,0.026195980608463287,-0.007540300488471985,-0.010706072673201561,0.0,0.0,0.20000000298023224,0.3298756717238568,0.21955941709652307,0.7600368607462162,-0.02106086385661987,-0.048680609250950635,-0.024574734526336073,0.3297887268645926,-0.2324801875611183,0.7593073610556744,0.006563970001435231,0.008048128473867879,0.002599493822265205,0.47917044162750244,-0.0032596627715975046,0.005531395319849253,0.46063172817230225,-0.018501564860343933,0.010490577667951584,-0.0715266615152359,-0.47801995277404785,-0.014380864799022675,0.010872052982449532,-0.49076828360557556,0.021553369238972664,-0.0078202486038208,-0.008201723918318748
8,0,0.4795539081096649,-0.0032596627715975046,0.005531395319849253,0.46063172817230225,-0.018501564860343933,0.010872052982449532,-0.0715266615152359,-0.47801995277404785,-0.014380864799022675,0.010872052982449532,-0.49076828360557556,0.021553369238972664,-0.0078202486038208,-0.008201723918318748,0.06809338182210922,0.06198977679014206,0.4787028729915619,0.0009481435990892351,0.009273551404476166,0.45519837737083435,-0.017821837216615677,0.017024949193000793,-0.0707344114780426,-0.4843405783176422,-0.015035341493785381,0.013265765272080898,-0.4865192472934723,0.025702275335788727,-0.007428918499499559,-0.010055211372673512,0.0,0.0,0.23330000042915344,0.32986677070991516,0.21974831236986175,0.7599066095353406,-0.021669281006069685,-0.047599062942228265,-0.024244561554489064,0.3296817512388355,-0.2323549751823657,0.7593179194602503,0.0062020905192517435,0.007687044544699871,0.00279487421713268,0.4795539081096649,-0.0032596627715975046,0.005531395319849253,0.46063172817230225,-0.018501564860343933,0.010872052982449532,-0.0715266615152359,-0.47801995277404785,-0.014380864799022675,0.010872052982449532,-0.49076828360557556,0.021553369238972664,-0.0078202486038208,-0.008201723918318748
9,0,0.47917044162750244,-0.0032596627715975046,0.005531395319849253,0.46063172817230225,-0.018501564860343933,0.010872052982449532,-0.0715266615152359,-0.47801995277404785,-0.014380864799022675,0.010872052982449532,-0.49076828360557556,0.021553369238972664,-0.0078202486038208,-0.008201723918318748,0.06809338182210922,0.06198977679014206,0.4788139760494232,0.0008602186571806669,0.008985785767436028,0.45581716299057007,-0.01863846555352211,0.016865041106939316,-0.06919452548027039,-0.48479771614074707,-0.014910666272044182,0.012986102141439915,-0.48612871766090393,0.024813983589410782,-0.00697252107784152,-0.00850206520408392,0.0,0.0,0.26669999957084656,0.32986835837132644,0.21988950034512647,0.7598944081402804,-0.02241979279918649,-0.046574854011816935,-0.023766387136443523,0.32952288913985506,-0.23229337314407195,0.7592326125975636,0.005559243507367199,0.006993936939840353,0.0025047228561245133,0.47917044162750244,-0.0032596627715975046,0.005531395319849253,0.46063172817230225,-0.018501564860343933,0.010872052982449532,-0.0715266615152359,-0.47801995277404785,-0.014380864799022675,0.010872052982449532,-0.49076828360557556,0.021553369238972664,-0.0078202486038208,-0.008201723918318748
10,0,0.47917044162750244,-0.0032596627715975046,0.005531395319849253,0.46063172817230225,-0.018501564860343933,0.010872052982449532,-0.0715266615152359,-0.47801995277404785,-0.014380864799022675,0.010872052982449532,-0.49076828360557556,0.021171892061829567,-0.0078202486038208,-0.008201723918318748,0.06809338182210922,0.06198977679014206,0.4791662096977234,0.0009476410341449082,0.008595178835093975,0.45576024055480957,-0.01918194442987442,0.017298324033617973,-0.07007178664207458,-0.4851631820201874,-0.014427314512431622,0.012748694978654385,-0.48619765043258667,0.02431628666818142,-0.0062745120376348495,-0.008389731869101524,0.0,0.0,0.30000001192092896,0.3297515523369556,0.2200124757542653,0.7598863035376294,-0.022725981021881392,-0.047055228183412456,-0.02384663464221015,0.3294048710650813,-0.23223714768438114,0.7591463351993241,0.005601026366092665,0.007187803906147744,0.001791593297563667,0.47917044162750244,-0.0032596627715975046,0.005531395319849253,0.46063172817230225,-0.018501564860343933,0.010872052982449532,-0.0715266615152359,-0.47801995277404785,-0.014380864799022675,0.010872052982449532,-0.49076828360557556,0.021171892061829567,-0.0078202486038208,-0.008201723918318748
11,0,0.47917044162750244,-0.0032596627715975046,0.005149920005351305,0.46063172817230225,-0.018501564860343933,0.010872052982449532,-0.0715266615152359,-0.4784034490585327,-0.014380864799022675,0.010872052982449532,-0.49076828360557556,0.021171892061829567,-0.0078202486038208,-0.008201723918318748,0.06809338182210922,0.06198977679014206,0.4791562557220459,0.00125634775031358,0.008299118839204311,0.45574983954429626,-0.019669964909553528,0.017635473981499672,-0.06887246668338776,-0.48532891273498535,-0.014172367751598358,0.012400517240166664,-0.48601096868515015,0.023714615032076836,-0.005787207279354334,-0.008129757829010487,0.0,0.0,0.33329999446868896,0.3297649892239514,0.22012794699298763,0.7597090675214359,-0.02280999741434675,-0.045861522017257794,-0.0240751938323851,0.32934246176434456,-0.23213139329673027,0.7590455465638026,0.005389101225743132,0.007290852897929504,0.0014862345226427257,0.47917044162750244,-0.0032596627715975046,0.005149920005351305,0.46063172817230225,-0.018501564860343933,0.010872052982449532,-0.0715266615152359,-0.4784034490585327,-0.014380864799022675,0.010872052982449532,-0.49076828360557556,0.021171892061829567,-0.0078202486038208,-0.008201723918318748
12,0,0.47917044162750244,-0.0032596627715975046,0.005149920005351305,0.46063172817230225,-0.01888304017484188,0.010872052982449532,-0.0715266615152359,-0.4787869453430176,-0.014380864799022675,0.010872052982449532,-0.49076828360557556,0.021171892061829567,-0.007438773289322853,-0.008201723918318748,0.06809338182210922,0.06198977679014206,0.4792056381702423,0.0015282616950571537,0.008022118359804153,0.4557439684867859,-0.02022264152765274,0.017895899713039398,-0.06835151463747025,-0.48547935485839844,-0.013620025478303432,0.012092875316739082,-0.4858654737472534,0.023334776982665062,-0.005186143796890974,-0.007992569357156754,0.0,0.0,0.3666999936103821,0.32975523544786645,0.22024550496473677,0.759614328285792,-0.02300052093775795,-0.045291900072170765,-0.024205409395504862,0.32928263953181736,-0.23202389374481067,0.7589417368212804,0.005642714412298137,0.007458412646414793,0.0008977796253451397,0.47917044162750244,-0.0032596627715975046,0.005149920005351305,0.46063172817230225,-0.01888304017484188,0.010872052982449532,-0.0715266615152359,-0.4787869453430176,-0.014380864799022675,0.010872052982449532,-0.49076828360557556,0.021171892061829567,-0.007438773289322853,-0.008201723918318748
13,0,0.47917044162750244,-0.0032596627715975046,0.005531395319849253,0.46025025844573975,-0.01888304017484188,0.010872052982449532,-0.0711451917886734,-0.4787869453430176,-0.014380864799022675,0.010872052982449532,-0.49076828360557556,0.021171892061829567,-0.007438773289322853,-0.008201723918318748,0.06809338182210922,0.06198977679014206,0.4796876311302185,0.0025275154039263725,0.008144966326653957,0.45588088035583496,-0.01975984498858452,0.018433382734656334,-0.06869716942310333,-0.48584601283073425,-0.013196936808526516,0.011919131502509117,-0.4857398569583893,0.023620473220944405,-0.0051173074170947075,-0.006961964536458254,0.0,0.0,0.4000000059604645,0.3296142323583162,0.22023110925444767,0.759575726299929,-0.021729483205298994,-0.04527607766628883,-0.025373076614259915,0.32916069762983136,-0.23191022634311065,0.7589097371262542,0.006384678389848922,0.006920667064251647,0.0007821999039271269,0.47917044162750244,-0.0032596627715975046,0.005531395319849253,0.46025025844573975,-0.01888304017484188,0.010872052982449532,-0.0711451917886734,-0.4787869453430176,-0.014380864799022675,0.010872052982449532,-0.49076828360557556,0.021171892061829567,-0.007438773289322853,-0.008201723918318748
14,0,0.4795539081096649,-0.0032596627715975046,0.005149920005351305,0.46063172817230225,-0.01888304017484188,0.010872052982449532,-0.0711451917886734,-0.4787869453430176,-0.014380864799022675,0.010872052982449532,-0.49076828360557556,0.021171892061829567,-0.007438773289322853,-0.008201723918318748,0.06809338182210922,0.06198977679014206,0.4800443947315216,0.0028690635226666927,0.008145462721586227,0.4559613764286041,-0.019399404525756836,0.01867249235510826,-0.06961878389120102,-0.4858376979827881,-0.012834804132580757,0.01194033119827509,-0.48560643196105957,0.02412557415664196,-0.00507968757301569,-0.006976029835641384,0.0,0.0,0.4332999885082245,0.32950227903464546,0.22023617263335768,0.7596334979117164,-0.02108014195216734,-0.045912646118981826,-0.02578857420596803,0.3291536591765968,-0.23188203968467627,0.7588447999641098,0.0072008376319131475,0.007056817242875686,0.0005602949222614698,0.4795539081096649,-0.0032596627715975046,0.005149920005351305,0.46063172817230225,-0.01888304017484188,0.010872052982449532,-0.0711451917886734,-0.4787869453430176,-0.014380864799022675,0.010872052982449532,-0.49076828360557556,0.021171892061829567,-0.007438773289322853,-0.008201723918318748
15,0,0.47917044162750244,-0.0032596627715975046,0.005149920005351305,0.46063172817230225,-0.01888304017484188,0.010872052982449532,-0.0711451917886734,-0.4787869453430176,-0.014380864799022675,0.010872052982449532,-0.49076828360557556,0.021171892061829567,-0.007438773289322853,-0.0078202486038208,0.06809338182210922,0.06198977679014206,0.4813833236694336,0.003001927398145199,0.007639525458216667,0.4555777609348297,-0.018303532153367996,0.018665514886379242,-0.0753539651632309,-0.48515501618385315,-0.012496234849095345,0.011708633042871952,-0.48556938767433167,0.024721454828977585,-0.005324666388332844,-0.008355286903679371,0.0,0.0,0.4666999876499176,0.32903073548715245,0.22047837034361858,0.7598899888373444,-0.019677782486762663,-0.04989909852571017,-0.02537275107214354,0.32936219902096686,-0.23170224360087907,0.7588380668282048,0.008203986074394518,0.007788123873461308,0.0008696874752609856,0.47917044162750244,-0.0032596627715975046,0.005149920005351305,0.46063172817230225,-0.01888304017484188,0.010872052982449532,-0.0711451917886734,-0.4787869453430176,-0.014380864799022675,0.010872052982449532,-0.49076828360557556,0.021171892061829567,-0.007438773289322853,-0.0078202486038208
16,0,0.4795539081096649,-0.0032596627715975046,0.005149920005351305,0.46063172817230225,-0.01888304017484188,0.010872052982449532,-0.0711451917886734,-0.4787869453430176,-0.014380864799022675,0.010872052982449532,-0.49076828360557556,0.021171892061829567,-0.007438773289322853,-0.0078202486038208,0.06809338182210922,0.06198977679014206,0.4817909300327301,0.0022305177990347147,0.0063576349057257175,0.4549312889575958,-0.019355786964297295,0.01801944524049759,-0.07580733299255371,-0.4846110939979553,-0.013774476945400238,0.009911023080348969,-0.4855094254016876,0.021085280925035477,-0.005433123558759689,-0.006924624554812908,0.0,0.0,0.5,0.32887157514227877,0.2210464929268835,0.7595406380496695,-0.020825247661349522,-0.04930910983338599,-0.023140621756109425,0.32955259578277396,-0.23106906886825349,0.7592322924864766,0.004273548085549493,0.005917001238969442,0.003124188743872612,0.4795539081096649,-0.0032596627715975046,0.005149920005351305,0.46063172817230225,-0.01888304017484188,0.010872052982449532,-0.0711451917886734,-0.4787869453430176,-0.014380864799022675,0.010872052982449532,-0.49076828360557556,0.021171892061829567,-0.007438773289322853,-0.0078202486038208
17,0,0.4795539081096649,-0.0032596627715975046,0.005149920005351305,0.46063172817230225,-0.01888304017484188,0.010872052982449532,-0.071908138692379,-0.4787869453430176,-0.014380864799022675,0.010872052982449532,-0.49076828360557556,0.021171892061829567,-0.007438773289322853,-0.0078202486038208,0.06809338182210922,0.06198977679014206,0.4813633859157562,0.0011607828782871366,0.005287110339850187,0.4549376368522644,-0.02155427634716034,0.017459627240896225,-0.07280641794204712,-0.4844730794429779,-0.01466088555753231,0.008896147832274437,-0.48539257049560547,0.018918868154287338,-0.0054475474171340466,-0.005563966929912567,0.0,0.0,0.53329998254776,0.32902126670778,0.22147463961634956,0.7592171525019863,-0.023450383244540074,-0.046777420761643373,-0.02101866987599532,0.3296046302549126,-0.23073888354569888,0.7594500533665732,0.0017954917266309143,0.004562624797487566,0.004428087297275491,0.4795539081096649,-0.0032596627715975046,0.005149920005351305,0.46063172817230225,-0.01888304017484188,0.010872052982449532,-0.071908138692379,-0.4787869453430176,-0.014380864799022675,0.010872052982449532,-0.49076828360557556,0.021171892061829567,-0.007438773289322853,-0.0078202486038208
18,0,0.4795539081096649,-0.0032596627715975046,0.005149920005351305,0.46025025844573975,-0.01888304017484188,0.010872052982449532,-0.071908138692379,-0.4787869453430176,-0.014380864799022675,0.010872052982449532,-0.49076828360557556,0.02079041674733162,-0.007438773289322853,-0.0078202486038208,0.06809338182210922,0.06198977679014206,0.48085451126098633,-0.0002971710928250104,0.0035591900814324617,0.45607155561447144,-0.026824569329619408,0.018034204840660095,-0.06724803894758224,-0.4845723509788513,-0.015703866258263588,0.006698440294712782,-0.48432090878486633,0.012310800142586231,-0.0035643752198666334,0.002858100226148963,0.0,0.0,0.5666999816894531,0.3292563848130425,0.22198740309209455,0.7590038046047856,-0.029196496834063,-0.04297165598167796,-0.019138061904631964,0.32954134528470536,-0.23020519432150624,0.7602543419564483,-0.004706002587232217,-0.0026301604910657717,0.00496004598292708,0.4795539081096649,-0.0032596627715975046,0.005149920005351305,0.46025025844573975,-0.01888304017484188,0.010872052982449532,-0.071908138692379,-0.4787869453430176,-0.014380864799022675,0.010872052982449532,-0.49076828360557556,0.02079041674733162,-0.007438773289322853,-0.0078202486038208
19,0,0.4795539081096649,-0.0032596627715975046,0.005149920005351305,0.46063172817230225,-0.01926451548933983,0.010872052982449532,-0.071908138692379,-0.4787869453430176,-0.014380864799022675,0.010872052982449532,-0.49076828360557556,0.02079041674733162,-0.007438773289322853,-0.0078202486038208,0.06809338182210922,0.06198977679014206,0.48080974817276,-0.0005565907340496778,0.0031370986253023148,0.4561569094657898,-0.027567081153392792,0.018351729959249496,-0.06672965735197067,-0.4841635227203369,-0.015643803402781487,0.005828300025314093,-0.4834449589252472,0.009158354252576828,-0.001889828941784799,0.0046265507116913795,0.0,0.0,0.6000000238418579,0.32927504668867347,0.2220947568599873,0.7589749534933878,-0.02997895530333583,-0.04260506179340995,-0.018924413394655115,0.32962657312214205,-0.23007598675501378,0.7602942623955148,-0.007400553154880188,-0.003921718034604369,0.004033490845177993,0.4795539081096649,-0.0032596627715975046,0.005149920005351305,0.46063172817230225,-0.01926451548933983,0.010872052982449532,-0.071908138692379,-0.4787869453430176,-0.014380864799022675,0.010872052982449532,-0.49076828360557556,0.02079041674733162,-0.007438773289322853,-0.0078202486038208
20,0,0.4795539081096649,-0.0032596627715975046,0.005149920005351305,0.46025025844573975,-0.02384222112596035,0.010872052982449532,-0.0715266615152359,-0.4787869453430176,-0.014380864799022675,0.010872052982449532,-0.49076828360557556,0.01735713705420494,-0.007438773289322853,-0.0036240178160369396,0.06809338182210922,0.06198977679014206,0.4803279638290405,-0.0010541982483118773,0.0024729259312152863,0.4557946026325226,-0.02931714989244938,0.018790757283568382,-0.06591877341270447,-0.4839692711830139,-0.015530296601355076,0.004735221620649099,-0.48245343565940857,0.004897452425211668,0.00036988587817177176,0.011712552048265934,0.0,0.0,0.6333000063896179,0.32941117460123903,0.2222674290838807,0.7588558309361271,-0.03187068177825214,-0.04195813718950481,-0.01844695661546014,0.3296316698117039,-0.22992179462883894,0.761014779044649,-0.011055319002221677,-0.01021344643138353,0.00276806246083602,0.4795539081096649,-0.0032596627715975046,0.005149920005351305,0.46025025844573975,-0.02384222112596035,0.010872052982449532,-0.0715266615152359,-0.4787869453430176,-0.014380864799022675,0.010872052982449532,-0.49076828360557556,0.01735713705420494,-0.007438773289322853,-0.0036240178160369396
21,0,0.4795539081096649,-0.0032596627715975046,0.004386968910694122,0.46025025844573975,-0.026512550190091133,0.010872052982449532,-0.0711451917886734,-0.4787869453430176,-0.014380864799022675,0.010872052982449532,-0.49076828360557556,0.016594186425209045,-0.007438773289322853,-0.0032425422687083483,0.06809338182210922,0.06198977679014206,0.48095768690109253,-0.0017363927327096462,0.002251501427963376,0.45603659749031067,-0.02936607412993908,0.018355727195739746,-0.06730061769485474,-0.48267263174057007,-0.015612231567502022,0.004962630104273558,-0.48070842027664185,0.0036141795571893454,0.0010593252955004573,0.017383132129907608,0.0,0.0,0.666700005531311,0.32921008641667177,0.22235176632963682,0.7589460147342364,-0.03242121262786535,-0.042946850558318594,-0.01743100816934584,0.32995028995384057,-0.2301327013046762,0.7615717037851392,-0.012522974162280558,-0.015449154866109231,0.0019755043782428415,0.4795539081096649,-0.0032596627715975046,0.004386968910694122,0.46025025844573975,-0.026512550190091133,0.010872052982449532,-0.0711451917886734,-0.4787869453430176,-0.014380864799022675,0.010872052982449532,-0.49076828360557556,0.016594186425209045,-0.007438773289322853,-0.0032425422687083483
22,0,0.4795539081096649,-0.0032596627715975046,0.004386968910694122,0.46063172817230225,-0.027656977996230125,0.010872052982449532,-0.0711451917886734,-0.4787869453430176,-0.014380864799022675,0.010872052982449532,-0.49076828360557556,0.012397955171763897,-0.007057297509163618,0.004386968910694122,0.06809338182210922,0.06198977679014206,0.4807906150817871,-0.0025785667821764946,0.0018225845415145159,0.45603594183921814,-0.029641810804605484,0.018177609890699387,-0.06743934005498886,-0.4807420074939728,-0.014169711619615555,0.0055733597837388515,-0.4792802929878235,0.0019400942837819457,0.004211084451526403,0.0225172508507967,0.0,0.0,0.699999988079071,0.329251921729717,0.22246245737218373,0.7590142661054877,-0.03323873470431771,-0.04325795812260358,-0.016436329573487285,0.33044435358119173,-0.23068896492901383,0.7623775192618696,-0.013211534288243065,-0.021139502403846766,-0.002326766209378217,0.4795539081096649,-0.0032596627715975046,0.004386968910694122,0.46063172817230225,-0.027656977996230125,0.010872052982449532,-0.0711451917886734,-0.4787869453430176,-0.014380864799022675,0.010872052982449532,-0.49076828360557556,0.012397955171763897,-0.007057297509163618,0.004386968910694122
23,0,0.4795539081096649,-0.0032596627715975046,0.004386968910694122,0.46025025844573975,-0.029564354568719864,0.010872052982449532,-0.0711451917886734,-0.4787869453430176,-0.014380864799022675,0.010872052982449532,-0.49076828360557556,0.009727626107633114,-0.00667582219466567,0.010490577667951584,0.06809338182210922,0.06198977679014206,0.48067933320999146,-0.002723174635320902,0.0018200508784502745,0.45627614855766296,-0.029963621869683266,0.017927011474967003,-0.06686236709356308,-0.47770068049430847,-0.012412642128765583,0.007923328317701817,-0.47721222043037415,0.006929250434041023,0.00431129802018404,0.027904657647013664,0.0,0.0,0.733299970626831,0.329297896787785,0.22248359690536698,0.759061779089194,-0.03367531920591027,-0.043031458613169704,-0.01610852268234897,0.3312538303509956,-0.2315309206736247,0.7632878439013905,-0.007742701652182049,-0.027512336761463807,-0.0054338180362019095,0.4795539081096649,-0.0032596627715975046,0.004386968910694122,0.46025025844573975,-0.029564354568719864,0.010872052982449532,-0.0711451917886734,-0.4787869453430176,-0.014380864799022675,0.010872052982449532,-0.49076828360557556,0.009727626107633114,-0.00667582219466567,0.010490577667951584
24,0,0.4795539081096649,-0.0032596627715975046,0.004386968910694122,0.46063172817230225,-0.02994582988321781,0.010872052982449532,-0.0711451917886734,-0.4787869453430176,-0.014380864799022675,0.010872052982449532,-0.49000534415245056,0.008964675478637218,-0.0036240178160369396,0.01583123579621315,0.06809338182210922,0.06198977679014206,0.4810187816619873,-0.0015028339112177491,0.0030997353605926037,0.4565812349319458,-0.02887488715350628,0.017158599570393562,-0.06819143146276474,-0.4715940058231354,-0.005762717220932245,0.011254936456680298,-0.4736377000808716,0.015265481546521187,0.0072949971072375774,0.0316924974322319,0.0,0.0,0.766700029373169,0.32920702385960426,0.2221917780677494,0.7592792160936075,-0.03207965255816525,-0.04428087680518367,-0.01709114723525751,0.3328708835624591,-0.23267498978326537,0.7642348698788705,0.005036043495514342,-0.033777145146066,-0.01484269629123558,0.4795539081096649,-0.0032596627715975046,0.004386968910694122,0.46063172817230225,-0.02994582988321781,0.010872052982449532,-0.0711451917886734,-0.4787869453430176,-0.014380864799022675,0.010872052982449532,-0.49000534415245056,0.008964675478637218,-0.0036240178160369396,0.01583123579621315
25,0,0.4795539081096649,-0.0032596627715975046,0.004386968910694122,0.46025025844573975,-0.02994582988321781,0.010872052982449532,-0.0711451917886734,-0.4784034490585327,-0.014380864799022675,0.010872052982449532,-0.4888609051704407,0.009346150793135166,-0.0032425422687083483,0.01926451548933983,0.06809338182210922,0.06198977679014206,0.48133793473243713,0.0013812854886054993,0.0045298314653337,0.4562176764011383,-0.02690371312201023,0.01889517344534397,-0.06940104067325592,-0.46375346183776855,-0.003942649811506271,0.012360187247395515,-0.46727997064590454,0.013587848283350468,0.010598928667604923,0.043484292924404144,0.0,0.0,0.800000011920929,0.3291078147754195,0.22165190100109544,0.7592423771338647,-0.028266597060381926,-0.04479315555779362,-0.021611328065321622,0.3349252681281539,-0.23344900408117267,0.7659399722101758,0.004575020016247766,-0.04704075318180223,-0.020057542082527746,0.4795539081096649,-0.0032596627715975046,0.004386968910694122,0.46025025844573975,-0.02994582988321781,0.010872052982449532,-0.0711451917886734,-0.4784034490585327,-0.014380864799022675,0.010872052982449532,-0.4888609051704407,0.009346150793135166,-0.0032425422687083483,0.01926451548933983
26,0,0.4795539081096649,-0.0032596627715975046,0.004386968910694122,0.46063172817230225,-0.02994582988321781,0.010872052982449532,-0.0711451917886734,-0.4749520421028137,-0.013997375033795834,0.010872052982449532,-0.481612890958786,0.01125352829694748,-0.0024795911740511656,0.026131074875593185,0.06809338182210922,0.06198977679014206,0.48140186071395874,0.002430260879918933,0.004734671674668789,0.45613306760787964,-0.026022903621196747,0.019467715173959732,-0.06913638114929199,-0.4585166871547699,-0.0005014088237658143,0.013487370684742928,-0.46607711911201477,0.016204124316573143,0.012576463632285595,0.04380859434604645,0.0,0.0,0.833299994468689,0.32909385626581183,0.22159467828291277,0.7591577559227213,-0.02656625970031934,-0.04436279815734778,-0.022955648962714292,0.33641039125841465,-0.23383360437731338,0.7671661158687072,0.009891482806709817,-0.051296933427742,-0.024833899141710525,0.4795539081096649,-0.0032596627715975046,0.004386968910694122,0.46063172817230225,-0.02994582988321781,0.010872052982449532,-0.0711451917886734,-0.4749520421028137,-0.013997375033795834,0.010872052982449532,-0.481612890958786,0.01125352829694748,-0.0024795911740511656,0.026131074875593185
27,0,0.4795539081096649,-0.0032596627715975046,0.004386968910694122,0.46063172817230225,-0.029564354568719864,0.010872052982449532,-0.0711451917886734,-0.46574828028678894,-0.013613885268568993,0.010872052982449532,-0.4701686203479767,0.012779430486261845,0.000572213320992887,0.03452353551983833,0.06809338182210922,0.06198977679014206,0.48194074630737305,0.0034682590048760176,0.0052810837514698505,0.4557821750640869,-0.024341730400919914,0.020295454189181328,-0.07184244692325592,-0.45110222697257996,0.0024458267726004124,0.014065521769225597,-0.46579205989837646,0.01973334699869156,0.013304242864251137,0.04136098921298981,0.0,0.0,0.8666999936103821,0.32890094690821053,0.22135664547194467,0.7592497478622524,-0.024260329384087065,-0.04615323274430372,-0.024827035620103466,0.33861717970588007,-0.2338514095552615,0.7691161000877818,0.016018886594920012,-0.05585429986745449,-0.02763402904762513,0.4795539081096649,-0.0032596627715975046,0.004386968910694122,0.46063172817230225,-0.029564354568719864,0.010872052982449532,-0.0711451917886734,-0.46574828028678894,-0.013613885268568993,0.010872052982449532,-0.4701686203479767,0.012779430486261845,0.000572213320992887,0.03452353551983833
28,0,0.4795539081096649,-0.0032596627715975046,0.004386968910694122,0.46025025844573975,-0.029564354568719864,0.010872052982449532,-0.0715266615152359,-0.45769500732421875,-0.012463416904211044,0.010872052982449532,-0.4694056510925293,0.013160906732082367,0.0036240178160369396,0.03643091395497322,0.06809338182210922,0.06198977679014206,0.48210686445236206,0.003861161647364497,0.005423196125775576,0.45543259382247925,-0.023755783215165138,0.020451584830880165,-0.07247637212276459,-0.44872167706489563,0.0017528061289340258,0.013677811250090599,-0.46613574028015137,0.017539560794830322,0.013751174323260784,0.040560927242040634,0.0,0.0,0.8999999761581421,0.3288340921876848,0.22131699932035448,0.7591482581265119,-0.023407145051636213,-0.04625688155167573,-0.025330838884009665,0.33935870686131564,-0.23382123935068455,0.7699808913535623,0.013442924109366317,-0.057814977882530094,-0.02730595366182076,0.4795539081096649,-0.0032596627715975046,0.004386968910694122,0.46025025844573975,-0.029564354568719864,0.010872052982449532,-0.0715266615152359,-0.45769500732421875,-0.012463416904211044,0.010872052982449532,-0.4694056510925293,0.013160906732082367,0.0036240178160369396,0.03643091395497322
29,0,0.4795539081096649,-0.0032596627715975046,0.004386968910694122,0.46063172817230225,-0.029182879254221916,0.010872052982449532,-0.0715266615152359,-0.45079219341278076,-0.009395498782396317,0.010872052982449532,-0.4690241813659668,0.01430533267557621,0.004005493130534887,0.03757534176111221,0.06809338182210922,0.06198977679014206,0.4824383854866028,0.004327083472162485,0.005511188413947821,0.45528602600097656,-0.022703558206558228,0.02099905163049698,-0.07260143756866455,-0.4414176940917969,0.0015584278153255582,0.014543963596224785,-0.46491679549217224,0.015334959141910076,0.015327238477766514,0.047070346772670746,0.0,0.0,0.9333000183105469,0.32872681238075446,0.2212431757410515,0.7590068171837213,-0.02200817059468152,-0.04588575667146877,-0.026261758408108182,0.34142932580295715,-0.23445208588860666,0.772960982344424,0.010912080681817482,-0.07043613153142347,-0.029547295866951373,0.4795539081096649,-0.0032596627715975046,0.004386968910694122,0.46063172817230225,-0.029182879254221916,0.010872052982449532,-0.0715266615152359,-0.45079219341278076,-0.009395498782396317,0.010872052982449532,-0.4690241813659668,0.01430533267557621,0.004005493130534887,0.03757534176111221
30,0,0.4795539081096649,-0.0032596627715975046,0.004386968910694122,0.46063172817230225,-0.02880140393972397,0.010872052982449532,-0.0715266615152359,-0.44657379388809204,-0.005944090895354748,0.010872052982449532,-0.4694056510925293,0.014686808921396732,0.004005493130534887,0.03757534176111221,0.06809338182210922,0.06198977679014206,0.48302021622657776,0.00477453600615263,0.005943334195762873,0.455782026052475,-0.02129315584897995,0.02179359644651413,-0.07195724546909332,-0.43225786089897156,0.001648602308705449,0.01592925935983658,-0.46410512924194336,0.01595422439277172,0.015978526324033737,0.045478638261556625,0.0,0.0,0.96670001745224,0.32857185787899984,0.22097318566088234,0.7589366582381223,-0.02042764301046196,-0.04513670861088892,-0.027770424945916528,0.3441213371027727,-0.2351390483056668,0.7755376931521273,0.011311003293681843,-0.07718539698051385,-0.031490352956471845,0.4795539081096649,-0.0032596627715975046,0.004386968910694122,0.46063172817230225,-0.02880140393972397,0.010872052982449532,-0.0715266615152359,-0.44657379388809204,-0.005944090895354748,0.010872052982449532,-0.4694056510925293,0.014686808921396732,0.004005493130534887,0.03757534176111221
31,0,0.48032090067863464,-0.0032596627715975046,0.004386968910694122,0.46025025844573975,-0.028038453310728073,0.010872052982449532,-0.0715266615152359,-0.4446563422679901,-0.005177111364901066,0.010872052982449532,-0.4690241813659668,0.01430533267557621,0.004386968910694122,0.039101243019104004,0.06809338182210922,0.06198977679014206,0.4833056926727295,0.00513664074242115,0.006291487254202366,0.4559098184108734,-0.02062525786459446,0.0223932433873415,-0.07218541204929352,-0.42895516753196716,0.0009058110299520195,0.016585584729909897,-0.46410855650901794,0.016692252829670906,0.015274273231625557,0.04335014522075653,0.0,0.0,1.0,0.3284883132451334,0.2207703937523042,0.7589359690945923,-0.019622206785633534,-0.045199134231348914,-0.028896314094474906,0.3451258686391675,-0.23540967789789807,0.7763836646454306,0.011177531886507275,-0.07838627646799567,-0.03101385096253928,0.48032090067863464,-0.0032596627715975046,0.004386968910694122,0.46025025844573975,-0.028038453310728073,0.010872052982449532,-0.0715266615152359,-0.4446563422679901,-0.005177111364901066,0.010872052982449532,-0.4690241813659668,0.01430533267557621,0.004386968910694122,0.039101243019104004
32,0,0.48147135972976685,-0.0024926832411438227,0.004386968910694122,0.46025025844573975,-0.026131074875593185,0.01125352829694748,-0.0715266615152359,-0.43621957302093506,-0.004410131834447384,0.010872052982449532,-0.4690241813659668,0.01430533267557621,0.00476844422519207,0.04139009863138199,0.06809338182210922,0.06198977679014206,0.48344671726226807,0.006047180853784084,0.006987881846725941,0.4556288719177246,-0.01794842630624771,0.02422194741666317,-0.07282866537570953,-0.41781628131866455,-0.00024184414360206574,0.017363866791129112,-0.4605061411857605,0.009359440766274929,0.019238771870732307,0.04523376002907753,0.0,0.0,1.0333000421524048,0.32843214677431015,0.2202787252631368,0.7588849550053977,-0.01652206593655947,-0.0453760513821182,-0.031965366579794985,0.34825747432014065,-0.23644015487490128,0.7791244819302685,0.002916834036317706,-0.0879466598922618,-0.03485062639621894,0.48147135972976685,-0.0024926832411438227,0.004386968910694122,0.46025025844573975,-0.026131074875593185,0.01125352829694748,-0.0715266615152359,-0.43621957302093506,-0.004410131834447384,0.010872052982449532,-0.4690241813659668,0.01430533267557621,0.00476844422519207,0.04139009863138199
33,0,0.48147135972976685,-0.0024926832411438227,0.004386968910694122,0.46025025844573975,-0.026131074875593185,0.01201647985726595,-0.0715266615152359,-0.4289332628250122,-0.004410131834447384,0.010872052982449532,-0.4690241813659668,0.01430533267557621,0.00476844422519207,0.04139009863138199,0.06809338182210922,0.06198977679014206,0.48298826813697815,0.006973750423640013,0.007413399405777454,0.4549562633037567,-0.017752543091773987,0.025471540167927742,-0.07275526970624924,-0.4054256081581116,-0.001791726564988494,0.021146945655345917,-0.4584576189517975,0.01376462634652853,0.017293650656938553,0.040206655859947205,0.0,0.0,1.0666999816894531,0.32854983898352014,0.22001998532982295,0.7587526529244893,-0.01573820550962335,-0.0450819932121207,-0.03406205649776295,0.3518738949525835,-0.23800780028203652,0.7819098815184373,0.0046963995539814896,-0.09328917417943128,-0.03570377941815295,0.48147135972976685,-0.0024926832411438227,0.004386968910694122,0.46025025844573975,-0.026131074875593185,0.01201647985726595,-0.0715266615152359,-0.4289332628250122,-0.004410131834447384,0.010872052982449532,-0.4690241813659668,0.01430533267557621,0.00476844422519207,0.04139009863138199
34,0,0.48147135972976685,-0.0024926832411438227,0.004386968910694122,0.46025025844573975,-0.02536812424659729,0.01583123579621315,-0.0715266615152359,-0.41934603452682495,-0.004410131834447384,0.01201647985726595,-0.4682612419128418,0.013160906732082367,0.008964675478637218,0.04139009863138199,0.06809338182210922,0.06198977679014206,0.482877254486084,0.006889930926263332,0.0073502203449606895,0.45479637384414673,-0.01750645600259304,0.026151485741138458,-0.07285144925117493,-0.40110182762145996,-0.0022835738491266966,0.022437596693634987,-0.4576420783996582,0.01583043485879898,0.01661418005824089,0.03786029294133186,0.0,0.0,1.100000023841858,0.32857679760448133,0.21993247947057573,0.7587395467540651,-0.015555931148433455,-0.045135333612105644,-0.03465983937863548,0.35313433757007884,-0.23854182485735426,0.7827643455382988,0.005909263304958223,-0.09445237418154395,-0.036015422773868266,0.48147135972976685,-0.0024926832411438227,0.004386968910694122,0.46025025844573975,-0.02536812424659729,0.01583123579621315,-0.0715266615152359,-0.41934603452682495,-0.004410131834447384,0.01201647985726595,-0.4682612419128418,0.013160906732082367,0.008964675478637218,0.04139009863138199
35,0,0.48147135972976685,-0.0024926832411438227,0.004386968910694122,0.46025025844573975,-0.024986648932099342,0.018120087683200836,-0.0715266615152359,-0.4097587764263153,-0.004410131834447384,0.01201647985726595,-0.4659723937511444,0.013542382046580315,0.010109102353453636,0.04100862145423889,0.06809338182210922,0.06198977679014206,0.4827437102794647,0.005563500802963972,0.007044612895697355,0.4546166956424713,-0.01651814579963684,0.02706737630069256,-0.07269642502069473,-0.38753262162208557,-0.0065644606947898865,0.023815251886844635,-0.4526262879371643,0.010385395959019661,0.017297973856329918,0.03685138747096062,0.0,0.0,1.1332999467849731,0.32860520962822604,0.21975183066589082,0.7586829638474041,-0.015625672373365873,-0.0449588382190127,-0.03471488094259456,0.35699523410699024,-0.23977893686029494,0.7855403367304205,-0.0036020915022998423,-0.10224527026281871,-0.03578708135123776,0.48147135972976685,-0.0024926832411438227,0.004386968910694122,0.46025025844573975,-0.024986648932099342,0.018120087683200836,-0.0715266615152359,-0.4097587764263153,-0.004410131834447384,0.01201647985726595,-0.4659723937511444,0.013542382046580315,0.010109102353453636,0.04100862145423889
36,0,0.48147135972976685,-0.0024926832411438227,0.004386968910694122,0.46025025844573975,-0.02231631986796856,0.018501564860343933,-0.071908138692379,-0.3994045555591583,-0.004410131834447384,0.012779430486261845,-0.46215763688087463,0.013923857361078262,0.010872052982449532,0.03795681521296501,0.06809338182210922,0.06198977679014206,0.4828629493713379,0.003704743692651391,0.006734228227287531,0.45468640327453613,-0.015106985345482826,0.02725065127015114,-0.07255807518959045,-0.37460941076278687,-0.00926997885107994,0.028656357899308205,-0.4494664967060089,0.017839286476373672,0.013006927445530891,0.031171198934316635,0.0,0.0,1.166700005531311,0.32856073823801785,0.2196144808375667,0.7586428216346582,-0.01572418197233283,-0.044788156739320684,-0.03379758159231283,0.3607254212333538,-0.24164930016710007,0.7881163877793098,-0.0003451027489767,-0.10638964890403102,-0.034874864038226594,0.48147135972976685,-0.0024926832411438227,0.004386968910694122,0.46025025844573975,-0.02231631986796856,0.018501564860343933,-0.071908138692379,-0.3994045555591583,-0.004410131834447384,0.012779430486261845,-0.46215763688087463,0.013923857361078262,0.010872052982449532,0.03795681521296501
37,0,0.48147135972976685,-0.0024926832411438227,0.004386968910694122,0.46025025844573975,-0.02193484455347061,0.018501564860343933,-0.0715266615152359,-0.39020082354545593,-0.004793621599674225,0.016594186425209045,-0.45796138048171997,0.013160906732082367,0.011635004542768002,0.037193864583969116,0.06809338182210922,0.06198977679014206,0.4829610288143158,0.002623003674671054,0.006480623036623001,0.4545435607433319,-0.014244242571294308,0.027408728376030922,-0.07354120165109634,-0.36541059613227844,-0.009018005803227425,0.030875859782099724,-0.4465869665145874,0.02053309977054596,0.012628060765564442,0.027197130024433136,0.0,0.0,1.2000000476837158,0.3285143108772709,0.21956092067584287,0.7586877084732004,-0.015713975604140895,-0.04553935637080864,-0.03323812507721202,0.3633256611357071,-0.24255997133831475,0.7896722016800176,0.0020542089091253324,-0.10873429880268937,-0.03675628373102802,0.48147135972976685,-0.0024926832411438227,0.004386968910694122,0.46025025844573975,-0.02193484455347061,0.018501564860343933,-0.0715266615152359,-0.39020082354545593,-0.004793621599674225,0.016594186425209045,-0.45796138048171997,0.013160906732082367,0.011635004542768002,0.037193864583969116
38,0,0.48147135972976685,-0.0024926832411438227,0.004386968910694122,0.46025025844573975,-0.021553369238972664,0.018501564860343933,-0.0715266615152359,-0.37754565477371216,-0.005177111364901066,0.023079270496964455,-0.4537651538848877,0.01430533267557621,0.01125352829694748,0.03337911143898964,0.06809338182210922,0.06198977679014206,0.4830065369606018,6.292905163718387e-05,0.005843068473041058,0.4545707702636719,-0.013018879108130932,0.02820725366473198,-0.07299381494522095,-0.35076096653938293,-0.013224594295024872,0.031527500599622726,-0.439419150352478,0.014506528154015541,0.013149760663509369,0.025020187720656395,0.0,0.0,1.233299970626831,0.32849066373846253,0.21938783589336594,0.7585927923216724,-0.016483239383986437,-0.04501588144073532,-0.03229130679117986,0.3674632232757292,-0.24351850383703652,0.7919165406581763,-0.007677003463679277,-0.11426775324816152,-0.03600294425850237,0.48147135972976685,-0.0024926832411438227,0.004386968910694122,0.46025025844573975,-0.021553369238972664,0.018501564860343933,-0.0715266615152359,-0.37754565477371216,-0.005177111364901066,0.023079270496964455,-0.4537651538848877,0.01430533267557621,0.01125352829694748,0.03337911143898964
39,0,0.48147135972976685,-0.0028761730063706636,0.004386968910694122,0.46025025844573975,-0.01926451548933983,0.018501564860343933,-0.0715266615152359,-0.3671914339065552,-0.005560601130127907,0.026131074875593185,-0.4503318965435028,0.01735713705420494,0.010872052982449532,0.02880140393972397,0.06809338182210922,0.06198977679014206,0.48281532526016235,-0.0003494653501547873,0.005870138760656118,0.45462024211883545,-0.012626704759895802,0.02804119698703289,-0.07208723574876785,-0.3403489887714386,-0.01495868805795908,0.0329488068819046,-0.43436917662620544,0.01681048423051834,0.010761176235973835,0.02130010351538658,0.0,0.0,1.266700029373169,0.32855896831113596,0.2193446921396129,0.758531852401694,-0.01645623132133034,-0.04435002800451615,-0.03198508424815838,0.3704352949233759,-0.24408123331576093,0.7931691654723347,-0.007390415397112715,-0.11595443142806339,-0.034345774938018714,0.48147135972976685,-0.0028761730063706636,0.004386968910694122,0.46025025844573975,-0.01926451548933983,0.018501564860343933,-0.0715266615152359,-0.3671914339065552,-0.005560601130127907,0.026131074875593185,-0.4503318965435028,0.01735713705420494,0.010872052982449532,0.02880140393972397
40,0,0.48147135972976685,-0.0028761730063706636,0.004386968910694122,0.46025025844573975,-0.018120087683200836,0.01888304017484188,-0.071908138692379,-0.35185182094573975,-0.005944090895354748,0.030708782374858856,-0.44384679198265076,0.016594186425209045,0.010872052982449532,0.025749599561095238,0.06809338182210922,0.06198977679014206,0.4828138053417206,-0.001205486711114645,0.006035047583281994,0.45499780774116516,-0.01180151104927063,0.028214579448103905,-0.07146301865577698,-0.3254149854183197,-0.017628775909543037,0.032227952033281326,-0.42900922894477844,0.015568038448691368,0.009136495180428028,0.010717717930674553,0.0,0.0,1.2999999523162842,0.3285763333262651,0.21913194571983272,0.758588353954935,-0.01645987276059424,-0.044112384123085935,-0.03193863967317556,0.3748151900165647,-0.24396658717528966,0.7950235355690427,-0.010635984197237214,-0.11500214684122545,-0.031159612355549537,0.48147135972976685,-0.0028761730063706636,0.004386968910694122,0.46025025844573975,-0.018120087683200836,0.01888304017484188,-0.071908138692379,-0.35185182094573975,-0.005944090895354748,0.030708782374858856,-0.44384679198265076,0.016594186425209045,0.010872052982449532,0.025749599561095238
41,0,0.48147135972976685,-0.0028761730063706636,0.004386968910694122,0.46025025844573975,-0.018120087683200836,0.01888304017484188,-0.0715266615152359,-0.3411141335964203,-0.005944090895354748,0.030708782374858856,-0.440032035112381,0.016975661739706993,0.010872052982449532,0.021553369238972664,0.06809338182210922,0.06198977679014206,0.48266199231147766,-0.0014321031048893929,0.0060163093730807304,0.4550648629665375,-0.01168972160667181,0.028436454012989998,-0.07082222402095795,-0.31877657771110535,-0.018952736631035805,0.03152485564351082,-0.42616066336631775,0.013842993415892124,0.008965305984020233,0.006212569773197174,0.0,0.0,1.333299994468689,0.3286288963584031,0.21907582765586242,0.7585730080937549,-0.016539055447907458,-0.04369602097855818,-0.032048404272126074,0.3767600442375707,-0.24386126830866767,0.7957055442003755,-0.013228126940235008,-0.11431854194170965,-0.029920945379482866,0.48147135972976685,-0.0028761730063706636,0.004386968910694122,0.46025025844573975,-0.018120087683200836,0.01888304017484188,-0.0715266615152359,-0.3411141335964203,-0.005944090895354748,0.030708782374858856,-0.440032035112381,0.016975661739706993,0.010872052982449532,0.021553369238972664
42,0,0.48147135972976685,-0.0028761730063706636,0.004386968910694122,0.46025025844573975,-0.01773861236870289,0.01888304017484188,-0.0715266615152359,-0.3307599127292633,-0.007861539721488953,0.030708782374858856,-0.4369802474975586,0.016975661739706993,0.010872052982449532,0.013923857361078262,0.06809338182210922,0.06198977679014206,0.48266857862472534,-0.001331161241978407,0.0060852449387311935,0.45507296919822693,-0.011749958619475365,0.02833000011742115,-0.07082215696573257,-0.3187215328216553,-0.01881306618452072,0.03160927817225456,-0.4261224865913391,0.013749020174145699,0.008830114267766476,0.006197210866957903,0.0,0.0,1.3667000532150269,0.3286290000095252,0.21907566448282775,0.7585744027795014,-0.01653905355885321,-0.04369559284494784,-0.03204837126110416,0.3767743085174469,-0.24386030689021407,0.7957030082180877,-0.013228331360267465,-0.1143181165019187,-0.029921382268113028,0.48147135972976685,-0.0028761730063706636,0.004386968910694122,0.46025025844573975,-0.01773861236870289,0.01888304017484188,-0.0715266615152359,-0.3307599127292633,-0.007861539721488953,0.030708782374858856,-0.4369802474975586,0.016975661739706993,0.010872052982449532,0.013923857361078262
43,0,0.48147135972976685,-0.0028761730063706636,0.004386968910694122,0.46025025844573975,-0.01773861236870289,0.01888304017484188,-0.0715266615152359,-0.3184882402420044,-0.009778988547623158,0.030708782374858856,-0.4346913993358612,0.016975661739706993,0.010490577667951584,0.010109102353453636,0.06809338182210922,0.06198977679014206,0.48267799615859985,-0.001194395124912262,0.006175256334245205,0.455086886882782,-0.011833284050226212,0.028189020231366158,-0.07081934064626694,-0.3187098205089569,-0.018749097362160683,0.03164919465780258,-0.42610955238342285,0.013706912286579609,0.008767224848270416,0.006200005300343037,0.0,0.0,1.399999976158142,0.3286289903511004,0.2190756427180024,0.7585744156672292,-0.016539052016919964,-0.04369555992246754,-0.03204836957225243,0.37677446712369755,-0.24386032313526637,0.7957028718946367,-0.013228331996197884,-0.11431815268340983,-0.0299213829710685,0.48147135972976685,-0.0028761730063706636,0.004386968910694122,0.46025025844573975,-0.01773861236870289,0.01888304017484188,-0.0715266615152359,-0.3184882402420044,-0.009778988547623158,0.030708782374858856,-0.4346913993358612,0.016975661739706993,0.010490577667951584,0.010109102353453636
44,0,0.48147135972976685,-0.0028761730063706636,0.004386968910694122,0.46025025844573975,-0.01773861236870289,0.01888304017484188,-0.0715266615152359,-0.3138863444328308,-0.011696437373757362,0.030708782374858856,-0.4346913993358612,0.016975661739706993,0.010490577667951584,0.010109102353453636,0.06809338182210922,0.06198977679014206,0.4812043309211731,-0.002914444077759981,0.006654408760368824,0.4546576738357544,-0.010730002075433731,0.027945708483457565,-0.06975609064102173,-0.27531763911247253,-0.026527123525738716,0.029263576492667198,-0.40451914072036743,0.016229061409831047,0.0013483926886692643,-0.018564673140645027,0.0,0.0,1.4333000183105469,0.32905226795693276,0.2186815825823194,0.7587396581220309,-0.01714060926503569,-0.043691878697348585,-0.031456419824511084,0.3893136440566064,-0.2431932387113651,0.7998699419109537,-0.017315304608487292,-0.11133915449192378,-0.018273242230863573,0.48147135972976685,-0.0028761730063706636,0.004386968910694122,0.46025025844573975,-0.01773861236870289,0.01888304017484188,-0.0715266615152359,-0.3138863444328308,-0.011696437373757362,0.030708782374858856,-0.4346913993358612,0.016975661739706993,0.010490577667951584,0.010109102353453636
45,0,0.48147135972976685,-0.0028761730063706636,0.004386968910694122,0.46025025844573975,-0.01773861236870289,0.01888304017484188,-0.0715266615152359,-0.31465333700180054,-0.013997375033795834,0.030708782374858856,-0.4346913993358612,0.016594186425209045,0.010490577667951584,0.009727626107633114,0.06809338182210922,0.06198977679014206,0.480510413646698,-0.0027207480743527412,0.007552693597972393,0.4545855224132538,-0.010210351087152958,0.026704948395490646,-0.06886900216341019,-0.25689151883125305,-0.02489442005753517,0.03003235161304474,-0.3966587781906128,0.020470909774303436,0.0009535725694149733,-0.028171950951218605,0.0,0.0,1.4666999578475952,0.329271676118855,0.21849616218063006,0.7588053616125527,-0.016812085700621537,-0.04340251081087354,-0.031145636826390266,0.3945117992862722,-0.24334053562067376,0.802324332056415,-0.011368112727173418,-0.11228483378320986,-0.019537798920112426,0.48147135972976685,-0.0028761730063706636,0.004386968910694122,0.46025025844573975,-0.01773861236870289,0.01888304017484188,-0.0715266615152359,-0.31465333700180054,-0.013997375033795834,0.030708782374858856,-0.4346913993358612,0.016594186425209045,0.010490577667951584,0.009727626107633114
46,0,0.4818548560142517,-0.0032596627715975046,0.004005493130534887,0.46025025844573975,-0.01773861236870289,0.01888304017484188,-0.0711451917886734,-0.3039156198501587,-0.014764354564249516,0.030708782374858856,-0.422102689743042,0.016975661739706993,0.005149920005351305,-0.00667582219466567,0.06809338182210922,0.06198977679014206,0.4798545837402344,-0.0036138766445219517,0.007469585631042719,0.4544205665588379,-0.010187172330915928,0.025567566975951195,-0.06933654844760895,-0.2418321967124939,-0.025416268035769463,0.030215682461857796,-0.39001646637916565,0.023337271064519882,-0.0009845657041296363,-0.03424525633454323,0.0,0.0,1.5,0.32945935636923207,0.2185936031560444,0.7590184760896391,-0.017499015711042176,-0.04436198081177123,-0.029486071302861294,0.39869309459734825,-0.24330176840341716,0.8046801342509825,-0.009029588933176846,-0.11461573213872223,-0.017793228245243764,0.4818548560142517,-0.0032596627715975046,0.004005493130534887,0.46025025844573975,-0.01773861236870289,0.01888304017484188,-0.0711451917886734,-0.3039156198501587,-0.014764354564249516,0.030708782374858856,-0.422102689743042,0.016975661739706993,0.005149920005351305,-0.00667582219466567
47,0,0.4807043969631195,-0.0032596627715975046,0.004386968910694122,0.45872434973716736,-0.014686808921396732,0.01888304017484188,-0.0715266615152359,-0.2575133740901947,-0.01668180339038372,0.03185320645570755,-0.3847180902957916,0.01773861236870289,0.004386968910694122,-0.031090257689356804,0.06809338182210922,0.06198977679014206,0.47920745611190796,-0.002861458109691739,0.008149336092174053,0.4545161724090576,-0.010647164657711983,0.023653699085116386,-0.06721239537000656,-0.23131908476352692,-0.025528501719236374,0.030507024377584457,-0.38485273718833923,0.022381486371159554,-0.0011970147024840117,-0.03829628601670265,0.0,0.0,1.5333000421524048,0.3296863048618608,0.2186786832171482,0.7589452224407678,-0.017535003088223533,-0.04295287890833688,-0.028546779210439244,0.40167053067832836,-0.2435039561432263,0.8061149241436477,-0.009968265327487735,-0.1159318911385725,-0.018078889484975935,0.4807043969631195,-0.0032596627715975046,0.004386968910694122,0.45872434973716736,-0.014686808921396732,0.01888304017484188,-0.0715266615152359,-0.2575133740901947,-0.01668180339038372,0.03185320645570755,-0.3847180902957916,0.01773861236870289,0.004386968910694122,-0.031090257689356804
48,0,0.481087863445282,-0.0036431525368243456,0.004386968910694122,0.45834288001060486,-0.014686808921396732,0.01888304017484188,-0.0715266615152359,-0.23642142117023468,-0.020900189876556396,0.03147173300385475,-0.3843366205692291,0.018120087683200836,0.002861066721379757,-0.03337911143898964,0.06809338182210922,0.06198977679014206,0.47916656732559204,-0.00277379690669477,0.008232337422668934,0.4546109437942505,-0.010692359879612923,0.023535480722784996,-0.06706509739160538,-0.23070105910301208,-0.02534053847193718,0.03046579286456108,-0.3841238021850586,0.022164950147271156,-0.0012362697161734104,-0.0381760448217392,0.0,0.0,1.5666999816894531,0.32970484026313773,0.218671568315985,0.758974916139228,-0.01753434722973557,-0.04293977228680257,-0.028543565925105874,0.40183591373366556,-0.24345937621639624,0.8060763704621956,-0.009980683565876891,-0.1159350344906187,-0.018096802532627798,0.481087863445282,-0.0036431525368243456,0.004386968910694122,0.45834288001060486,-0.014686808921396732,0.01888304017484188,-0.0715266615152359,-0.23642142117023468,-0.020900189876556396,0.03147173300385475,-0.3843366205692291,0.018120087683200836,0.002861066721379757,-0.03337911143898964
49,0,0.481087863445282,-0.0032596627715975046,0.004386968910694122,0.45834288001060486,-0.014686808921396732,0.01888304017484188,-0.0711451917886734,-0.22645069658756256,-0.021283680573105812,0.03147173300385475,-0.3843366205692291,0.018120087683200836,0.0032425422687083483,-0.03452353551983833,0.06809338182210922,0.06198977679014206,0.4788234233856201,-0.001722543267533183,0.009378110058605671,0.4553605318069458,-0.011384503915905952,0.022039512172341347,-0.06562774628400803,-0.21398113667964935,-0.024898668751120567,0.030464930459856987,-0.37049636244773865,0.019440222531557083,0.00041452606092207134,-0.039089880883693695,0.0,0.0,1.600000023841858,0.32985699422186626,0.2185352306672793,0.7591850808253925,-0.017758930705324527,-0.04257654874606054,-0.028544110302521464,0.40643739084370434,-0.24383257300065492,0.8070447639107975,-0.01160584906927209,-0.11812025097936374,-0.020491824887579835,0.481087863445282,-0.0032596627715975046,0.004386968910694122,0.45834288001060486,-0.014686808921396732,0.01888304017484188,-0.0711451917886734,-0.22645069658756256,-0.021283680573105812,0.03147173300385475,-0.3843366205692291,0.018120087683200836,0.0032425422687083483,-0.03452353551983833
50,0,0.481087863445282,-0.0032596627715975046,0.004386968910694122,0.45834288001060486,-0.014686808921396732,0.01888304017484188,-0.0711451917886734,-0.2283681333065033,-0.021283680573105812,0.03147173300385475,-0.3843366205692291,0.018120087683200836,0.002861066721379757,-0.03528648987412453,0.06809338182210922,0.06198977679014206,0.47789737582206726,-0.0009704176336526871,0.01018786896020174,0.45572230219841003,-0.01192195899784565,0.021106399595737457,-0.0627548098564148,-0.19926491379737854,-0.024973614141345024,0.029933014884591103,-0.3553374409675598,0.013382411561906338,0.00473186606541276,-0.03646557778120041,0.0,0.0,1.6332999467849731,0.3301803431435613,0.21841600586095206,0.7592140865253949,-0.01794436400452959,-0.04097933921479102,-0.028705612595534724,0.41049369317364837,-0.24448148673431955,0.8071551396669694,-0.016557619344065966,-0.12036954030824898,-0.02500479818676693,0.481087863445282,-0.0032596627715975046,0.004386968910694122,0.45834288001060486,-0.014686808921396732,0.01888304017484188,-0.0711451917886734,-0.2283681333065033,-0.021283680573105812,0.03147173300385475,-0.3843366205692291,0.018120087683200836,0.002861066721379757,-0.03528648987412453
51,0,0.481087863445282,-0.0032596627715975046,0.004386968910694122,0.45834288001060486,-0.014686808921396732,0.01888304017484188,-0.0707637146115303,-0.22184881567955017,-0.020900189876556396,0.03147173300385475,-0.3744182586669922,0.01773861236870289,0.002861066721379757,-0.03643091395497322,0.06809338182210922,0.06198977679014206,0.4778149724006653,-0.00032583792926743627,0.010812561959028244,0.4559999406337738,-0.012175113894045353,0.02029990591108799,-0.06249968335032463,-0.19403278827667236,-0.024061182513833046,0.030364520847797394,-0.3506762981414795,0.013274213299155235,0.006210993509739637,-0.038255054503679276,0.0,0.0,1.666700005531311,0.33022121354976885,0.21834909328086305,0.759319546501522,-0.017886892498365725,-0.04106784650527562,-0.02875046703706685,0.4119512892222321,-0.24480130512543707,0.8070804485633387,-0.015480804327391517,-0.11916361984670942,-0.027380387523780136,0.481087863445282,-0.0032596627715975046,0.004386968910694122,0.45834288001060486,-0.014686808921396732,0.01888304017484188,-0.0707637146115303,-0.22184881567955017,-0.020900189876556396,0.03147173300385475,-0.3744182586669922,0.01773861236870289,0.002861066721379757,-0.03643091395497322
52,0,0.481087863445282,-0.0032596627715975046,0.004386968910694122,0.45834288001060486,-0.014686808921396732,0.018501564860343933,-0.06847485899925232,-0.20881016552448273,-0.021283680573105812,0.03147173300385475,-0.3595407009124756,0.016975661739706993,0.0032425422687083483,-0.035667963325977325,0.06809338182210922,0.06198977679014206,0.47726425528526306,0.0009715517517179251,0.012391898781061172,0.45620548725128174,-0.011962192133069038,0.018431808799505234,-0.06252129375934601,-0.1803835928440094,-0.020967520773410797,0.0334763303399086,-0.3409184217453003,0.020614035427570343,0.006853226572275162,-0.047683607786893845,0.0,0.0,1.7000000476837158,0.33040413910061733,0.21810617282324976,0.7595912857004411,-0.017188127349107685,-0.04179843318986931,-0.028914098135697675,0.41579269703457933,-0.24583185750771572,0.8071633932526493,-0.005208729251312771,-0.1135743591406686,-0.03204599547201781,0.481087863445282,-0.0032596627715975046,0.004386968910694122,0.45834288001060486,-0.014686808921396732,0.018501564860343933,-0.06847485899925232,-0.20881016552448273,-0.021283680573105812,0.03147173300385475,-0.3595407009124756,0.016975661739706993,0.0032425422687083483,-0.035667963325977325
53,0,0.481087863445282,-0.0032596627715975046,0.004386968910694122,0.45834288001060486,-0.014686808921396732,0.018501564860343933,-0.06771191209554672,-0.1976889669895172,-0.021283680573105812,0.03147173300385475,-0.3561074137687683,0.016975661739706993,0.0036240178160369396,-0.03795681521296501,0.06809338182210922,0.06198977679014206,0.47704002261161804,0.0016406056238338351,0.012987128458917141,0.455922931432724,-0.011483843438327312,0.01785730943083763,-0.06474899500608444,-0.17257963120937347,-0.0194720271974802,0.03516890108585358,-0.33370229601860046,0.023966092616319656,0.007097357418388128,-0.048381417989730835,0.0,0.0,1.733299970626831,0.3304495155937406,0.21801905302945596,0.7598849220928754,-0.016376387379219093,-0.043940365428533745,-0.029184665763241302,0.4179460057360609,-0.24641508119748515,0.8072487114123402,-0.00041662347192072957,-0.11343480969958097,-0.03440805635117661,0.481087863445282,-0.0032596627715975046,0.004386968910694122,0.45834288001060486,-0.014686808921396732,0.018501564860343933,-0.06771191209554672,-0.1976889669895172,-0.021283680573105812,0.03147173300385475,-0.3561074137687683,0.016975661739706993,0.0036240178160369396,-0.03795681521296501
54,0,0.4807043969631195,-0.0032596627715975046,0.004386968910694122,0.45834288001060486,-0.014686808921396732,0.018120087683200836,-0.06771191209554672,-0.18465030193328857,-0.020900189876556396,0.03147173300385475,-0.35038527846336365,0.01735713705420494,0.0036240178160369396,-0.04291599988937378,0.06809338182210922,0.06198977679014206,0.4767145812511444,0.0021687159314751625,0.013294183649122715,0.45554786920547485,-0.0114893214777112,0.017183693125844002,-0.06651055812835693,-0.1622397005558014,-0.01887500286102295,0.036405179649591446,-0.3241247236728668,0.024394242092967033,0.008219742216169834,-0.04946332052350044,0.0,0.0,1.766700029373169,0.3305270190577234,0.2180568749142574,0.7600921952435139,-0.016037295438586785,-0.045634319545514224,-0.029014740069380096,0.42081702830633183,-0.24713252634334062,0.8074159856788737,0.0009136139340619742,-0.11311850782975919,-0.037152928802035134,0.4807043969631195,-0.0032596627715975046,0.004386968910694122,0.45834288001060486,-0.014686808921396732,0.018120087683200836,-0.06771191209554672,-0.18465030193328857,-0.020900189876556396,0.03147173300385475,-0.35038527846336365,0.01735713705420494,0.0036240178160369396,-0.04291599988937378
55,0,0.481087863445282,-0.0032596627715975046,0.004386968910694122,0.45834288001060486,-0.014686808921396732,0.018120087683200836,-0.06809338182210922,-0.17467957735061646,-0.021283680573105812,0.03185320645570755,-0.3389410376548767,0.018501564860343933,0.0036240178160369396,-0.046730753034353256,0.06809338182210922,0.06198977679014206,0.4763854444026947,0.0022476420272141695,0.013502933084964752,0.4555261433124542,-0.011600825004279613,0.016190098598599434,-0.06684872508049011,-0.15519089996814728,-0.018697232007980347,0.03740200027823448,-0.31733232736587524,0.02573179081082344,0.008082174696028233,-0.05061597377061844,0.0,0.0,1.7999999523162842,0.33062798597655907,0.21812757850822095,0.760229324604074,-0.016144956037476454,-0.046269169659055365,-0.028230628408251857,0.42279240813636587,-0.2475934788819436,0.8073802787810531,0.002476582934555882,-0.11222689278411524,-0.03815198620155469,0.481087863445282,-0.0032596627715975046,0.004386968910694122,0.45834288001060486,-0.014686808921396732,0.018120087683200836,-0.06809338182210922,-0.17467957735061646,-0.021283680573105812,0.03185320645570755,-0.3389410376548767,0.018501564860343933,0.0036240178160369396,-0.046730753034353256
56,0,0.481087863445282,-0.0032596627715975046,0.004386968910694122,0.45834288001060486,-0.014686808921396732,0.018120087683200836,-0.06809338182210922,-0.16700978577136993,-0.021283680573105812,0.03147173300385475,-0.33207446336746216,0.02040894143283367,0.0036240178160369396,-0.04787518084049225,0.06809338182210922,0.06198977679014206,0.47606146335601807,0.002064354019239545,0.01354148704558611,0.45543795824050903,-0.011681457050144672,0.015043140389025211,-0.06692463904619217,-0.14913137257099152,-0.01944725587964058,0.03771224617958069,-0.3108431100845337,0.026756905019283295,0.006908603478223085,-0.04976412281394005,0.0,0.0,1.833299994468689,0.3307256564734629,0.21826121257018474,0.760295862660818,-0.016375103808440095,-0.0465714380609743,-0.027021141728861053,0.4244991009305076,-0.24776815004307792,0.8073915916476245,0.0027182597690909027,-0.11267819971444126,-0.03720928356140618,0.481087863445282,-0.0032596627715975046,0.004386968910694122,0.45834288001060486,-0.014686808921396732,0.018120087683200836,-0.06809338182210922,-0.16700978577136993,-0.021283680573105812,0.03147173300385475,-0.33207446336746216,0.02040894143283367,0.0036240178160369396,-0.04787518084049225
57,0,0.4807043969631195,-0.0032596627715975046,0.004386968910694122,0.45834288001060486,-0.014686808921396732,0.018120087683200836,-0.06847485899925232,-0.15780602395534515,-0.020900189876556396,0.03185320645570755,-0.32101166248321533,0.02079041674733162,0.004005493130534887,-0.050164032727479935,0.06809338182210922,0.06198977679014206,0.475663423538208,0.0018294942565262318,0.013544001616537571,0.4555280804634094,-0.011849744245409966,0.014244964346289635,-0.06645279377698898,-0.13927483558654785,-0.02229616418480873,0.03770134225487709,-0.29846909642219543,0.02416410483419895,0.006223468109965324,-0.04749205335974693,0.0,0.0,1.8667000532150269,0.3308551127772823,0.21835134246151908,0.7603871740535142,-0.0167252955218129,-0.04658336190710566,-0.026105552309100943,0.42729704439707716,-0.24838744351309236,0.8068784964833342,-0.0024673309075140537,-0.11255196737250417,-0.036269060440248246,0.4807043969631195,-0.0032596627715975046,0.004386968910694122,0.45834288001060486,-0.014686808921396732,0.018120087683200836,-0.06847485899925232,-0.15780602395534515,-0.020900189876556396,0.03185320645570755,-0.32101166248321533,0.02079041674733162,0.004005493130534887,-0.050164032727479935
58,0,0.4807043969631195,-0.0032596627715975046,0.004386968910694122,0.45834288001060486,-0.014686808921396732,0.018120087683200836,-0.06847485899925232,-0.15320414304733276,-0.021283680573105812,0.03185320645570755,-0.31757840514183044,0.02079041674733162,0.004005493130534887,-0.050164032727479935,0.06809338182210922,0.06198977679014206,0.47575169801712036,0.0019086545798927546,0.01355125941336155,0.4559915363788605,-0.01073861587792635,0.01381231751292944,-0.06725206971168518,-0.12785358726978302,-0.021879656240344048,0.04010053724050522,-0.2842540442943573,0.024323098361492157,0.008256444707512856,-0.04948291927576065,0.0,0.0,1.899999976158142,0.3308420138148337,0.2184143976880849,0.7606673850432772,-0.01553440305829401,-0.04773625985321761,-0.02577905532033009,0.4305119033737729,-0.24986974808973592,0.8055474300114498,-0.0014892940972113244,-0.10781759178778705,-0.04117999205698242,0.4807043969631195,-0.0032596627715975046,0.004386968910694122,0.45834288001060486,-0.014686808921396732,0.018120087683200836,-0.06847485899925232,-0.15320414304733276,-0.021283680573105812,0.03185320645570755,-0.31757840514183044,0.02079041674733162,0.004005493130534887,-0.050164032727479935
59,0,0.4807043969631195,-0.0032596627715975046,0.004386968910694122,0.45834288001060486,-0.014686808921396732,0.01773861236870289,-0.06847485899925232,-0.14438389241695404,-0.021283680573105812,0.03185320645570755,-0.30346378684043884,0.02079041674733162,0.0036240178160369396,-0.049782559275627136,0.06809338182210922,0.06198977679014206,0.4757378101348877,0.001998180989176035,0.013602210208773613,0.45567405223846436,-0.01039037387818098,0.013758133165538311,-0.06820698082447052,-0.12291287630796432,-0.020958250388503075,0.04310072585940361,-0.2792222499847412,0.03173070773482323,0.005609029904007912,-0.05486193299293518,0.0,0.0,1.9333000183105469,0.33081050844133486,0.2184100188443592,0.7607472242509585,-0.015133615953882629,-0.04836351614501977,-0.025824065036113897,0.4319413338567427,-0.2506508679701946,0.8047482201140409,0.006184877852116966,-0.10233913401318873,-0.04142205649217967,0.4807043969631195,-0.0032596627715975046,0.004386968910694122,0.45834288001060486,-0.014686808921396732,0.01773861236870289,-0.06847485899925232,-0.14438389241695404,-0.021283680573105812,0.03185320645570755,-0.30346378684043884,0.02079041674733162,0.0036240178160369396,-0.049782559275627136
60,0,0.4807043969631195,-0.0032596627715975046,0.004386968910694122,0.45834288001060486,-0.014686808921396732,0.01735713705420494,-0.06847485899925232,-0.13211221992969513,-0.021283680573105812,0.03185320645570755,-0.28439003229141235,0.02079041674733162,0.004005493130534887,-0.050164032727479935,0.06809338182210922,0.06198977679014206,0.47586509585380554,0.0019220903050154448,0.013372894376516342,0.45580586791038513,-0.009932875633239746,0.01356410887092352,-0.06943841278553009,-0.10947827249765396,-0.020220858976244926,0.04721520096063614,-0.2620964050292969,0.033204998821020126,0.008074281737208366,-0.059973545372486115,0.0,0.0,1.9666999578475952,0.3307678032633111,0.21852696383730688,0.7609431103278522,-0.014636867202532322,-0.04959056654266325,-0.025406002869605704,0.43570452650455804,-0.2529207560842983,0.8026576144616617,0.008852355298035075,-0.09357409189617849,-0.04846263628025271,0.4807043969631195,-0.0032596627715975046,0.004386968910694122,0.45834288001060486,-0.014686808921396732,0.01735713705420494,-0.06847485899925232,-0.13211221992969513,-0.021283680573105812,0.03185320645570755,-0.28439003229141235,0.02079041674733162,0.004005493130534887,-0.050164032727479935
61,0,0.4807043969631195,-0.0032596627715975046,0.004386968910694122,0.45834288001060486,-0.014686808921396732,0.01735713705420494,-0.06885633617639542,-0.12712684273719788,-0.021283680573105812,0.03490501269698143,-0.2813382148742676,0.022697795182466507,0.0036240178160369396,-0.05397878959774971,0.06809338182210922,0.06198977679014206,0.47559067606925964,8.240283204941079e-05,0.012338629923760891,0.4558211863040924,-0.010119265876710415,0.012287121266126633,-0.07027389109134674,-0.09593479335308075,-0.022931117564439774,0.04859333857893944,-0.2403930425643921,0.027237219735980034,0.011409514583647251,-0.05536746606230736,0.0,0.0,2.0,0.33083992752134805,0.2189425948134278,0.7611461935038683,-0.01595499506675635,-0.05072688458455055,-0.022284797260348377,0.43946019950050524,-0.25495545657734714,0.8003524427257315,0.0011559263722724644,-0.09022602320738171,-0.05363116222162345,0.4807043969631195,-0.0032596627715975046,0.004386968910694122,0.45834288001060486,-0.014686808921396732,0.01735713705420494,-0.06885633617639542,-0.12712684273719788,-0.021283680573105812,0.03490501269698143,-0.2813382148742676,0.022697795182466507,0.0036240178160369396,-0.05397878959774971
62,0,0.4807043969631195,-0.0032596627715975046,0.004386968910694122,0.45834288001060486,-0.014686808921396732,0.01735713705420494,-0.06923781335353851,-0.11753960698843002,-0.020900189876556396,0.038719769567251205,-0.27027541399002075,0.024986648932099342,0.004005493130534887,-0.05664911866188049,0.06809338182210922,0.06198977679014206,0.4755003750324249,-0.0004058945633005351,0.012278114445507526,0.4558056592941284,-0.010215729475021362,0.011510404758155346,-0.07031881809234619,-0.09018928557634354,-0.023308953270316124,0.050582051277160645,-0.23292161524295807,0.0314713791012764,0.009418338537216187,-0.05846469849348068,0.0,0.0,2.0332999229431152,0.3308635604709337,0.21902638376703604,0.7611699599238266,-0.01644146128368451,-0.050843896278616185,-0.021203748853449778,0.4411032176575486,-0.2557111770840582,0.7993127788653734,0.004774192910616648,-0.08543648645436042,-0.05350883446736887,0.4807043969631195,-0.0032596627715975046,0.004386968910694122,0.45834288001060486,-0.014686808921396732,0.01735713705420494,-0.06923781335353851,-0.11753960698843002,-0.020900189876556396,0.038719769567251205,-0.27027541399002075,0.024986648932099342,0.004005493130534887,-0.05664911866188049
63,0,0.4807043969631195,-0.0032596627715975046,0.004386968910694122,0.45834288001060486,-0.014686808921396732,0.016212711110711098,-0.0711451917886734,-0.10143303871154785,-0.021283680573105812,0.039101243019104004,-0.2447165697813034,0.024605173617601395,0.004386968910694122,-0.05703059583902359,0.06809338182210922,0.06198977679014206,0.47551700472831726,-0.0005406980635598302,0.012778752483427525,0.4561818540096283,-0.009782490320503712,0.009843016043305397,-0.07041241973638535,-0.07533615082502365,-0.025467803701758385,0.05609407648444176,-0.21582739055156708,0.04367542266845703,0.0025459222961217165,-0.07376131415367126,0.0,0.0,2.066699981689453,0.33086807214345815,0.21904056821439974,0.7613329092777037,-0.016321729692723608,-0.051272824990830745,-0.019930990950621563,0.4453990989195274,-0.25780251355033734,0.7965846419655189,0.014051874936013231,-0.06815675332056825,-0.051339343124833015,0.4807043969631195,-0.0032596627715975046,0.004386968910694122,0.45834288001060486,-0.014686808921396732,0.016212711110711098,-0.0711451917886734,-0.10143303871154785,-0.021283680573105812,0.039101243019104004,-0.2447165697813034,0.024605173617601395,0.004386968910694122,-0.05703059583902359
64,0,0.4807043969631195,-0.0032596627715975046,0.004386968910694122,0.45834288001060486,-0.014686808921396732,0.015449759550392628,-0.0711451917886734,-0.0918457955121994,-0.021283680573105812,0.0394827201962471,-0.2298390120267868,0.024986648932099342,0.004386968910694122,-0.057793546468019485,0.06809338182210922,0.06198977679014206,0.47597143054008484,-0.0006513450643979013,0.013172165490686893,0.4562494158744812,-0.007884603925049305,0.009821358136832714,-0.07320931553840637,-0.06119858846068382,-0.027825385332107544,0.05810046195983887,-0.19793148338794708,0.04275583475828171,0.0028376991394907236,-0.08078475296497345,0.0,0.0,2.0999999046325684,0.3307213836645334,0.21884798448446588,0.761565036132018,-0.014710242449190947,-0.053690986956784315,-0.020286248073237978,0.44939779654673107,-0.25958179585850194,0.7944843847672102,0.011477917356250256,-0.05755553263778035,-0.05388933590779166,0.4807043969631195,-0.0032596627715975046,0.004386968910694122,0.45834288001060486,-0.014686808921396732,0.015449759550392628,-0.0711451917886734,-0.0918457955121994,-0.021283680573105812,0.0394827201962471,-0.2298390120267868,0.024986648932099342,0.004386968910694122,-0.057793546468019485
65,0,0.4807043969631195,-0.0032596627715975046,0.004386968910694122,0.45834288001060486,-0.014686808921396732,0.01430533267557621,-0.0711451917886734,-0.08724391460418701,-0.021283680573105812,0.04139009863138199,-0.22449836134910583,0.03643091395497322,0.0032425422687083483,-0.06733043491840363,0.06809338182210922,0.06198977679014206,0.4760406017303467,-0.0003060898161493242,0.013538097962737083,0.4558664560317993,-0.007578661199659109,0.009108943864703178,-0.07445396482944489,-0.05212410166859627,-0.02913849428296089,0.0635373517870903,-0.18915341794490814,0.06195647642016411,-0.007480646017938852,-0.09573393315076828,0.0,0.0,2.1333000659942627,0.3306610046911194,0.21883774230256464,0.7616414764849728,-0.014256792915787297,-0.0544484602595432,-0.02007247939362866,0.4519935002851725,-0.26069831459214593,0.7928076987282411,0.027999304432100303,-0.0434076860644832,-0.04718915672970869,0.4807043969631195,-0.0032596627715975046,0.004386968910694122,0.45834288001060486,-0.014686808921396732,0.01430533267557621,-0.0711451917886734,-0.08724391460418701,-0.021283680573105812,0.04139009863138199,-0.22449836134910583,0.03643091395497322,0.0032425422687083483,-0.06733043491840363
66,0,0.4807043969631195,-0.0032596627715975046,0.004386968910694122,0.45834288001060486,-0.01430533267557621,0.01430533267557621,-0.071908138692379,-0.07343828678131104,-0.021283680573105812,0.048256658017635345,-0.20580606162548065,0.040245670825242996,0.0036240178160369396,-0.07686731964349747,0.06809338182210922,0.06198977679014206,0.47635337710380554,-0.0001590038591530174,0.013707275502383709,0.45622512698173523,-0.007350007072091103,0.008586020208895206,-0.07490452378988266,-0.042228106409311295,-0.03181878849864006,0.06570910662412643,-0.17875728011131287,0.06682077050209045,-0.010892215184867382,-0.10887712985277176,0.0,0.0,2.1666998863220215,0.3305891977569188,0.21886165230623553,0.7616864387798893,-0.013967369424015441,-0.05495398167386645,-0.019779692138100824,0.4548251124306144,-0.261901725223464,0.7911259699451508,0.03019059906212851,-0.030126585973799802,-0.04522587983498916,0.4807043969631195,-0.0032596627715975046,0.004386968910694122,0.45834288001060486,-0.01430533267557621,0.01430533267557621,-0.071908138692379,-0.07343828678131104,-0.021283680573105812,0.048256658017635345,-0.20580606162548065,0.040245670825242996,0.0036240178160369396,-0.07686731964349747
67,0,0.4807043969631195,-0.0032596627715975046,0.004386968910694122,0.45757991075515747,-0.013923857361078262,0.01430533267557621,-0.0715266615152359,-0.05771520733833313,-0.022050660103559494,0.056267641484737396,-0.19245441257953644,0.051689937710762024,-0.00019073777366429567,-0.09250781685113907,0.06809338182210922,0.06198977679014206,0.4767587184906006,-0.000615239841863513,0.013922596350312233,0.4564330279827118,-0.006792518775910139,0.007180743385106325,-0.07554890960454941,-0.03219538927078247,-0.03819642588496208,0.0661110058426857,-0.1658969670534134,0.06526283919811249,-0.014109921641647816,-0.11541970819234848,0.0,0.0,2.200000047683716,0.3304595119263554,0.21892020351452193,0.7617333196715901,-0.013892653714846492,-0.055386613706124965,-0.018362031064824258,0.45766388417092413,-0.2634842127377642,0.789703096393572,0.022523756688261454,-0.02111597157507772,-0.0425289014688488,0.4807043969631195,-0.0032596627715975046,0.004386968910694122,0.45757991075515747,-0.013923857361078262,0.01430533267557621,-0.0715266615152359,-0.05771520733833313,-0.022050660103559494,0.056267641484737396,-0.19245441257953644,0.051689937710762024,-0.00019073777366429567,-0.09250781685113907
68,0,0.4807043969631195,-0.0032596627715975046,0.004386968910694122,0.45757991075515747,-0.013923857361078262,0.013923857361078262,-0.0722896158695221,-0.04812796041369438,-0.023968107998371124,0.058175019919872284,-0.18711376190185547,0.06046387553215027,-0.001716639962978661,-0.1035706102848053,0.06809338182210922,0.06198977679014206,0.47700929641723633,-0.0007770768133923411,0.013984979130327702,0.4568118453025818,-0.006654056254774332,0.006366996094584465,-0.07561784237623215,-0.025196639820933342,-0.03824494406580925,0.07151447981595993,-0.1595756858587265,0.08084811270236969,-0.020931007340550423,-0.1287674456834793,0.0,0.0,2.233299970626831,0.33039406453453024,0.2189956912739295,0.7618161687072317,-0.013912696643770595,-0.05557466788757548,-0.01752790095434964,0.4595580548364846,-0.26473901260740595,0.7883838360722474,0.037284015911071666,-0.009200519238715898,-0.039125875498494445,0.4807043969631195,-0.0032596627715975046,0.004386968910694122,0.45757991075515747,-0.013923857361078262,0.013923857361078262,-0.0722896158695221,-0.04812796041369438,-0.023968107998371124,0.058175019919872284,-0.18711376190185547,0.06046387553215027,-0.001716639962978661,-0.1035706102848053
69,0,0.4807043969631195,-0.0032596627715975046,0.004386968910694122,0.45757991075515747,-0.010872052982449532,0.013542382046580315,-0.0722896158695221,-0.0389242097735405,-0.02818649634718895,0.06084534898400307,-0.17338064312934875,0.06313420087099075,-0.00476844422519207,-0.11120012402534485,0.06809338182210922,0.06198977679014206,0.4773094058036804,-0.0011293943971395493,0.014254695735871792,0.4569045305252075,-0.006389342248439789,0.004878632258623838,-0.07578278332948685,-0.01975170709192753,-0.040822844952344894,0.07678583264350891,-0.15621383488178253,0.09425318241119385,-0.02936498448252678,-0.1397559493780136,0.0,0.0,2.266700029373169,0.3302951446997542,0.21905822289158716,0.7617749554827669,-0.014059861580067778,-0.0555182599749906,-0.016112195941679452,0.46101794203411506,-0.266339322046434,0.7881434322565366,0.04701557897926234,-0.001378736231139932,-0.033867601635650946,0.4807043969631195,-0.0032596627715975046,0.004386968910694122,0.45757991075515747,-0.010872052982449532,0.013542382046580315,-0.0722896158695221,-0.0389242097735405,-0.02818649634718895,0.06084534898400307,-0.17338064312934875,0.06313420087099075,-0.00476844422519207,-0.11120012402534485
70,0,0.481087863445282,-0.0032596627715975046,0.004386968910694122,0.45757991075515747,-0.010490577667951584,0.013160906732082367,-0.0722896158695221,-0.034322332590818405,-0.03125441446900368,0.06275273114442825,-0.16422522068023682,0.07343403995037079,-0.01125352829694748,-0.12417028844356537,0.06809338182210922,0.06198977679014206,0.4774383306503296,-0.0012278867652639747,0.014770515263080597,0.4573611319065094,-0.0066294982098042965,0.003060949733480811,-0.07462358474731445,-0.01777433045208454,-0.04345912113785744,0.0814628079533577,-0.15588723123073578,0.10887455195188522,-0.039198778569698334,-0.14456366002559662,0.0,0.0,2.299999952316284,0.33027502618154425,0.21909849049193608,0.7617429992106935,-0.014588376168747086,-0.05466766565764969,-0.014687262693411807,0.46153316507242664,-0.2674198494440002,0.7885519871675615,0.05744096651427055,0.00037481445305509453,-0.026489405758275186,0.481087863445282,-0.0032596627715975046,0.004386968910694122,0.45757991075515747,-0.010490577667951584,0.013160906732082367,-0.0722896158695221,-0.034322332590818405,-0.03125441446900368,0.06275273114442825,-0.16422522068023682,0.07343403995037079,-0.01125352829694748,-0.12417028844356537
71,0,0.4807043969631195,-0.0032596627715975046,0.004386968910694122,0.45757991075515747,-0.010490577667951584,0.008964675478637218,-0.0722896158695221,-0.029720455408096313,-0.032404884696006775,0.06656748056411743,-0.16002899408340454,0.08487831056118011,-0.016212711110711098,-0.1367589831352234,0.06809338182210922,0.06160829961299896,0.4775766134262085,-0.001237209653481841,0.015152700245380402,0.4576927423477173,-0.0077202776446938515,0.0010329417418688536,-0.07378417253494263,-0.01803036779165268,-0.04393788054585457,0.08436504006385803,-0.1587354987859726,0.11465228348970413,-0.04217785224318504,-0.1472608745098114,0.0,0.037802089005708694,2.3333001136779785,0.3302477057487111,0.21924842286446805,0.76169708359643,-0.015825293046711764,-0.05399584422187109,-0.012916526603649281,0.46140878583010214,-0.26824577263110816,0.7893606819103461,0.06202611731330876,-0.00011870710745176538,-0.02532471277371906,0.4807043969631195,-0.0032596627715975046,0.004386968910694122,0.45757991075515747,-0.010490577667951584,0.008964675478637218,-0.0722896158695221,-0.029720455408096313,-0.032404884696006775,0.06656748056411743,-0.16002899408340454,0.08487831056118011,-0.016212711110711098,-0.1367589831352234
72,0,0.481087863445282,-0.0032596627715975046,0.004386968910694122,0.45757991075515747,-0.010490577667951584,0.007057297509163618,-0.0722896158695221,-0.024735087528824806,-0.033555351197719574,0.07572289556264877,-0.15964750945568085,0.10090028494596481,-0.02727550081908703,-0.14057374000549316,0.06809338182210922,0.06198977679014206,0.4776410758495331,-0.0007644436554983258,0.016192445531487465,0.45812612771987915,-0.009442148730158806,-0.0030581620521843433,-0.07115563750267029,-0.0194755457341671,-0.04469183459877968,0.08891069144010544,-0.1635853797197342,0.1250195950269699,-0.04764040932059288,-0.14672613143920898,0.0,0.7305493950843811,2.3666999340057373,0.3302463657100939,0.21947978695463657,0.7615157027488183,-0.017526131949516355,-0.051647419932866256,-0.009882993494544134,0.46089478002500406,-0.2694189962648985,0.7910798823052192,0.07028554126434416,-0.005176999956244099,-0.022788244842055327,0.481087863445282,-0.0032596627715975046,0.004386968910694122,0.45757991075515747,-0.010490577667951584,0.007057297509163618,-0.0722896158695221,-0.024735087528824806,-0.033555351197719574,0.07572289556264877,-0.15964750945568085,0.10090028494596481,-0.02727550081908703,-0.14057374000549316
73,0,0.4807043969631195,-0.0032596627715975046,0.004386968910694122,0.45757991075515747,-0.010490577667951584,0.00667582219466567,-0.0722896158695221,-0.02243414893746376,-0.03700675815343857,0.07877469807863235,-0.15964750945568085,0.10776684433221817,-0.030708782374858856,-0.14362554252147675,0.06809338182210922,0.06237125024199486,0.47774970531463623,-0.0010287422919645905,0.017002621665596962,0.4592541456222534,-0.010607552714645863,-0.0063445414416491985,-0.06805259734392166,-0.023623542860150337,-0.050646357238292694,0.08971413969993591,-0.1677374690771103,0.13408048450946808,-0.06085987389087677,-0.13607168197631836,0.0,1.6553846597671509,2.4000000953674316,0.33026781184200227,0.21959788673855715,0.7614665806409104,-0.01924270014888263,-0.04950323280905078,-0.007134395206066735,0.4598160715664039,-0.26926755589048784,0.7930656409663823,0.07089100175043983,-0.01743349640990699,-0.009643980248855044,0.4807043969631195,-0.0032596627715975046,0.004386968910694122,0.45757991075515747,-0.010490577667951584,0.00667582219466567,-0.0722896158695221,-0.02243414893746376,-0.03700675815343857,0.07877469807863235,-0.15964750945568085,0.10776684433221817,-0.030708782374858856,-0.14362554252147675
74,0,0.4807043969631195,-0.0032596627715975046,0.00476844422519207,0.45757991075515747,-0.010872052982449532,0.005531395319849253,-0.071908138692379,-0.022050660103559494,-0.040074676275253296,0.08068207651376724,-0.15964750945568085,0.1188296303153038,-0.03452353551983833,-0.14362554252147675,0.06809338182210922,0.14782176911830902,0.4777039885520935,-0.0012837090762332082,0.017078766599297523,0.4594910442829132,-0.010713447816669941,-0.0069966972805559635,-0.06734374910593033,-0.02296745590865612,-0.05281207337975502,0.08971896767616272,-0.16775870323181152,0.13389542698860168,-0.06229747086763382,-0.13859038054943085,0.0,1.7964835166931152,2.433300018310547,0.3302925190518594,0.2196315695104037,0.7614706072999741,-0.01959928989722881,-0.04906521596406055,-0.006425019887517092,0.46001336710000296,-0.26960994445156167,0.793148817699731,0.0683238653089564,-0.015702937938016248,-0.007989869730430588,0.4807043969631195,-0.0032596627715975046,0.00476844422519207,0.45757991075515747,-0.010872052982449532,0.005531395319849253,-0.071908138692379,-0.022050660103559494,-0.040074676275253296,0.08068207651376724,-0.15964750945568085,0.1188296303153038,-0.03452353551983833,-0.14362554252147675
75,0,0.481087863445282,-0.0032596627715975046,0.00476844422519207,0.45757991075515747,-0.01125352829694748,-0.0009536888683214784,-0.0715266615152359,-0.022050660103559494,-0.04045816883444786,0.08411535620689392,-0.15964750945568085,0.12722209095954895,-0.04558632895350456,-0.14095520973205566,0.06809338182210922,0.3934920132160187,0.4777367413043976,-0.0005577766569331288,0.017968010157346725,0.46026110649108887,-0.012093228287994862,-0.009041140787303448,-0.06592556834220886,-0.023551099002361298,-0.05206751823425293,0.09010158479213715,-0.17375189065933228,0.13207504153251648,-0.059283871203660965,-0.14586712419986725,0.0,1.7999999523162842,2.4667000770568848,0.3303124721160152,0.21965504793157753,0.7615634687636015,-0.020713528585505347,-0.048330070870407305,-0.005447829934072335,0.4598358460120868,-0.26986123810766977,0.7942320210785512,0.06724782130577855,-0.013507225854490823,-0.01080093412769001,0.481087863445282,-0.0032596627715975046,0.00476844422519207,0.45757991075515747,-0.01125352829694748,-0.0009536888683214784,-0.0715266615152359,-0.022050660103559494,-0.04045816883444786,0.08411535620689392,-0.15964750945568085,0.12722209095954895,-0.04558632895350456,-0.14095520973205566
76,0,0.4807043969631195,-0.0032596627715975046,0.005531395319849253,0.45757991075515747,-0.01125352829694748,-0.0009536888683214784,-0.0715266615152359,-0.022050660103559494,-0.043909575790166855,0.08411535620689392,-0.15964750945568085,0.12951095402240753,-0.048256658017635345,-0.13981078565120697,0.06809338182210922,0.6628137826919556,0.47766900062561035,-0.00039081223076209426,0.018216777592897415,0.4604921042919159,-0.012274841777980328,-0.009389027021825314,-0.06512143462896347,-0.02378365769982338,-0.051806677132844925,0.0909101814031601,-0.17596586048603058,0.13364242017269135,-0.05966728925704956,-0.14776866137981415,0.0,1.7999999523162842,2.5,0.33034455163825027,0.21962041865321044,0.761560778880272,-0.020856536887750465,-0.04781620125030139,-0.005402469025457712,0.4597503603391846,-0.27000442573763367,0.7947879702551234,0.06879558680919029,-0.01375500281546449,-0.010766380406703746,0.4807043969631195,-0.0032596627715975046,0.005531395319849253,0.45757991075515747,-0.01125352829694748,-0.0009536888683214784,-0.0715266615152359,-0.022050660103559494,-0.043909575790166855,0.08411535620689392,-0.15964750945568085,0.12951095402240753,-0.048256658017635345,-0.13981078565120697
77,0,0.4807043969631195,-0.0032596627715975046,0.005531395319849253,0.45757991075515747,-0.01125352829694748,-0.0013351644156500697,-0.0711451917886734,-0.022050660103559494,-0.04659400135278702,0.08411535620689392,-0.15964750945568085,0.12951095402240753,-0.048638131469488144,-0.14362554252147675,0.06809338182210922,0.890554666519165,0.4774664342403412,-0.00024173948622774333,0.018528934568166733,0.46058955788612366,-0.012855562381446362,-0.00897910725325346,-0.06450875103473663,-0.02495434693992138,-0.053885526955127716,0.09046881645917892,-0.1820111721754074,0.1341683566570282,-0.061752352863550186,-0.15271839499473572,0.0,1.7999999523162842,2.5332999229431152,0.33041583356268306,0.21944672728623787,0.7615782792673502,-0.021455172912293374,-0.047505870075020606,-0.006131716096939854,0.45946060684807066,-0.2698374787177446,0.7961900615132232,0.0664052359985079,-0.013833904627115423,-0.0074408472149825045,0.4807043969631195,-0.0032596627715975046,0.005531395319849253,0.45757991075515747,-0.01125352829694748,-0.0013351644156500697,-0.0711451917886734,-0.022050660103559494,-0.04659400135278702,0.08411535620689392,-0.15964750945568085,0.12951095402240753,-0.048638131469488144,-0.14362554252147675
78,0,0.4807043969631195,-0.0032596627715975046,0.005531395319849253,0.45757991075515747,-0.01125352829694748,-0.001716639962978661,-0.0711451917886734,-0.02243414893746376,-0.04659400135278702,0.08411535620689392,-0.16002899408340454,0.12951095402240753,-0.048638131469488144,-0.14362554252147675,0.06809338182210922,1.0679408311843872,0.47704726457595825,-0.00015093651018105447,0.018749862909317017,0.4602734446525574,-0.013412845320999622,-0.008019214496016502,-0.06342010945081711,-0.02633136883378029,-0.05494428798556328,0.08942770212888718,-0.1891416311264038,0.1305517852306366,-0.059590067714452744,-0.15647684037685394,0.0,1.7999999523162842,2.566699981689453,0.3305441399775196,0.21921965959007872,0.7614247720611453,-0.02204308739109706,-0.04653568509123396,-0.0073186206711479684,0.45909203449708774,-0.2698279682439463,0.797983914213498,0.06158939162648247,-0.01536166634660363,-0.008381129932960807,0.4807043969631195,-0.0032596627715975046,0.005531395319849253,0.45757991075515747,-0.01125352829694748,-0.001716639962978661,-0.0711451917886734,-0.02243414893746376,-0.04659400135278702,0.08411535620689392,-0.16002899408340454,0.12951095402240753,-0.048638131469488144,-0.14362554252147675
79,0,0.4807043969631195,-0.0032596627715975046,0.005531395319849253,0.45757991075515747,-0.011635004542768002,-0.001716639962978661,-0.0707637146115303,-0.02243414893746376,-0.04697749391198158,0.08411535620689392,-0.16002899408340454,0.12989242374897003,-0.04901960864663124,-0.14782176911830902,0.06809338182210922,1.2090867757797241,0.4767117500305176,-0.0004756143316626549,0.018829911947250366,0.46064433455467224,-0.01389596238732338,-0.0077935680747032166,-0.0614936389029026,-0.027601072564721107,-0.05834326520562172,0.0874505415558815,-0.19411742687225342,0.12751241028308868,-0.061630651354789734,-0.15701022744178772,0.0,1.7999999523162842,2.5999999046325684,0.3306747477204013,0.21911096335921115,0.7613987817937766,-0.02285483224966267,-0.04531860828412837,-0.00746098738152412,0.4588056651490048,-0.26943541829081274,0.7995633487692888,0.05449367586280429,-0.018325414942754303,-0.0043794217827803905,0.4807043969631195,-0.0032596627715975046,0.005531395319849253,0.45757991075515747,-0.011635004542768002,-0.001716639962978661,-0.0707637146115303,-0.02243414893746376,-0.04697749391198158,0.08411535620689392,-0.16002899408340454,0.12989242374897003,-0.04901960864663124,-0.14782176911830902
80,0,0.4807043969631195,-0.0032596627715975046,0.005531395319849253,0.45757991075515747,-0.011635004542768002,-0.001716639962978661,-0.0707637146115303,-0.022817639634013176,-0.04697749391198158,0.08411535620689392,-0.16193637251853943,0.12951095402240753,-0.04901960864663124,-0.15468832850456238,0.06809338182210922,1.346036434173584,0.4766433537006378,-0.00027234284789301455,0.019018415361642838,0.46077656745910645,-0.014268143102526665,-0.007542942184954882,-0.061166875064373016,-0.027558689936995506,-0.05824747681617737,0.08777719736099243,-0.19546060264110565,0.12817895412445068,-0.06193830817937851,-0.1588544100522995,0.0,1.7999999523162842,2.6333000659942627,0.33070380645296865,0.21901968805618946,0.7614284189541384,-0.023137470026548534,-0.045194362600220916,-0.007959898953469047,0.458806733832014,-0.26945019126156566,0.7998804382383455,0.055070442961861144,-0.017944763965319854,-0.004119805105586849,0.4807043969631195,-0.0032596627715975046,0.005531395319849253,0.45757991075515747,-0.011635004542768002,-0.001716639962978661,-0.0707637146115303,-0.022817639634013176,-0.04697749391198158,0.08411535620689392,-0.16193637251853943,0.12951095402240753,-0.04901960864663124,-0.15468832850456238
81,0,0.4807043969631195,-0.0032596627715975046,0.005531395319849253,0.45757991075515747,-0.011635004542768002,-0.001716639962978661,-0.06961929053068161,-0.023201128467917442,-0.047744471579790115,0.08411535620689392,-0.16384375095367432,0.12912946939468384,-0.04901960864663124,-0.15545128285884857,0.06809338182210922,1.3776988983154297,0.47636276483535767,0.00011714101128745824,0.01915983483195305,0.4608365595340729,-0.014589941129088402,-0.006704607512801886,-0.06027872860431671,-0.027951518073678017,-0.05758808180689812,0.08802349865436554,-0.19884155690670013,0.12872706353664398,-0.06126096472144127,-0.1601371318101883,0.0,1.7999999523162842,2.6666998863220215,0.3308026581247518,0.21888055216171992,0.7614186868385092,-0.023188480997564653,-0.04466120170728782,-0.009114916145126717,0.4586713244241578,-0.26938320614871664,0.8008917790098926,0.05610204915854489,-0.01964716768119512,-0.004699507004787051,0.4807043969631195,-0.0032596627715975046,0.005531395319849253,0.45757991075515747,-0.011635004542768002,-0.001716639962978661,-0.06961929053068161,-0.023201128467917442,-0.047744471579790115,0.08411535620689392,-0.16384375095367432,0.12912946939468384,-0.04901960864663124,-0.15545128285884857
