gaodalingithub/END2JOINT/ik_net/save_real/0623_moredate_fk_5/ik_validation_log.csv
frame,is_init,real_joint_state_left_shoulder_pitch_joint1,real_joint_state_left_shoulder_roll_joint2,real_joint_state_left_shoulder_yaw_joint3,real_joint_state_left_elbow_pitch_joint4,real_joint_state_left_elbow_roll_joint5,real_joint_state_left_wrist_yaw_joint6,real_joint_state_left_wrist_pitch_joint7,real_joint_state_right_shoulder_pitch_joint1,real_joint_state_right_shoulder_roll_joint2,real_joint_state_right_shoulder_yaw_joint3,real_joint_state_right_elbow_pitch_joint4,real_joint_state_right_elbow_roll_joint5,real_joint_state_right_wrist_yaw_joint6,real_joint_state_right_wrist_pitch_joint7,real_joint_state_left_gripper_joint,real_joint_state_right_gripper_joint,pred_action_left_shoulder_pitch_joint1,pred_action_left_shoulder_roll_joint2,pred_action_left_shoulder_yaw_joint3,pred_action_left_elbow_pitch_joint4,pred_action_left_elbow_roll_joint5,pred_action_left_wrist_yaw_joint6,pred_action_left_wrist_pitch_joint7,pred_action_right_shoulder_pitch_joint1,pred_action_right_shoulder_roll_joint2,pred_action_right_shoulder_yaw_joint3,pred_action_right_elbow_pitch_joint4,pred_action_right_elbow_roll_joint5,pred_action_right_wrist_yaw_joint6,pred_action_right_wrist_pitch_joint7,pred_action_left_gripper_joint,pred_action_right_gripper_joint,timestamp,input_ee_eeL_x,input_ee_eeL_y,input_ee_eeL_z,input_ee_eeL_roll,input_ee_eeL_pitch,input_ee_eeL_yaw,input_ee_eeR_x,input_ee_eeR_y,input_ee_eeR_z,input_ee_eeR_roll,input_ee_eeR_pitch,input_ee_eeR_yaw,input_prev_joint_state_L_sh_pitch,input_prev_joint_state_L_sh_roll,input_prev_joint_state_L_sh_yaw,input_prev_joint_state_L_el_pitch,input_prev_joint_state_L_el_roll,input_prev_joint_state_L_wr_yaw,input_prev_joint_state_L_wr_pitch,input_prev_joint_state_R_sh_pitch,input_prev_joint_state_R_sh_roll,input_prev_joint_state_R_sh_yaw,input_prev_joint_state_R_el_pitch,input_prev_joint_state_R_el_roll,input_prev_joint_state_R_wr_yaw,input_prev_joint_state_R_wr_pitch
0,1,0.501796305179596,0.0009587243548594415,-0.007438773289322853,0.47589075565338135,-0.00667582219466567,0.006294346414506435,-0.007057297509163618,-0.4998788833618164,-0.008628519251942635,0.009727626107633114,-0.507553219795227,0.00476844422519207,-0.007057297509163618,0.002861066721379757,0.06847485899925232,0.06275273114442825,0.47801995277404785,0.004793621599674225,0.009346150793135166,0.46330204606056213,-0.021171892061829567,0.01506828423589468,-0.07572289556264877,-0.4818548560142517,-0.011312947608530521,0.013160906732082367,-0.49000534415245056,0.02231631986796856,-0.010872052982449532,-0.007438773289322853,0.0,0.0,,,,,,,,,,,,,,,,,,,,,,,,,,,
1,0,0.501796305179596,0.0009587243548594415,-0.007438773289322853,0.47589075565338135,-0.007057297509163618,0.006294346414506435,-0.007057297509163618,-0.4998788833618164,-0.008628519251942635,0.009727626107633114,-0.507553219795227,0.00476844422519207,-0.007057297509163618,0.0024795911740511656,0.06885633617639542,0.06275273114442825,0.47933003306388855,0.00024355057394132018,0.011071735061705112,0.45573368668556213,-0.017016902565956116,0.014380879700183868,-0.07260787487030029,-0.4826795160770416,-0.016986506059765816,0.01533746812492609,-0.4858008027076721,0.028430430218577385,-0.009630939923226833,-0.011596258729696274,0.0,0.0,0.0,0.3296839783284264,0.21927637199572056,0.760148681816507,-0.022265430815224363,-0.049355232583983444,-0.022818094361451102,0.330191207700067,-0.23315866847036182,0.7593856539664704,0.006234445563278239,0.008222119939317646,0.004073582912385963,0.501796305179596,0.0009587243548594415,-0.007438773289322853,0.47589075565338135,-0.007057297509163618,0.006294346414506435,-0.007057297509163618,-0.4998788833618164,-0.008628519251942635,0.009727626107633114,-0.507553219795227,0.00476844422519207,-0.007057297509163618,0.0024795911740511656
2,0,0.48377230763435364,0.0009587243548594415,-0.00019073777366429567,0.4663538634777069,-0.01926451548933983,0.00858320016413927,-0.0722896158695221,-0.4795539081096649,-0.008628519251942635,0.010872052982449532,-0.49076828360557556,0.01773861236870289,-0.0078202486038208,-0.00667582219466567,0.06809338182210922,0.06198977679014206,0.4726099371910095,0.0006821844726800919,0.007265694439411163,0.46795475482940674,-0.00433504581451416,0.007818300276994705,-0.06337910890579224,-0.45857009291648865,-0.015131399035453796,0.017813924700021744,-0.47638505697250366,0.03281223773956299,-0.00780833512544632,-0.02230304479598999,0.0,0.0,0.0333000011742115,0.3297167619153547,0.21922337206930598,0.7600966229585842,-0.022244169327483743,-0.048797779588812595,-0.022700870437588172,0.3301742825954559,-0.2330989094783746,0.7594332914349736,0.0065855336993279395,0.008393390920635528,0.003858192145961712,0.48377230763435364,0.0009587243548594415,-0.00019073777366429567,0.4663538634777069,-0.01926451548933983,0.00858320016413927,-0.0722896158695221,-0.4795539081096649,-0.008628519251942635,0.010872052982449532,-0.49076828360557556,0.01773861236870289,-0.0078202486038208,-0.00667582219466567
3,0,0.47265109419822693,0.0013422140618786216,0.0036240178160369396,0.4659723937511444,-0.018501564860343933,0.009727626107633114,-0.071908138692379,-0.47456854581832886,-0.009012009017169476,0.010872052982449532,-0.49076828360557556,0.021171892061829567,-0.0078202486038208,-0.00858320016413927,0.06809338182210922,0.06198977679014206,0.47270023822784424,0.0008916938677430153,0.008661888539791107,0.46717604994773865,-0.0024392306804656982,0.007379775866866112,-0.06469294428825378,-0.4587654173374176,-0.014968596398830414,0.0174119733273983,-0.4757429361343384,0.03221005201339722,-0.007605835795402527,-0.021100491285324097,0.0,0.0,0.06669999659061432,0.32972861387635244,0.21921097536061224,0.760142072639706,-0.021561615979824644,-0.049066408025022934,-0.02343123641551026,0.33001374622614194,-0.23286490574400837,0.7596496928399527,0.005791445871701324,0.007085301034317459,0.003571592448628161,0.47265109419822693,0.0013422140618786216,0.0036240178160369396,0.4659723937511444,-0.018501564860343933,0.009727626107633114,-0.071908138692379,-0.47456854581832886,-0.009012009017169476,0.010872052982449532,-0.49076828360557556,0.021171892061829567,-0.0078202486038208,-0.00858320016413927
4,0,0.47226759791374207,0.0013422140618786216,0.004386968910694122,0.4655908942222595,-0.010490577667951584,0.008201723918318748,-0.06885633617639542,-0.46689876914024353,-0.009012009017169476,0.010872052982449532,-0.4850461483001709,0.024986648932099342,-0.0078202486038208,-0.01773861236870289,0.06809338182210922,0.06198977679014206,0.4735753536224365,0.0021121837198734283,0.00834684818983078,0.4691418707370758,-0.0013799965381622314,0.006509080529212952,-0.06388363242149353,-0.458450049161911,-0.013664145022630692,0.016505733132362366,-0.4770383834838867,0.029578566551208496,-0.005909137427806854,-0.02062365412712097,0.0,0.0,0.10000000149011612,0.32989725644355306,0.21925230241682392,0.760118602492138,-0.0210628140834066,-0.048890822456340466,-0.023929326653512106,0.33001920385776085,-0.2327849787235774,0.7595451885381943,0.005867541564114636,0.007035954478827801,0.0031553435861557816,0.47226759791374207,0.0013422140618786216,0.004386968910694122,0.4655908942222595,-0.010490577667951584,0.008201723918318748,-0.06885633617639542,-0.46689876914024353,-0.009012009017169476,0.010872052982449532,-0.4850461483001709,0.024986648932099342,-0.0078202486038208,-0.01773861236870289
5,0,0.47226759791374207,0.0009587243548594415,0.004386968910694122,0.465209424495697,-0.007438773289322853,0.0078202486038208,-0.06809338182210922,-0.45654454827308655,-0.009395498782396317,0.012779430486261845,-0.47741663455963135,0.02536812424659729,-0.007438773289322853,-0.02079041674733162,0.06809338182210922,0.06198977679014206,0.47440463304519653,0.002331571653485298,0.008053094148635864,0.4692577123641968,-0.0002880394458770752,0.005962269380688667,-0.06523716449737549,-0.4579637348651886,-0.013331308960914612,0.01624370738863945,-0.47715386748313904,0.02803930640220642,-0.0052092671394348145,-0.020333081483840942,0.0,0.0,0.13330000638961792,0.3299249876847504,0.21923525656257842,0.7601135294956843,-0.020763120820846748,-0.04881521237260111,-0.024453752534151718,0.3300020964059501,-0.23274910568189897,0.7595444019315555,0.0060291755617475325,0.006982630008856317,0.0030340816467319433,0.47226759791374207,0.0009587243548594415,0.004386968910694122,0.465209424495697,-0.007438773289322853,0.0078202486038208,-0.06809338182210922,-0.45654454827308655,-0.009395498782396317,0.012779430486261845,-0.47741663455963135,0.02536812424659729,-0.007438773289322853,-0.02079041674733162
6,0,0.47226759791374207,0.0009587243548594415,0.004386968910694122,0.465209424495697,-0.007057297509163618,0.007438773289322853,-0.06771191209554672,-0.45424360036849976,-0.009395498782396317,0.014686808921396732,-0.47741663455963135,0.024986648932099342,-0.007438773289322853,-0.02040894143283367,0.06809338182210922,0.06198977679014206,0.47846201062202454,0.0009245658875443041,0.01030553225427866,0.4550398886203766,-0.016605036333203316,0.016647912561893463,-0.0719781368970871,-0.4835858941078186,-0.015216490253806114,0.013977515511214733,-0.4863324463367462,0.02577640488743782,-0.008271816186606884,-0.010398336686193943,0.0,0.0,0.16670000553131104,0.3299271352036831,0.2193496746636932,0.7601070365915736,-0.02093740958123691,-0.04890954127529801,-0.02481110978524903,0.329909487407437,-0.23256202062846204,0.7594504353506998,0.0057823143946438265,0.007447228790918051,0.0030883375685499138,0.47226759791374207,0.0009587243548594415,0.004386968910694122,0.465209424495697,-0.007057297509163618,0.007438773289322853,-0.06771191209554672,-0.45424360036849976,-0.009395498782396317,0.014686808921396732,-0.47741663455963135,0.024986648932099342,-0.007438773289322853,-0.02040894143283367
7,0,0.47226759791374207,0.0013422140618786216,0.004386968910694122,0.465209424495697,-0.007057297509163618,0.007438773289322853,-0.06809338182210922,-0.4538601040840149,-0.009395498782396317,0.014686808921396732,-0.47741663455963135,0.024605173617601395,-0.007438773289322853,-0.02040894143283367,0.06809338182210922,0.06198977679014206,0.47452986240386963,0.002204807475209236,0.007782936096191406,0.46882402896881104,-0.000843048095703125,0.00641581229865551,-0.06558826565742493,-0.4579193890094757,-0.01327279582619667,0.016304686665534973,-0.47700655460357666,0.028254270553588867,-0.005137361586093903,-0.02068355679512024,0.0,0.0,0.20000000298023224,0.3298756717238568,0.21955941709652307,0.7600368607462162,-0.02106086385661987,-0.048680609250950635,-0.024574734526336073,0.3297887268645926,-0.2324801875611183,0.7593073610556744,0.006563970001435231,0.008048128473867879,0.002599493822265205,0.47226759791374207,0.0013422140618786216,0.004386968910694122,0.465209424495697,-0.007057297509163618,0.007438773289322853,-0.06809338182210922,-0.4538601040840149,-0.009395498782396317,0.014686808921396732,-0.47741663455963135,0.024605173617601395,-0.007438773289322853,-0.02040894143283367
8,0,0.47226759791374207,0.0009587243548594415,0.004386968910694122,0.46292057633399963,-0.01430533267557621,0.010109102353453636,-0.0715266615152359,-0.4626803696155548,-0.009395498782396317,0.014686808921396732,-0.47779813408851624,0.024605173617601395,-0.007438773289322853,-0.012779430486261845,0.06809338182210922,0.06198977679014206,0.4740598797798157,0.0019675157964229584,0.00820847600698471,0.4680672883987427,-0.0015853345394134521,0.0073691196739673615,-0.06562629342079163,-0.4588787257671356,-0.013805460184812546,0.016916364431381226,-0.47611576318740845,0.02984476089477539,-0.005861230194568634,-0.01877009868621826,0.0,0.0,0.23330000042915344,0.32986677070991516,0.21974831236986175,0.7599066095353406,-0.021669281006069685,-0.047599062942228265,-0.024244561554489064,0.3296817512388355,-0.2323549751823657,0.7593179194602503,0.0062020905192517435,0.007687044544699871,0.00279487421713268,0.47226759791374207,0.0009587243548594415,0.004386968910694122,0.46292057633399963,-0.01430533267557621,0.010109102353453636,-0.0715266615152359,-0.4626803696155548,-0.009395498782396317,0.014686808921396732,-0.47779813408851624,0.024605173617601395,-0.007438773289322853,-0.012779430486261845
9,0,0.4749520421028137,0.0013422140618786216,0.004386968910694122,0.46215763688087463,-0.007057297509163618,0.007438773289322853,-0.06847485899925232,-0.4684327244758606,-0.01054596807807684,0.014686808921396732,-0.4736018776893616,0.024605173617601395,-0.007438773289322853,-0.02231631986796856,0.06809338182210922,0.06198977679014206,0.4749242663383484,0.003431970253586769,0.007565498352050781,0.4710199534893036,-0.0012491941452026367,0.006522845476865768,-0.06317764520645142,-0.45910635590553284,-0.012182369828224182,0.016065772622823715,-0.4781191349029541,0.02717652916908264,-0.0038392022252082825,-0.01765573024749756,0.0,0.0,0.26669999957084656,0.32986835837132644,0.21988950034512647,0.7598944081402804,-0.02241979279918649,-0.046574854011816935,-0.023766387136443523,0.32952288913985506,-0.23229337314407195,0.7592326125975636,0.005559243507367199,0.006993936939840353,0.0025047228561245133,0.4749520421028137,0.0013422140618786216,0.004386968910694122,0.46215763688087463,-0.007057297509163618,0.007438773289322853,-0.06847485899925232,-0.4684327244758606,-0.01054596807807684,0.014686808921396732,-0.4736018776893616,0.024605173617601395,-0.007438773289322853,-0.02231631986796856
10,0,0.47341808676719666,0.0013422140618786216,0.004386968910694122,0.46215763688087463,-0.007057297509163618,0.007438773289322853,-0.06885633617639542,-0.46114641427993774,-0.01092945784330368,0.01506828423589468,-0.4736018776893616,0.024605173617601395,-0.007438773289322853,-0.023079270496964455,0.06809338182210922,0.06198977679014206,0.4753149747848511,0.0029504112899303436,0.007437169551849365,0.4699722230434418,-0.0013122856616973877,0.0066435933113098145,-0.06448501348495483,-0.45862123370170593,-0.012339767068624496,0.01585228741168976,-0.47734135389328003,0.026975393295288086,-0.0038839951157569885,-0.018104910850524902,0.0,0.0,0.30000001192092896,0.3297515523369556,0.2200124757542653,0.7598863035376294,-0.022725981021881392,-0.047055228183412456,-0.02384663464221015,0.3294048710650813,-0.23223714768438114,0.7591463351993241,0.005601026366092665,0.007187803906147744,0.001791593297563667,0.47341808676719666,0.0013422140618786216,0.004386968910694122,0.46215763688087463,-0.007057297509163618,0.007438773289322853,-0.06885633617639542,-0.46114641427993774,-0.01092945784330368,0.01506828423589468,-0.4736018776893616,0.024605173617601395,-0.007438773289322853,-0.023079270496964455
11,0,0.4738015830516815,0.0013422140618786216,0.004386968910694122,0.46215763688087463,-0.007057297509163618,0.007438773289322853,-0.06771191209554672,-0.45347660779953003,-0.011312947608530521,0.016594186425209045,-0.4736018776893616,0.024605173617601395,-0.007438773289322853,-0.022697795182466507,0.06809338182210922,0.06198977679014206,0.4791790544986725,0.00152506772428751,0.008481282740831375,0.45577165484428406,-0.01983051747083664,0.017353348433971405,-0.06888065487146378,-0.48531442880630493,-0.01368831004947424,0.012694142758846283,-0.4860260784626007,0.02342328242957592,-0.006271521560847759,-0.008164828643202782,0.0,0.0,0.33329999446868896,0.3297649892239514,0.22012794699298763,0.7597090675214359,-0.02280999741434675,-0.045861522017257794,-0.0240751938323851,0.32934246176434456,-0.23213139329673027,0.7590455465638026,0.005389101225743132,0.007290852897929504,0.0014862345226427257,0.4738015830516815,0.0013422140618786216,0.004386968910694122,0.46215763688087463,-0.007057297509163618,0.007438773289322853,-0.06771191209554672,-0.45347660779953003,-0.011312947608530521,0.016594186425209045,-0.4736018776893616,0.024605173617601395,-0.007438773289322853,-0.022697795182466507
12,0,0.4738015830516815,0.0013422140618786216,0.004386968910694122,0.46215763688087463,-0.007057297509163618,0.007438773289322853,-0.06809338182210922,-0.45309311151504517,-0.011312947608530521,0.016594186425209045,-0.47398337721824646,0.024605173617601395,-0.007438773289322853,-0.023079270496964455,0.06809338182210922,0.06198977679014206,0.4759356379508972,0.0032884906977415085,0.006703473627567291,0.47071924805641174,-0.0026336312294006348,0.007163919508457184,-0.06362125277519226,-0.457992821931839,-0.011824529618024826,0.015276577323675156,-0.4771023392677307,0.025994032621383667,-0.0030325576663017273,-0.018237650394439697,0.0,0.0,0.3666999936103821,0.32975523544786645,0.22024550496473677,0.759614328285792,-0.02300052093775795,-0.045291900072170765,-0.024205409395504862,0.32928263953181736,-0.23202389374481067,0.7589417368212804,0.005642714412298137,0.007458412646414793,0.0008977796253451397,0.4738015830516815,0.0013422140618786216,0.004386968910694122,0.46215763688087463,-0.007057297509163618,0.007438773289322853,-0.06809338182210922,-0.45309311151504517,-0.011312947608530521,0.016594186425209045,-0.47398337721824646,0.024605173617601395,-0.007438773289322853,-0.023079270496964455
13,0,0.4738015830516815,0.0013422140618786216,0.004386968910694122,0.46177613735198975,-0.015449759550392628,0.010490577667951584,-0.06923781335353851,-0.46114641427993774,-0.01092945784330368,0.016594186425209045,-0.47436484694480896,0.02384222112596035,-0.007438773289322853,-0.01583123579621315,0.06809338182210922,0.06198977679014206,0.4752500653266907,0.003242209553718567,0.007685944437980652,0.4693385660648346,-0.002680569887161255,0.008344871923327446,-0.06453633308410645,-0.45902058482170105,-0.012209419161081314,0.01602044329047203,-0.47610220313072205,0.027936339378356934,-0.003753170371055603,-0.016529381275177002,0.0,0.0,0.4000000059604645,0.3296142323583162,0.22023110925444767,0.759575726299929,-0.021729483205298994,-0.04527607766628883,-0.025373076614259915,0.32916069762983136,-0.23191022634311065,0.7589097371262542,0.006384678389848922,0.006920667064251647,0.0007821999039271269,0.4738015830516815,0.0013422140618786216,0.004386968910694122,0.46177613735198975,-0.015449759550392628,0.010490577667951584,-0.06923781335353851,-0.46114641427993774,-0.01092945784330368,0.016594186425209045,-0.47436484694480896,0.02384222112596035,-0.007438773289322853,-0.01583123579621315
14,0,0.4738015830516815,0.0013422140618786216,0.004386968910694122,0.46177613735198975,-0.009346150793135166,0.007438773289322853,-0.06771191209554672,-0.470733642578125,-0.01054596807807684,0.016594186425209045,-0.4728389382362366,0.024223696440458298,-0.007057297509163618,-0.02079041674733162,0.06809338182210922,0.06198977679014206,0.4757106900215149,0.0049564652144908905,0.007030904293060303,0.47227007150650024,-0.0028858184814453125,0.008273793384432793,-0.06215184926986694,-0.4599546492099762,-0.010806262493133545,0.015534013509750366,-0.4782494604587555,0.026278764009475708,-0.0021473392844200134,-0.015248417854309082,0.0,0.0,0.4332999885082245,0.32950227903464546,0.22023617263335768,0.7596334979117164,-0.02108014195216734,-0.045912646118981826,-0.02578857420596803,0.3291536591765968,-0.23188203968467627,0.7588447999641098,0.0072008376319131475,0.007056817242875686,0.0005602949222614698,0.4738015830516815,0.0013422140618786216,0.004386968910694122,0.46177613735198975,-0.009346150793135166,0.007438773289322853,-0.06771191209554672,-0.470733642578125,-0.01054596807807684,0.016594186425209045,-0.4728389382362366,0.024223696440458298,-0.007057297509163618,-0.02079041674733162
15,0,0.47341808676719666,0.0009587243548594415,0.004386968910694122,0.46177613735198975,-0.007438773289322853,0.007057297509163618,-0.06809338182210922,-0.463830828666687,-0.01054596807807684,0.016975661739706993,-0.4728389382362366,0.024223696440458298,-0.007057297509163618,-0.020027466118335724,0.06809338182210922,0.06198977679014206,0.47619783878326416,0.004307501018047333,0.007128499448299408,0.4709978401660919,-0.0017423033714294434,0.008216198533773422,-0.06519794464111328,-0.45905861258506775,-0.011454816907644272,0.0157233364880085,-0.47770220041275024,0.026298463344573975,-0.0027435943484306335,-0.016479015350341797,0.0,0.0,0.4666999876499176,0.32903073548715245,0.22047837034361858,0.7598899888373444,-0.019677782486762663,-0.04989909852571017,-0.02537275107214354,0.32936219902096686,-0.23170224360087907,0.7588380668282048,0.008203986074394518,0.007788123873461308,0.0008696874752609856,0.47341808676719666,0.0009587243548594415,0.004386968910694122,0.46177613735198975,-0.007438773289322853,0.007057297509163618,-0.06809338182210922,-0.463830828666687,-0.01054596807807684,0.016975661739706993,-0.4728389382362366,0.024223696440458298,-0.007057297509163618,-0.020027466118335724
16,0,0.474185049533844,0.0013422140618786216,0.004386968910694122,0.46177613735198975,-0.007438773289322853,0.007438773289322853,-0.06694895774126053,-0.45309311151504517,-0.01054596807807684,0.01735713705420494,-0.4728389382362366,0.024223696440458298,-0.007057297509163618,-0.019645990803837776,0.06809338182210922,0.06198977679014206,0.48182353377342224,0.002500136848539114,0.006538964807987213,0.45497041940689087,-0.019517948850989342,0.017737699672579765,-0.07580676674842834,-0.4845927953720093,-0.013331764377653599,0.010175968520343304,-0.4855060279369354,0.02081664279103279,-0.005872899200767279,-0.006943524815142155,0.0,0.0,0.5,0.32887157514227877,0.2210464929268835,0.7595406380496695,-0.020825247661349522,-0.04930910983338599,-0.023140621756109425,0.32955259578277396,-0.23106906886825349,0.7592322924864766,0.004273548085549493,0.005917001238969442,0.003124188743872612,0.474185049533844,0.0013422140618786216,0.004386968910694122,0.46177613735198975,-0.007438773289322853,0.007438773289322853,-0.06694895774126053,-0.45309311151504517,-0.01054596807807684,0.01735713705420494,-0.4728389382362366,0.024223696440458298,-0.007057297509163618,-0.019645990803837776
17,0,0.4738015830516815,0.0013422140618786216,0.004386968910694122,0.46177613735198975,-0.007057297509163618,0.007438773289322853,-0.06809338182210922,-0.45194265246391296,-0.01054596807807684,0.016594186425209045,-0.4728389382362366,0.024223696440458298,-0.007057297509163618,-0.020027466118335724,0.06809338182210922,0.06198977679014206,0.4780374765396118,0.002637544646859169,0.0057033970952034,0.4709693491458893,-0.0022279322147369385,0.0061112139374017715,-0.06561249494552612,-0.45786526799201965,-0.011884033679962158,0.013560600578784943,-0.4756273925304413,0.02355840802192688,-0.0027055293321609497,-0.015356093645095825,0.0,0.0,0.53329998254776,0.32902126670778,0.22147463961634956,0.7592171525019863,-0.023450383244540074,-0.046777420761643373,-0.02101866987599532,0.3296046302549126,-0.23073888354569888,0.7594500533665732,0.0017954917266309143,0.004562624797487566,0.004428087297275491,0.4738015830516815,0.0013422140618786216,0.004386968910694122,0.46177613735198975,-0.007057297509163618,0.007438773289322853,-0.06809338182210922,-0.45194265246391296,-0.01054596807807684,0.016594186425209045,-0.4728389382362366,0.024223696440458298,-0.007057297509163618,-0.020027466118335724
18,0,0.474185049533844,0.0013422140618786216,0.004386968910694122,0.46139466762542725,-0.01506828423589468,0.010490577667951584,-0.0722896158695221,-0.46344736218452454,-0.01054596807807684,0.016594186425209045,-0.4732204079627991,0.023460745811462402,-0.007057297509163618,-0.011635004542768002,0.06809338182210922,0.06198977679014206,0.4790196418762207,0.002138732001185417,0.004314318299293518,0.47165942192077637,-0.007023811340332031,0.007648283615708351,-0.062101513147354126,-0.4594361484050751,-0.011479578912258148,0.01265924796462059,-0.4739193916320801,0.02378147840499878,-0.00200439989566803,-0.010476768016815186,0.0,0.0,0.5666999816894531,0.3292563848130425,0.22198740309209455,0.7590038046047856,-0.029196496834063,-0.04297165598167796,-0.019138061904631964,0.32954134528470536,-0.23020519432150624,0.7602543419564483,-0.004706002587232217,-0.0026301604910657717,0.00496004598292708,0.474185049533844,0.0013422140618786216,0.004386968910694122,0.46139466762542725,-0.01506828423589468,0.010490577667951584,-0.0722896158695221,-0.46344736218452454,-0.01054596807807684,0.016594186425209045,-0.4732204079627991,0.023460745811462402,-0.007057297509163618,-0.011635004542768002
19,0,0.4749520421028137,0.0013422140618786216,0.004386968910694122,0.46139466762542725,-0.00858320016413927,0.0078202486038208,-0.07038223743438721,-0.4738015830516815,-0.010162478312849998,0.016212711110711098,-0.4713130295276642,0.02384222112596035,-0.007057297509163618,-0.018501564860343933,0.06809338182210922,0.06198977679014206,0.47932136058807373,0.0036434903740882874,0.002951696515083313,0.4736180305480957,-0.00873345136642456,0.008285628631711006,-0.05941694974899292,-0.46060797572135925,-0.009553056210279465,0.011046197265386581,-0.4750039577484131,0.020604252815246582,0.0007732361555099487,-0.007666110992431641,0.0,0.0,0.6000000238418579,0.32927504668867347,0.2220947568599873,0.7589749534933878,-0.02997895530333583,-0.04260506179340995,-0.018924413394655115,0.32962657312214205,-0.23007598675501378,0.7602942623955148,-0.007400553154880188,-0.003921718034604369,0.004033490845177993,0.4749520421028137,0.0013422140618786216,0.004386968910694122,0.46139466762542725,-0.00858320016413927,0.0078202486038208,-0.07038223743438721,-0.4738015830516815,-0.010162478312849998,0.016212711110711098,-0.4713130295276642,0.02384222112596035,-0.007057297509163618,-0.018501564860343933
20,0,0.4738015830516815,0.0009587243548594415,0.004386968910694122,0.46139466762542725,-0.0078202486038208,0.007438773289322853,-0.07038223743438721,-0.4649813175201416,-0.01054596807807684,0.016594186425209045,-0.4709315598011017,0.02384222112596035,-0.00667582219466567,-0.015449759550392628,0.06809338182210922,0.06198977679014206,0.4795681834220886,0.003453703597187996,0.002296559512615204,0.47373852133750916,-0.00961214303970337,0.008292410522699356,-0.05870285630226135,-0.4607711732387543,-0.008644182235002518,0.009891372174024582,-0.47379449009895325,0.017508119344711304,0.0030352026224136353,-0.0041007399559021,0.0,0.0,0.6333000063896179,0.32941117460123903,0.2222674290838807,0.7588558309361271,-0.03187068177825214,-0.04195813718950481,-0.01844695661546014,0.3296316698117039,-0.22992179462883894,0.761014779044649,-0.011055319002221677,-0.01021344643138353,0.00276806246083602,0.4738015830516815,0.0009587243548594415,0.004386968910694122,0.46139466762542725,-0.0078202486038208,0.007438773289322853,-0.07038223743438721,-0.4649813175201416,-0.01054596807807684,0.016594186425209045,-0.4709315598011017,0.02384222112596035,-0.00667582219466567,-0.015449759550392628
21,0,0.474185049533844,0.0013422140618786216,0.004386968910694122,0.46139466762542725,-0.008201723918318748,0.007438773289322853,-0.06389715522527695,-0.4527096450328827,-0.01054596807807684,0.016594186425209045,-0.4709315598011017,0.023460745811462402,-0.00667582219466567,-0.011635004542768002,0.06809338182210922,0.06198977679014206,0.48102763295173645,-0.0006781325791962445,0.002952812472358346,0.4561240077018738,-0.030006827786564827,0.017259499058127403,-0.06731356680393219,-0.4826631247997284,-0.01514464896172285,0.005246189422905445,-0.48071402311325073,0.0033300090581178665,0.0005926587618887424,0.017369503155350685,0.0,0.0,0.666700005531311,0.32921008641667177,0.22235176632963682,0.7589460147342364,-0.03242121262786535,-0.042946850558318594,-0.01743100816934584,0.32995028995384057,-0.2301327013046762,0.7615717037851392,-0.012522974162280558,-0.015449154866109231,0.0019755043782428415,0.474185049533844,0.0013422140618786216,0.004386968910694122,0.46139466762542725,-0.008201723918318748,0.007438773289322853,-0.06389715522527695,-0.4527096450328827,-0.01054596807807684,0.016594186425209045,-0.4709315598011017,0.023460745811462402,-0.00667582219466567,-0.011635004542768002
22,0,0.474185049533844,0.0013422140618786216,0.004005493130534887,0.46139466762542725,-0.009727626107633114,0.007438773289322853,-0.06351567804813385,-0.4523261487483978,-0.010162478312849998,0.016212711110711098,-0.4709315598011017,0.020027466118335724,-0.00476844422519207,-0.008201723918318748,0.06809338182210922,0.06198977679014206,0.47842133045196533,0.0031539499759674072,0.0021731331944465637,0.47330519556999207,-0.009541124105453491,0.007531005889177322,-0.05717611312866211,-0.4602135717868805,-0.0076913125813007355,0.010014906525611877,-0.4708326756954193,0.014468878507614136,0.005897797644138336,0.0017541348934173584,0.0,0.0,0.699999988079071,0.329251921729717,0.22246245737218373,0.7590142661054877,-0.03323873470431771,-0.04325795812260358,-0.016436329573487285,0.33044435358119173,-0.23068896492901383,0.7623775192618696,-0.013211534288243065,-0.021139502403846766,-0.002326766209378217,0.474185049533844,0.0013422140618786216,0.004005493130534887,0.46139466762542725,-0.009727626107633114,0.007438773289322853,-0.06351567804813385,-0.4523261487483978,-0.010162478312849998,0.016212711110711098,-0.4709315598011017,0.020027466118335724,-0.00476844422519207,-0.008201723918318748
23,0,0.4753355383872986,0.0013422140618786216,0.0036240178160369396,0.46139466762542725,-0.02536812424659729,0.010490577667951584,-0.06504157930612564,-0.46114641427993774,-0.010162478312849998,0.013923857361078262,-0.4713130295276642,0.012397955171763897,-0.0036240178160369396,0.007438773289322853,0.06809338182210922,0.06198977679014206,0.4767480492591858,0.0029744505882263184,0.0024462342262268066,0.4725116193294525,-0.011184930801391602,0.007945230230689049,-0.055440932512283325,-0.4608244001865387,-0.007799532264471054,0.01157994195818901,-0.4686431884765625,0.01774570345878601,0.005171477794647217,0.004478186368942261,0.0,0.0,0.733299970626831,0.329297896787785,0.22248359690536698,0.759061779089194,-0.03367531920591027,-0.043031458613169704,-0.01610852268234897,0.3312538303509956,-0.2315309206736247,0.7632878439013905,-0.007742701652182049,-0.027512336761463807,-0.0054338180362019095,0.4753355383872986,0.0013422140618786216,0.0036240178160369396,0.46139466762542725,-0.02536812424659729,0.010490577667951584,-0.06504157930612564,-0.46114641427993774,-0.010162478312849998,0.013923857361078262,-0.4713130295276642,0.012397955171763897,-0.0036240178160369396,0.007438773289322853
24,0,0.4753355383872986,0.0009587243548594415,0.0036240178160369396,0.46139466762542725,-0.01773861236870289,0.008201723918318748,-0.06313420087099075,-0.47111713886260986,-0.01054596807807684,0.013542382046580315,-0.4686427116394043,0.012779430486261845,-0.0032425422687083483,0.0024795911740511656,0.06809338182210922,0.06198977679014206,0.4753562808036804,0.004298696294426918,0.0017677471041679382,0.4709201157093048,-0.012186974287033081,0.009978421032428741,-0.05452623963356018,-0.46009382605552673,-0.00626043975353241,0.013045717030763626,-0.46662554144859314,0.018161684274673462,0.007162213325500488,0.007269859313964844,0.0,0.0,0.766700029373169,0.32920702385960426,0.2221917780677494,0.7592792160936075,-0.03207965255816525,-0.04428087680518367,-0.01709114723525751,0.3328708835624591,-0.23267498978326537,0.7642348698788705,0.005036043495514342,-0.033777145146066,-0.01484269629123558,0.4753355383872986,0.0009587243548594415,0.0036240178160369396,0.46139466762542725,-0.01773861236870289,0.008201723918318748,-0.06313420087099075,-0.47111713886260986,-0.01054596807807684,0.013542382046580315,-0.4686427116394043,0.012779430486261845,-0.0032425422687083483,0.0024795911740511656
25,0,0.474185049533844,0.0013422140618786216,0.0036240178160369396,0.46139466762542725,-0.01506828423589468,0.008201723918318748,-0.06046387553215027,-0.467282235622406,-0.009395498782396317,0.013542382046580315,-0.464446485042572,0.013542382046580315,-0.0024795911740511656,0.002861066721379757,0.06809338182210922,0.06198977679014206,0.47557419538497925,0.006060097366571426,0.001807279884815216,0.47058215737342834,-0.010193794965744019,0.011574208736419678,-0.056159406900405884,-0.45826128125190735,-0.005050539970397949,0.012531541287899017,-0.46174052357673645,0.012921929359436035,0.010944314301013947,0.016938358545303345,0.0,0.0,0.800000011920929,0.3291078147754195,0.22165190100109544,0.7592423771338647,-0.028266597060381926,-0.04479315555779362,-0.021611328065321622,0.3349252681281539,-0.23344900408117267,0.7659399722101758,0.004575020016247766,-0.04704075318180223,-0.020057542082527746,0.474185049533844,0.0013422140618786216,0.0036240178160369396,0.46139466762542725,-0.01506828423589468,0.008201723918318748,-0.06046387553215027,-0.467282235622406,-0.009395498782396317,0.013542382046580315,-0.464446485042572,0.013542382046580315,-0.0024795911740511656,0.002861066721379757
26,0,0.4738015830516815,0.0013422140618786216,0.0036240178160369396,0.46139466762542725,-0.01506828423589468,0.0078202486038208,-0.059319447726011276,-0.4580785036087036,-0.009395498782396317,0.014686808921396732,-0.464446485042572,0.013923857361078262,-0.0009536888683214784,0.0032425422687083483,0.06809338182210922,0.06198977679014206,0.48141050338745117,0.0020434020552784204,0.004490455612540245,0.45615941286087036,-0.025783315300941467,0.01985599286854267,-0.06910676509141922,-0.4584866464138031,-0.00039560330333188176,0.013532852753996849,-0.4660056233406067,0.016129104420542717,0.012489107437431812,0.04385385289788246,0.0,0.0,0.833299994468689,0.32909385626581183,0.22159467828291277,0.7591577559227213,-0.02656625970031934,-0.04436279815734778,-0.022955648962714292,0.33641039125841465,-0.23383360437731338,0.7671661158687072,0.009891482806709817,-0.051296933427742,-0.024833899141710525,0.4738015830516815,0.0013422140618786216,0.0036240178160369396,0.46139466762542725,-0.01506828423589468,0.0078202486038208,-0.059319447726011276,-0.4580785036087036,-0.009395498782396317,0.014686808921396732,-0.464446485042572,0.013923857361078262,-0.0009536888683214784,0.0032425422687083483
27,0,0.4738015830516815,0.0013422140618786216,0.0036240178160369396,0.46139466762542725,-0.01506828423589468,0.0078202486038208,-0.06008239835500717,-0.4546270966529846,-0.009395498782396317,0.014686808921396732,-0.464446485042572,0.013160906732082367,0.000572213320992887,0.01125352829694748,0.06809338182210922,0.06198977679014206,0.4732475280761719,0.008450562134385109,0.0014102831482887268,0.469358891248703,-0.008510977029800415,0.013245994225144386,-0.05485859513282776,-0.4532044231891632,-0.0031246505677700043,0.013141952455043793,-0.45936140418052673,0.011268943548202515,0.013179183006286621,0.01484265923500061,0.0,0.0,0.8666999936103821,0.32890094690821053,0.22135664547194467,0.7592497478622524,-0.024260329384087065,-0.04615323274430372,-0.024827035620103466,0.33861717970588007,-0.2338514095552615,0.7691161000877818,0.016018886594920012,-0.05585429986745449,-0.02763402904762513,0.4738015830516815,0.0013422140618786216,0.0036240178160369396,0.46139466762542725,-0.01506828423589468,0.0078202486038208,-0.06008239835500717,-0.4546270966529846,-0.009395498782396317,0.014686808921396732,-0.464446485042572,0.013160906732082367,0.000572213320992887,0.01125352829694748
28,0,0.474185049533844,0.0013422140618786216,0.0036240178160369396,0.46063172817230225,-0.022697795182466507,0.01125352829694748,-0.06504157930612564,-0.45424360036849976,-0.008628519251942635,0.014686808921396732,-0.46368351578712463,0.013542382046580315,0.0013351644156500697,0.03223468363285065,0.06809338182210922,0.06198977679014206,0.47282397747039795,0.008248675614595413,0.0012448281049728394,0.4693489670753479,-0.011096030473709106,0.014330783858895302,-0.05521485209465027,-0.4539608657360077,-0.005003232508897781,0.014143180102109909,-0.45908087491989136,0.01556318998336792,0.009969040751457214,0.01464727520942688,0.0,0.0,0.8999999761581421,0.3288340921876848,0.22131699932035448,0.7591482581265119,-0.023407145051636213,-0.04625688155167573,-0.025330838884009665,0.33935870686131564,-0.23382123935068455,0.7699808913535623,0.013442924109366317,-0.057814977882530094,-0.02730595366182076,0.474185049533844,0.0013422140618786216,0.0036240178160369396,0.46063172817230225,-0.022697795182466507,0.01125352829694748,-0.06504157930612564,-0.45424360036849976,-0.008628519251942635,0.014686808921396732,-0.46368351578712463,0.013542382046580315,0.0013351644156500697,0.03223468363285065
29,0,0.4738015830516815,0.0013422140618786216,0.0036240178160369396,0.46063172817230225,-0.01430533267557621,0.010872052982449532,-0.06046387553215027,-0.45194265246391296,-0.008628519251942635,0.014686808921396732,-0.46292057633399963,0.013160906732082367,0.004005493130534887,0.01735713705420494,0.06809338182210922,0.06198977679014206,0.4740679860115051,0.008693736046552658,0.00010031461715698242,0.46972548961639404,-0.006452381610870361,0.013183394446969032,-0.05789276957511902,-0.4498383700847626,-0.0037947185337543488,0.013305749744176865,-0.45535483956336975,0.008084535598754883,0.01408519595861435,0.018653064966201782,0.0,0.0,0.9333000183105469,0.32872681238075446,0.2212431757410515,0.7590068171837213,-0.02200817059468152,-0.04588575667146877,-0.026261758408108182,0.34142932580295715,-0.23445208588860666,0.772960982344424,0.010912080681817482,-0.07043613153142347,-0.029547295866951373,0.4738015830516815,0.0013422140618786216,0.0036240178160369396,0.46063172817230225,-0.01430533267557621,0.010872052982449532,-0.06046387553215027,-0.45194265246391296,-0.008628519251942635,0.014686808921396732,-0.46292057633399963,0.013160906732082367,0.004005493130534887,0.01735713705420494
30,0,0.4738015830516815,0.0013422140618786216,0.0036240178160369396,0.46063172817230225,-0.014686808921396732,0.010872052982449532,-0.06008239835500717,-0.4523261487483978,-0.008628519251942635,0.014686808921396732,-0.46253910660743713,0.013542382046580315,0.004005493130534887,0.016975661739706993,0.06809338182210922,0.06198977679014206,0.4734554886817932,0.009541487321257591,-0.0005145072937011719,0.469788521528244,-0.004760861396789551,0.013619931414723396,-0.05912905931472778,-0.44562020897865295,-0.004142627120018005,0.014612909406423569,-0.4530370235443115,0.00742754340171814,0.014336995780467987,0.017063111066818237,0.0,0.0,0.96670001745224,0.32857185787899984,0.22097318566088234,0.7589366582381223,-0.02042764301046196,-0.04513670861088892,-0.027770424945916528,0.3441213371027727,-0.2351390483056668,0.7755376931521273,0.011311003293681843,-0.07718539698051385,-0.031490352956471845,0.4738015830516815,0.0013422140618786216,0.0036240178160369396,0.46063172817230225,-0.014686808921396732,0.010872052982449532,-0.06008239835500717,-0.4523261487483978,-0.008628519251942635,0.014686808921396732,-0.46253910660743713,0.013542382046580315,0.004005493130534887,0.016975661739706993
31,0,0.4738015830516815,0.0013422140618786216,0.0036240178160369396,0.46063172817230225,-0.013542382046580315,0.010490577667951584,-0.06046387553215027,-0.45194265246391296,-0.008628519251942635,0.014686808921396732,-0.46253910660743713,0.012779430486261845,0.004386968910694122,0.01773861236870289,0.06809338182210922,0.06198977679014206,0.483297735452652,0.004411120433360338,0.005824811290949583,0.4559120535850525,-0.02017957903444767,0.02313055843114853,-0.07215729355812073,-0.42889368534088135,0.001322378870099783,0.016844138503074646,-0.46402180194854736,0.01643427088856697,0.014856759458780289,0.04337942972779274,0.0,0.0,1.0,0.3284883132451334,0.2207703937523042,0.7589359690945923,-0.019622206785633534,-0.045199134231348914,-0.028896314094474906,0.3451258686391675,-0.23540967789789807,0.7763836646454306,0.011177531886507275,-0.07838627646799567,-0.03101385096253928,0.4738015830516815,0.0013422140618786216,0.0036240178160369396,0.46063172817230225,-0.013542382046580315,0.010490577667951584,-0.06046387553215027,-0.45194265246391296,-0.008628519251942635,0.014686808921396732,-0.46253910660743713,0.012779430486261845,0.004386968910694122,0.01773861236870289
32,0,0.4738015830516815,0.0013422140618786216,0.0036240178160369396,0.46063172817230225,-0.010109102353453636,0.010872052982449532,-0.06046387553215027,-0.44964170455932617,-0.008628519251942635,0.014686808921396732,-0.46253910660743713,0.012397955171763897,0.004386968910694122,0.01735713705420494,0.06809338182210922,0.06198977679014206,0.4738616347312927,0.011433064937591553,-0.001543968915939331,0.47035470604896545,-0.001542121171951294,0.015528658404946327,-0.06447291374206543,-0.43634381890296936,-0.005021706223487854,0.015586625784635544,-0.445986807346344,0.0015319883823394775,0.017164215445518494,0.018323630094528198,0.0,0.0,1.0333000421524048,0.32843214677431015,0.2202787252631368,0.7588849550053977,-0.01652206593655947,-0.0453760513821182,-0.031965366579794985,0.34825747432014065,-0.23644015487490128,0.7791244819302685,0.002916834036317706,-0.0879466598922618,-0.03485062639621894,0.4738015830516815,0.0013422140618786216,0.0036240178160369396,0.46063172817230225,-0.010109102353453636,0.010872052982449532,-0.06046387553215027,-0.44964170455932617,-0.008628519251942635,0.014686808921396732,-0.46253910660743713,0.012397955171763897,0.004386968910694122,0.01735713705420494
33,0,0.47571903467178345,0.0036431525368243456,0.0036240178160369396,0.46063172817230225,-0.018501564860343933,0.015449759550392628,-0.06961929053068161,-0.4358360767364502,-0.008628519251942635,0.014686808921396732,-0.46253910660743713,0.013542382046580315,0.004386968910694122,0.034142062067985535,0.06809338182210922,0.06198977679014206,0.4695618152618408,0.012462327256798744,-0.002213321626186371,0.4706108868122101,-0.006147593259811401,0.01894938386976719,-0.062461644411087036,-0.43158474564552307,-0.008955571800470352,0.020084373652935028,-0.4436364471912384,0.010026127099990845,0.011437050998210907,0.014686912298202515,0.0,0.0,1.0666999816894531,0.32854983898352014,0.22001998532982295,0.7587526529244893,-0.01573820550962335,-0.0450819932121207,-0.03406205649776295,0.3518738949525835,-0.23800780028203652,0.7819098815184373,0.0046963995539814896,-0.09328917417943128,-0.03570377941815295,0.47571903467178345,0.0036431525368243456,0.0036240178160369396,0.46063172817230225,-0.018501564860343933,0.015449759550392628,-0.06961929053068161,-0.4358360767364502,-0.008628519251942635,0.014686808921396732,-0.46253910660743713,0.013542382046580315,0.004386968910694122,0.034142062067985535
34,0,0.4738015830516815,0.00671107042580843,0.0036240178160369396,0.46063172817230225,-0.0078202486038208,0.01583123579621315,-0.06885633617639542,-0.4254818558692932,-0.008628519251942635,0.014686808921396732,-0.46215763688087463,0.00858320016413927,0.0078202486038208,0.024605173617601395,0.06809338182210922,0.06198977679014206,0.4715484380722046,0.013011693954467773,-0.0022516846656799316,0.4712538421154022,-0.0016252696514129639,0.01836654730141163,-0.06709134578704834,-0.4255935847759247,-0.008728031069040298,0.02020314335823059,-0.44053754210472107,0.004094928503036499,0.014540985226631165,0.013460367918014526,0.0,0.0,1.100000023841858,0.32857679760448133,0.21993247947057573,0.7587395467540651,-0.015555931148433455,-0.045135333612105644,-0.03465983937863548,0.35313433757007884,-0.23854182485735426,0.7827643455382988,0.005909263304958223,-0.09445237418154395,-0.036015422773868266,0.4738015830516815,0.00671107042580843,0.0036240178160369396,0.46063172817230225,-0.0078202486038208,0.01583123579621315,-0.06885633617639542,-0.4254818558692932,-0.008628519251942635,0.014686808921396732,-0.46215763688087463,0.00858320016413927,0.0078202486038208,0.024605173617601395
35,0,0.4738015830516815,0.00671107042580843,0.0020981156267225742,0.46063172817230225,-0.007438773289322853,0.015449759550392628,-0.06733043491840363,-0.4254818558692932,-0.008628519251942635,0.016594186425209045,-0.44728007912635803,0.009346150793135166,0.0078202486038208,0.016975661739706993,0.06809338182210922,0.06198977679014206,0.4731628894805908,0.012609787285327911,-0.005670890212059021,0.47091519832611084,0.0031741559505462646,0.017816932871937752,-0.07726800441741943,-0.41420498490333557,-0.01096547394990921,0.022355560213327408,-0.42813432216644287,-0.0022708773612976074,0.016567908227443695,0.020893603563308716,0.0,0.0,1.1332999467849731,0.32860520962822604,0.21975183066589082,0.7586829638474041,-0.015625672373365873,-0.0449588382190127,-0.03471488094259456,0.35699523410699024,-0.23977893686029494,0.7855403367304205,-0.0036020915022998423,-0.10224527026281871,-0.03578708135123776,0.4738015830516815,0.00671107042580843,0.0020981156267225742,0.46063172817230225,-0.007438773289322853,0.015449759550392628,-0.06733043491840363,-0.4254818558692932,-0.008628519251942635,0.016594186425209045,-0.44728007912635803,0.009346150793135166,0.0078202486038208,0.016975661739706993
36,0,0.4738015830516815,0.00671107042580843,0.001716639962978661,0.46063172817230225,-0.007057297509163618,0.015449759550392628,-0.06847485899925232,-0.4254818558692932,-0.008628519251942635,0.016594186425209045,-0.440032035112381,0.008964675478637218,0.0078202486038208,0.013923857361078262,0.06809338182210922,0.06198977679014206,0.4828519821166992,0.0029198178090155125,0.00624855374917388,0.4546557366847992,-0.01461360789835453,0.028029650449752808,-0.07256527245044708,-0.37445923686027527,-0.00832312647253275,0.029270293191075325,-0.44926339387893677,0.01725008338689804,0.012039384804666042,0.031243983656167984,0.0,0.0,1.166700005531311,0.32856073823801785,0.2196144808375667,0.7586428216346582,-0.01572418197233283,-0.044788156739320684,-0.03379758159231283,0.3607254212333538,-0.24164930016710007,0.7881163877793098,-0.0003451027489767,-0.10638964890403102,-0.034874864038226594,0.4738015830516815,0.00671107042580843,0.001716639962978661,0.46063172817230225,-0.007057297509163618,0.015449759550392628,-0.06847485899925232,-0.4254818558692932,-0.008628519251942635,0.016594186425209045,-0.440032035112381,0.008964675478637218,0.0078202486038208,0.013923857361078262
37,0,0.47341808676719666,0.006327580660581589,0.001716639962978661,0.46063172817230225,-0.004005493130534887,0.01583123579621315,-0.07267109304666519,-0.4197295308113098,-0.009012009017169476,0.01773861236870289,-0.4365987777709961,0.001716639962978661,0.008201723918318748,0.01735713705420494,0.06809338182210922,0.06198977679014206,0.4682871699333191,0.012865498661994934,-0.006401136517524719,0.47268813848495483,0.004866510629653931,0.01823892630636692,-0.07718145847320557,-0.400309681892395,-0.015797361731529236,0.030605733394622803,-0.4223470091819763,0.00563967227935791,0.011344492435455322,0.015282303094863892,0.0,0.0,1.2000000476837158,0.3285143108772709,0.21956092067584287,0.7586877084732004,-0.015713975604140895,-0.04553935637080864,-0.03323812507721202,0.3633256611357071,-0.24255997133831475,0.7896722016800176,0.0020542089091253324,-0.10873429880268937,-0.03675628373102802,0.47341808676719666,0.006327580660581589,0.001716639962978661,0.46063172817230225,-0.004005493130534887,0.01583123579621315,-0.07267109304666519,-0.4197295308113098,-0.009012009017169476,0.01773861236870289,-0.4365987777709961,0.001716639962978661,0.008201723918318748,0.01735713705420494
38,0,0.47456854581832886,0.005944090895354748,0.001716639962978661,0.46063172817230225,-0.01125352829694748,0.018501564860343933,-0.0722896158695221,-0.4043899178504944,-0.009012009017169476,0.01926451548933983,-0.4362172782421112,0.010109102353453636,0.0078202486038208,0.018501564860343933,0.06809338182210922,0.06198977679014206,0.46785372495651245,0.011675754562020302,-0.009824119508266449,0.47292932868003845,0.0026002228260040283,0.019234752282500267,-0.07883575558662415,-0.38911172747612,-0.019020356237888336,0.030791323632001877,-0.41394704580307007,0.004864871501922607,0.009326964616775513,0.017704874277114868,0.0,0.0,1.233299970626831,0.32849066373846253,0.21938783589336594,0.7585927923216724,-0.016483239383986437,-0.04501588144073532,-0.03229130679117986,0.3674632232757292,-0.24351850383703652,0.7919165406581763,-0.007677003463679277,-0.11426775324816152,-0.03600294425850237,0.47456854581832886,0.005944090895354748,0.001716639962978661,0.46063172817230225,-0.01125352829694748,0.018501564860343933,-0.0722896158695221,-0.4043899178504944,-0.009012009017169476,0.01926451548933983,-0.4362172782421112,0.010109102353453636,0.0078202486038208,0.018501564860343933
39,0,0.47456854581832886,0.005944090895354748,0.001716639962978661,0.45948728919029236,-0.00476844422519207,0.018501564860343933,-0.0722896158695221,-0.3783126175403595,-0.009012009017169476,0.026131074875593185,-0.4358358085155487,0.01125352829694748,0.0078202486038208,0.018501564860343933,0.06809338182210922,0.06198977679014206,0.4659551978111267,0.011075442656874657,-0.011629655957221985,0.47341468930244446,-0.0008443295955657959,0.021867873147130013,-0.07759633660316467,-0.37781745195388794,-0.023096926510334015,0.034421954303979874,-0.4111122786998749,0.011068612337112427,0.004591464996337891,0.009482771158218384,0.0,0.0,1.266700029373169,0.32855896831113596,0.2193446921396129,0.758531852401694,-0.01645623132133034,-0.04435002800451615,-0.03198508424815838,0.3704352949233759,-0.24408123331576093,0.7931691654723347,-0.007390415397112715,-0.11595443142806339,-0.034345774938018714,0.47456854581832886,0.005944090895354748,0.001716639962978661,0.45948728919029236,-0.00476844422519207,0.018501564860343933,-0.0722896158695221,-0.3783126175403595,-0.009012009017169476,0.026131074875593185,-0.4358358085155487,0.01125352829694748,0.0078202486038208,0.018501564860343933
40,0,0.47341808676719666,0.00671107042580843,-0.0024795911740511656,0.45986875891685486,-0.002861066721379757,0.018120087683200836,-0.07610437273979187,-0.37332725524902344,-0.012846906669437885,0.030708782374858856,-0.4331654906272888,0.009346150793135166,0.007438773289322853,0.018120087683200836,0.06809338182210922,0.06198977679014206,0.46527737379074097,0.010305305942893028,-0.012729059904813766,0.47233110666275024,-0.0020152032375335693,0.023175569251179695,-0.07928219437599182,-0.3681154251098633,-0.025390364229679108,0.03543902561068535,-0.4084925353527069,0.012851446866989136,0.0025760233402252197,0.004734009504318237,0.0,0.0,1.2999999523162842,0.3285763333262651,0.21913194571983272,0.758588353954935,-0.01645987276059424,-0.044112384123085935,-0.03193863967317556,0.3748151900165647,-0.24396658717528966,0.7950235355690427,-0.010635984197237214,-0.11500214684122545,-0.031159612355549537,0.47341808676719666,0.00671107042580843,-0.0024795911740511656,0.45986875891685486,-0.002861066721379757,0.018120087683200836,-0.07610437273979187,-0.37332725524902344,-0.012846906669437885,0.030708782374858856,-0.4331654906272888,0.009346150793135166,0.007438773289322853,0.018120087683200836
41,0,0.4718841314315796,0.00671107042580843,-0.010872052982449532,0.45986875891685486,-0.0036240178160369396,0.018120087683200836,-0.07648584991693497,-0.3790796101093292,-0.015147844329476357,0.03185320645570755,-0.41599908471107483,0.009727626107633114,0.007057297509163618,0.01125352829694748,0.06809338182210922,0.06198977679014206,0.4826352000236511,-0.0025756352115422487,0.005262589082121849,0.4550301432609558,-0.010994154028594494,0.02961612306535244,-0.07081472128629684,-0.3186606466770172,-0.018730638548731804,0.03166922181844711,-0.425927072763443,0.013698607683181763,0.008737354539334774,0.006344288121908903,0.0,0.0,1.333299994468689,0.3286288963584031,0.21907582765586242,0.7585730080937549,-0.016539055447907458,-0.04369602097855818,-0.032048404272126074,0.3767600442375707,-0.24386126830866767,0.7957055442003755,-0.013228126940235008,-0.11431854194170965,-0.029920945379482866,0.4718841314315796,0.00671107042580843,-0.010872052982449532,0.45986875891685486,-0.0036240178160369396,0.018120087683200836,-0.07648584991693497,-0.3790796101093292,-0.015147844329476357,0.03185320645570755,-0.41599908471107483,0.009727626107633114,0.007057297509163618,0.01125352829694748
42,0,0.4715006351470947,0.00671107042580843,-0.011635004542768002,0.45986875891685486,-0.0036240178160369396,0.018501564860343933,-0.07724879682064056,-0.37869611382484436,-0.017448782920837402,0.03185320645570755,-0.4076066315174103,0.010490577667951584,0.00667582219466567,0.005912871100008488,0.06809338182210922,0.06198977679014206,0.4704321026802063,0.011001013219356537,-0.017835427075624466,0.4723471701145172,-0.0007684230804443359,0.021838007494807243,-0.08698800206184387,-0.3636365234851837,-0.022809170186519623,0.031863223761320114,-0.401328980922699,0.0014895498752593994,0.009236663579940796,0.014638751745223999,0.0,0.0,1.3667000532150269,0.3286290000095252,0.21907566448282775,0.7585744027795014,-0.01653905355885321,-0.04369559284494784,-0.03204837126110416,0.3767743085174469,-0.24386030689021407,0.7957030082180877,-0.013228331360267465,-0.1143181165019187,-0.029921382268113028,0.4715006351470947,0.00671107042580843,-0.011635004542768002,0.45986875891685486,-0.0036240178160369396,0.018501564860343933,-0.07724879682064056,-0.37869611382484436,-0.017448782920837402,0.03185320645570755,-0.4076066315174103,0.010490577667951584,0.00667582219466567,0.005912871100008488
43,0,0.47341808676719666,0.005560601130127907,-0.008201723918318748,0.45986875891685486,-0.009346150793135166,0.01926451548933983,-0.07648584991693497,-0.35952162742614746,-0.019749721512198448,0.03147173300385475,-0.4076066315174103,0.01201647985726595,0.00667582219466567,0.0009536888683214784,0.06809338182210922,0.06198977679014206,0.4695192575454712,0.010754983872175217,-0.01617705449461937,0.47238457202911377,-0.000891268253326416,0.022068871185183525,-0.08491674065589905,-0.3618091344833374,-0.023326851427555084,0.03231373429298401,-0.40240278840065,0.003907233476638794,0.007773168385028839,0.009922951459884644,0.0,0.0,1.399999976158142,0.3286289903511004,0.2190756427180024,0.7585744156672292,-0.016539052016919964,-0.04369555992246754,-0.03204836957225243,0.37677446712369755,-0.24386032313526637,0.7957028718946367,-0.013228331996197884,-0.11431815268340983,-0.0299213829710685,0.47341808676719666,0.005560601130127907,-0.008201723918318748,0.45986875891685486,-0.009346150793135166,0.01926451548933983,-0.07648584991693497,-0.35952162742614746,-0.019749721512198448,0.03147173300385475,-0.4076066315174103,0.01201647985726595,0.00667582219466567,0.0009536888683214784
44,0,0.47341808676719666,0.005560601130127907,-0.005912871100008488,0.45948728919029236,-0.00667582219466567,0.02193484455347061,-0.08068207651376724,-0.33037641644477844,-0.02051670104265213,0.03299763426184654,-0.4079881012439728,0.00667582219466567,0.007057297509163618,0.016212711110711098,0.06809338182210922,0.06198977679014206,0.46797335147857666,0.007213810458779335,-0.016742922365665436,0.46865636110305786,-0.0036035478115081787,0.021767733618617058,-0.08437910676002502,-0.3513762056827545,-0.02615608274936676,0.02951657399535179,-0.40001755952835083,0.007743805646896362,0.002369143068790436,-0.00031489133834838867,0.0,0.0,1.4333000183105469,0.32905226795693276,0.2186815825823194,0.7587396581220309,-0.01714060926503569,-0.043691878697348585,-0.031456419824511084,0.3893136440566064,-0.2431932387113651,0.7998699419109537,-0.017315304608487292,-0.11133915449192378,-0.018273242230863573,0.47341808676719666,0.005560601130127907,-0.005912871100008488,0.45948728919029236,-0.00667582219466567,0.02193484455347061,-0.08068207651376724,-0.33037641644477844,-0.02051670104265213,0.03299763426184654,-0.4079881012439728,0.00667582219466567,0.007057297509163618,0.016212711110711098
45,0,0.47341808676719666,0.00671107042580843,-0.013542382046580315,0.45986875891685486,-0.00667582219466567,0.021553369238972664,-0.08182650804519653,-0.33612874150276184,-0.023201128467917442,0.029564354568719864,-0.4076066315174103,0.0036240178160369396,0.00667582219466567,0.013542382046580315,0.06809338182210922,0.06198977679014206,0.468250036239624,0.00835978053510189,-0.018184255808591843,0.46922776103019714,-0.0031054317951202393,0.021216364577412605,-0.08439421653747559,-0.34214547276496887,-0.02449442446231842,0.02807827666401863,-0.3964507281780243,0.004045218229293823,0.005048714578151703,-0.001260906457901001,0.0,0.0,1.4666999578475952,0.329271676118855,0.21849616218063006,0.7588053616125527,-0.016812085700621537,-0.04340251081087354,-0.031145636826390266,0.3945117992862722,-0.24334053562067376,0.802324332056415,-0.011368112727173418,-0.11228483378320986,-0.019537798920112426,0.47341808676719666,0.00671107042580843,-0.013542382046580315,0.45986875891685486,-0.00667582219466567,0.021553369238972664,-0.08182650804519653,-0.33612874150276184,-0.023201128467917442,0.029564354568719864,-0.4076066315174103,0.0036240178160369396,0.00667582219466567,0.013542382046580315
46,0,0.47341808676719666,0.00671107042580843,-0.018501564860343933,0.45986875891685486,-0.007057297509163618,0.021171892061829567,-0.08182650804519653,-0.35837116837501526,-0.023584619164466858,0.02994582988321781,-0.4056992530822754,0.004386968910694122,0.005912871100008488,0.0024795911740511656,0.06809338182210922,0.06198977679014206,0.4798556864261627,-0.004811301361769438,0.00667992839589715,0.4544735848903656,-0.009459950029850006,0.02680221013724804,-0.06926365196704865,-0.24201563000679016,-0.025243302807211876,0.030336201190948486,-0.3903581500053406,0.023227035999298096,-0.0011514705838635564,-0.034411635249853134,0.0,0.0,1.5,0.32945935636923207,0.2185936031560444,0.7590184760896391,-0.017499015711042176,-0.04436198081177123,-0.029486071302861294,0.39869309459734825,-0.24330176840341716,0.8046801342509825,-0.009029588933176846,-0.11461573213872223,-0.017793228245243764,0.47341808676719666,0.00671107042580843,-0.018501564860343933,0.45986875891685486,-0.007057297509163618,0.021171892061829567,-0.08182650804519653,-0.35837116837501526,-0.023584619164466858,0.02994582988321781,-0.4056992530822754,0.004386968910694122,0.005912871100008488,0.0024795911740511656
47,0,0.47265109419822693,0.005944090895354748,-0.016212711110711098,0.45986875891685486,-0.007057297509163618,0.021553369238972664,-0.08182650804519653,-0.35760417580604553,-0.02435159869492054,0.03032730519771576,-0.39425498247146606,0.004386968910694122,0.006294346414506435,-0.001716639962978661,0.06809338182210922,0.06198977679014206,0.4691718816757202,0.01106506772339344,-0.019151300191879272,0.47493234276771545,-0.0015506148338317871,0.017321081832051277,-0.07909423112869263,-0.31890881061553955,-0.01953776180744171,0.024598687887191772,-0.39025217294692993,-0.002932518720626831,0.01112397015094757,-0.006327211856842041,0.0,0.0,1.5333000421524048,0.3296863048618608,0.2186786832171482,0.7589452224407678,-0.017535003088223533,-0.04295287890833688,-0.028546779210439244,0.40167053067832836,-0.2435039561432263,0.8061149241436477,-0.009968265327487735,-0.1159318911385725,-0.018078889484975935,0.47265109419822693,0.005944090895354748,-0.016212711110711098,0.45986875891685486,-0.007057297509163618,0.021553369238972664,-0.08182650804519653,-0.35760417580604553,-0.02435159869492054,0.03032730519771576,-0.39425498247146606,0.004386968910694122,0.006294346414506435,-0.001716639962978661
48,0,0.4730345904827118,0.005177111364901066,-0.011635004542768002,0.45681697130203247,-0.009727626107633114,0.023460745811462402,-0.0722896158695221,-0.28435763716697693,-0.023968107998371124,0.02994582988321781,-0.3713664412498474,0.01888304017484188,0.000572213320992887,-0.03643091395497322,0.06809338182210922,0.06198977679014206,0.46362268924713135,0.01218496635556221,-0.015913866460323334,0.4776371717453003,-2.592802047729492e-06,0.01714974455535412,-0.07183614373207092,-0.30981385707855225,-0.021052531898021698,0.0262879841029644,-0.39036962389945984,0.0016037821769714355,0.00801752507686615,-0.013524681329727173,0.0,0.0,1.5666999816894531,0.32970484026313773,0.218671568315985,0.758974916139228,-0.01753434722973557,-0.04293977228680257,-0.028543565925105874,0.40183591373366556,-0.24345937621639624,0.8060763704621956,-0.009980683565876891,-0.1159350344906187,-0.018096802532627798,0.4730345904827118,0.005177111364901066,-0.011635004542768002,0.45681697130203247,-0.009727626107633114,0.023460745811462402,-0.0722896158695221,-0.28435763716697693,-0.023968107998371124,0.02994582988321781,-0.3713664412498474,0.01888304017484188,0.000572213320992887,-0.03643091395497322
49,0,0.4738015830516815,0.005560601130127907,-0.00476844422519207,0.45719844102859497,-0.007438773289322853,0.021171892061829567,-0.07648584991693497,-0.24677564203739166,-0.024735087528824806,0.03452353551983833,-0.3770885765552521,0.007438773289322853,0.007438773289322853,-0.016212711110711098,0.06809338182210922,0.06198977679014206,0.4558284282684326,0.010892264544963837,-0.014662418514490128,0.47981172800064087,-0.00628739595413208,0.016028353944420815,-0.05467844009399414,-0.27431055903434753,-0.019016318023204803,0.024263136088848114,-0.3763856887817383,0.008320987224578857,0.006592981517314911,-0.026458531618118286,0.0,0.0,1.600000023841858,0.32985699422186626,0.2185352306672793,0.7591850808253925,-0.017758930705324527,-0.04257654874606054,-0.028544110302521464,0.40643739084370434,-0.24383257300065492,0.8070447639107975,-0.01160584906927209,-0.11812025097936374,-0.020491824887579835,0.4738015830516815,0.005560601130127907,-0.00476844422519207,0.45719844102859497,-0.007438773289322853,0.021171892061829567,-0.07648584991693497,-0.24677564203739166,-0.024735087528824806,0.03452353551983833,-0.3770885765552521,0.007438773289322853,0.007438773289322853,-0.016212711110711098
50,0,0.47341808676719666,0.005944090895354748,-0.010109102353453636,0.45796138048171997,-0.00667582219466567,0.018120087683200836,-0.07572289556264877,-0.28167322278022766,-0.024735087528824806,0.028038453310728073,-0.40989547967910767,0.0013351644156500697,0.00667582219466567,-0.004005493130534887,0.06809338182210922,0.06198977679014206,0.4540635943412781,0.010019337758421898,-0.018147006630897522,0.47860804200172424,-0.013958394527435303,0.016821639612317085,-0.047231853008270264,-0.2522473931312561,-0.015869460999965668,0.02037271484732628,-0.36385396122932434,0.007856309413909912,0.009085260331630707,-0.029824942350387573,0.0,0.0,1.6332999467849731,0.3301803431435613,0.21841600586095206,0.7592140865253949,-0.01794436400452959,-0.04097933921479102,-0.028705612595534724,0.41049369317364837,-0.24448148673431955,0.8071551396669694,-0.016557619344065966,-0.12036954030824898,-0.02500479818676693,0.47341808676719666,0.005944090895354748,-0.010109102353453636,0.45796138048171997,-0.00667582219466567,0.018120087683200836,-0.07572289556264877,-0.28167322278022766,-0.024735087528824806,0.028038453310728073,-0.40989547967910767,0.0013351644156500697,0.00667582219466567,-0.004005493130534887
51,0,0.46459782123565674,0.00671107042580843,-0.018501564860343933,0.45872434973716736,-0.0078202486038208,0.015449759550392628,-0.06351567804813385,-0.278988778591156,-0.021283680573105812,0.016975661739706993,-0.3839551508426666,0.0020981156267225742,0.004386968910694122,-0.021553369238972664,0.06809338182210922,0.06198977679014206,0.4778681993484497,-0.0020005558617413044,0.009683678857982159,0.456258624792099,-0.01117541640996933,0.022050684317946434,-0.06224488466978073,-0.19425910711288452,-0.02407667227089405,0.030325960367918015,-0.35106876492500305,0.01327814906835556,0.006264564115554094,-0.038431040942668915,0.0,0.0,1.666700005531311,0.33022121354976885,0.21834909328086305,0.759319546501522,-0.017886892498365725,-0.04106784650527562,-0.02875046703706685,0.4119512892222321,-0.24480130512543707,0.8070804485633387,-0.015480804327391517,-0.11916361984670942,-0.027380387523780136,0.46459782123565674,0.00671107042580843,-0.018501564860343933,0.45872434973716736,-0.0078202486038208,0.015449759550392628,-0.06351567804813385,-0.278988778591156,-0.021283680573105812,0.016975661739706993,-0.3839551508426666,0.0020981156267225742,0.004386968910694122,-0.021553369238972664
52,0,0.4546270966529846,0.00671107042580843,-0.02193484455347061,0.45910581946372986,-0.01125352829694748,0.01583123579621315,-0.05245288833975792,-0.28282368183135986,-0.020133210346102715,0.021553369238972664,-0.3381780683994293,0.002861066721379757,0.007438773289322853,-0.03833829239010811,0.06809338182210922,0.06198977679014206,0.4515992999076843,0.011583920568227768,-0.00765044242143631,0.48015615344047546,-0.00032833218574523926,0.013148525729775429,-0.04216471314430237,-0.21615663170814514,-0.007891658693552017,0.024300657212734222,-0.3461590111255646,0.0017989873886108398,0.02212093025445938,-0.039335429668426514,0.0,0.0,1.7000000476837158,0.33040413910061733,0.21810617282324976,0.7595912857004411,-0.017188127349107685,-0.04179843318986931,-0.028914098135697675,0.41579269703457933,-0.24583185750771572,0.8071633932526493,-0.005208729251312771,-0.1135743591406686,-0.03204599547201781,0.4546270966529846,0.00671107042580843,-0.02193484455347061,0.45910581946372986,-0.01125352829694748,0.01583123579621315,-0.05245288833975792,-0.28282368183135986,-0.020133210346102715,0.021553369238972664,-0.3381780683994293,0.002861066721379757,0.007438773289322853,-0.03833829239010811
53,0,0.46114641427993774,0.005560601130127907,-0.0013351644156500697,0.45872434973716736,-0.010872052982449532,0.018501564860343933,-0.06084534898400307,-0.21417902410030365,-0.019749721512198448,0.025749599561095238,-0.33550775051116943,0.010109102353453636,0.007057297509163618,-0.04596780240535736,0.06809338182210922,0.06198977679014206,0.43579381704330444,0.010510001331567764,-0.0014521032571792603,0.4849655330181122,-0.00947532057762146,0.012152334675192833,-0.009324789047241211,-0.1555231213569641,-0.003448229283094406,0.02266325056552887,-0.32594484090805054,0.021219104528427124,0.016627155244350433,-0.07432591915130615,0.0,0.0,1.733299970626831,0.3304495155937406,0.21801905302945596,0.7598849220928754,-0.016376387379219093,-0.043940365428533745,-0.029184665763241302,0.4179460057360609,-0.24641508119748515,0.8072487114123402,-0.00041662347192072957,-0.11343480969958097,-0.03440805635117661,0.46114641427993774,0.005560601130127907,-0.0013351644156500697,0.45872434973716736,-0.010872052982449532,0.018501564860343933,-0.06084534898400307,-0.21417902410030365,-0.019749721512198448,0.025749599561095238,-0.33550775051116943,0.010109102353453636,0.007057297509163618,-0.04596780240535736
54,0,0.46919968724250793,0.004026642069220543,0.004386968910694122,0.45872434973716736,-0.00667582219466567,0.01773861236870289,-0.04749370738863945,-0.16700978577136993,-0.019749721512198448,0.025749599561095238,-0.34542611241340637,0.004386968910694122,0.01506828423589468,-0.03528648987412453,0.06809338182210922,0.06198977679014206,0.43106526136398315,0.01014426164329052,-0.00021651387214660645,0.486117422580719,-0.010725051164627075,0.010141273960471153,-0.00019440054893493652,-0.13677826523780823,-0.0033007077872753143,0.023456282913684845,-0.31879210472106934,0.023235976696014404,0.0164908766746521,-0.0832013487815857,0.0,0.0,1.766700029373169,0.3305270190577234,0.2180568749142574,0.7600921952435139,-0.016037295438586785,-0.045634319545514224,-0.029014740069380096,0.42081702830633183,-0.24713252634334062,0.8074159856788737,0.0009136139340619742,-0.11311850782975919,-0.037152928802035134,0.46919968724250793,0.004026642069220543,0.004386968910694122,0.45872434973716736,-0.00667582219466567,0.01773861236870289,-0.04749370738863945,-0.16700978577136993,-0.019749721512198448,0.025749599561095238,-0.34542611241340637,0.004386968910694122,0.01506828423589468,-0.03528648987412453
55,0,0.4561610519886017,0.007094560191035271,-0.0013351644156500697,0.46063172817230225,-0.00858320016413927,0.01430533267557621,-0.01926451548933983,-0.15435461699962616,-0.013613885268568993,0.015449759550392628,-0.3442816734313965,0.013542382046580315,0.01430533267557621,-0.059319447726011276,0.06809338182210922,0.06198977679014206,0.43563854694366455,0.011239154264330864,0.0005420222878456116,0.4853726625442505,-0.004266679286956787,0.009517740458250046,-0.00861656665802002,-0.14469988644123077,-0.002916872501373291,0.02420036494731903,-0.32202062010765076,0.015548676252365112,0.020670540630817413,-0.07887336611747742,0.0,0.0,1.7999999523162842,0.33062798597655907,0.21812757850822095,0.760229324604074,-0.016144956037476454,-0.046269169659055365,-0.028230628408251857,0.42279240813636587,-0.2475934788819436,0.8073802787810531,0.002476582934555882,-0.11222689278411524,-0.03815198620155469,0.4561610519886017,0.007094560191035271,-0.0013351644156500697,0.46063172817230225,-0.00858320016413927,0.01430533267557621,-0.01926451548933983,-0.15435461699962616,-0.013613885268568993,0.015449759550392628,-0.3442816734313965,0.013542382046580315,0.01430533267557621,-0.059319447726011276
56,0,0.43161770701408386,0.008245029486715794,-0.00476844422519207,0.46139466762542725,-0.010872052982449532,0.013923857361078262,-0.005149920005351305,-0.15013623237609863,-0.0036431525368243456,0.018120087683200836,-0.3107118308544159,0.019645990803837776,0.014686808921396732,-0.08411535620689392,0.06809338182210922,0.06198977679014206,0.47599655389785767,0.0007869196124374866,0.012704023160040379,0.4552745819091797,-0.010901782661676407,0.016357647255063057,-0.06700282543897629,-0.14913730323314667,-0.0184299536049366,0.038483064621686935,-0.31097760796546936,0.02602428011596203,0.005866944324225187,-0.049884133040905,0.0,0.0,1.833299994468689,0.3307256564734629,0.21826121257018474,0.760295862660818,-0.016375103808440095,-0.0465714380609743,-0.027021141728861053,0.4244991009305076,-0.24776815004307792,0.8073915916476245,0.0027182597690909027,-0.11267819971444126,-0.03720928356140618,0.43161770701408386,0.008245029486715794,-0.00476844422519207,0.46139466762542725,-0.010872052982449532,0.013923857361078262,-0.005149920005351305,-0.15013623237609863,-0.0036431525368243456,0.018120087683200836,-0.3107118308544159,0.019645990803837776,0.014686808921396732,-0.08411535620689392
57,0,0.4185790419578552,0.00671107042580843,-0.004386968910694122,0.4709315598011017,-0.007438773289322853,0.01430533267557621,-0.009346150793135166,-0.1493692547082901,-0.004410131834447384,0.01926451548933983,-0.308041512966156,0.01888304017484188,0.01506828423589468,-0.08602273464202881,0.06809338182210922,0.06198977679014206,0.4334855079650879,0.012808462604880333,0.0011325478553771973,0.48574498295783997,-0.0031866729259490967,0.011226562783122063,-0.006701946258544922,-0.12474885582923889,1.1544674634933472e-05,0.023914791643619537,-0.3103289306163788,0.013995885848999023,0.024921976029872894,-0.08147820830345154,0.0,0.0,1.8667000532150269,0.3308551127772823,0.21835134246151908,0.7603871740535142,-0.0167252955218129,-0.04658336190710566,-0.026105552309100943,0.42729704439707716,-0.24838744351309236,0.8068784964833342,-0.0024673309075140537,-0.11255196737250417,-0.036269060440248246,0.4185790419578552,0.00671107042580843,-0.004386968910694122,0.4709315598011017,-0.007438773289322853,0.01430533267557621,-0.009346150793135166,-0.1493692547082901,-0.004410131834447384,0.01926451548933983,-0.308041512966156,0.01888304017484188,0.01506828423589468,-0.08602273464202881
58,0,0.44427287578582764,0.006327580660581589,-0.00019073777366429567,0.4682612419128418,-0.010490577667951584,0.014686808921396732,-0.06198977679014206,-0.14783529937267303,-0.005560601130127907,0.02536812424659729,-0.3072785437107086,0.02079041674733162,0.009727626107633114,-0.05741206929087639,0.06809338182210922,0.06198977679014206,0.41665738821029663,0.01211823895573616,0.0037127137184143066,0.48752114176750183,-0.014860481023788452,0.011673692613840103,0.019667983055114746,-0.0795016884803772,0.0004994384944438934,0.025559816509485245,-0.2883468270301819,0.03261253237724304,0.01874896138906479,-0.0966116189956665,0.0,0.0,1.899999976158142,0.3308420138148337,0.2184143976880849,0.7606673850432772,-0.01553440305829401,-0.04773625985321761,-0.02577905532033009,0.4305119033737729,-0.24986974808973592,0.8055474300114498,-0.0014892940972113244,-0.10781759178778705,-0.04117999205698242,0.44427287578582764,0.006327580660581589,-0.00019073777366429567,0.4682612419128418,-0.010490577667951584,0.014686808921396732,-0.06198977679014206,-0.14783529937267303,-0.005560601130127907,0.02536812424659729,-0.3072785437107086,0.02079041674733162,0.009727626107633114,-0.05741206929087639
59,0,0.4653647840023041,0.00671107042580843,0.0020981156267225742,0.4701686203479767,-0.007438773289322853,0.01430533267557621,-0.010872052982449532,-0.1393985152244568,-0.007094560191035271,0.029182879254221916,-0.3061341345310211,0.018120087683200836,0.018501564860343933,-0.08030059933662415,0.06809338182210922,0.06198977679014206,0.42708420753479004,0.00930693931877613,0.0049615949392318726,0.49148258566856384,-0.00620308518409729,0.006006205454468727,0.012539088726043701,-0.07907675206661224,0.0027776286005973816,0.026412896811962128,-0.2896624803543091,0.02554786205291748,0.02386736124753952,-0.10656502842903137,0.0,0.0,1.9333000183105469,0.33081050844133486,0.2184100188443592,0.7607472242509585,-0.015133615953882629,-0.04836351614501977,-0.025824065036113897,0.4319413338567427,-0.2506508679701946,0.8047482201140409,0.006184877852116966,-0.10233913401318873,-0.04142205649217967,0.4653647840023041,0.00671107042580843,0.0020981156267225742,0.4701686203479767,-0.007438773289322853,0.01430533267557621,-0.010872052982449532,-0.1393985152244568,-0.007094560191035271,0.029182879254221916,-0.3061341345310211,0.018120087683200836,0.018501564860343933,-0.08030059933662415
60,0,0.4511756896972656,0.00671107042580843,0.0024795911740511656,0.4701686203479767,-0.012397955171763897,0.013923857361078262,0.01583123579621315,-0.10143303871154785,-0.004410131834447384,0.029564354568719864,-0.28439003229141235,0.024986648932099342,0.018120087683200836,-0.09594109654426575,0.06809338182210922,0.06198977679014206,0.43033820390701294,0.008317241445183754,0.004367724061012268,0.5008459687232971,-0.005946934223175049,0.005461091175675392,0.018802225589752197,-0.05699971318244934,0.006141893565654755,0.028583183884620667,-0.2742161750793457,0.022975921630859375,0.03071673959493637,-0.11436429619789124,0.0,0.0,1.9666999578475952,0.3307678032633111,0.21852696383730688,0.7609431103278522,-0.014636867202532322,-0.04959056654266325,-0.025406002869605704,0.43570452650455804,-0.2529207560842983,0.8026576144616617,0.008852355298035075,-0.09357409189617849,-0.04846263628025271,0.4511756896972656,0.00671107042580843,0.0024795911740511656,0.4701686203479767,-0.012397955171763897,0.013923857361078262,0.01583123579621315,-0.10143303871154785,-0.004410131834447384,0.029564354568719864,-0.28439003229141235,0.024986648932099342,0.018120087683200836,-0.09594109654426575
61,0,0.41704508662223816,0.006327580660581589,0.0036240178160369396,0.4724574685096741,-0.009727626107633114,0.009727626107633114,0.014686808921396732,-0.06538499891757965,-0.0032596627715975046,0.029564354568719864,-0.2813382148742676,0.024223696440458298,0.018501564860343933,-0.1024261862039566,0.06809338182210922,0.06198977679014206,0.4757045805454254,-0.000370476656826213,0.012044761329889297,0.45617207884788513,-0.009844568558037281,0.012748021632432938,-0.07000906020402908,-0.09596572071313858,-0.02200651355087757,0.0493396632373333,-0.24062497913837433,0.026517296209931374,0.010471019893884659,-0.05555633455514908,0.0,0.0,2.0,0.33083992752134805,0.2189425948134278,0.7611461935038683,-0.01595499506675635,-0.05072688458455055,-0.022284797260348377,0.43946019950050524,-0.25495545657734714,0.8003524427257315,0.0011559263722724644,-0.09022602320738171,-0.05363116222162345,0.41704508662223816,0.006327580660581589,0.0036240178160369396,0.4724574685096741,-0.009727626107633114,0.009727626107633114,0.014686808921396732,-0.06538499891757965,-0.0032596627715975046,0.029564354568719864,-0.2813382148742676,0.024223696440458298,0.018501564860343933,-0.1024261862039566
62,0,0.40822482109069824,0.006327580660581589,0.0036240178160369396,0.4846646785736084,-0.009727626107633114,0.008201723918318748,0.015449759550392628,-0.04812796041369438,-0.0032596627715975046,0.029564354568719864,-0.2809567451477051,0.02384222112596035,0.019645990803837776,-0.11043716967105865,0.06809338182210922,0.06198977679014206,0.4295250177383423,0.007622936740517616,0.0011789724230766296,0.5002819299697876,-0.005776643753051758,0.0036280862987041473,0.017295479774475098,-0.03667280077934265,0.006342247128486633,0.030242379754781723,-0.2589099407196045,0.01872667670249939,0.03511092811822891,-0.11645525693893433,0.0,0.0,2.0332999229431152,0.3308635604709337,0.21902638376703604,0.7611699599238266,-0.01644146128368451,-0.050843896278616185,-0.021203748853449778,0.4411032176575486,-0.2557111770840582,0.7993127788653734,0.004774192910616648,-0.08543648645436042,-0.05350883446736887,0.40822482109069824,0.006327580660581589,0.0036240178160369396,0.4846646785736084,-0.009727626107633114,0.008201723918318748,0.015449759550392628,-0.04812796041369438,-0.0032596627715975046,0.029564354568719864,-0.2809567451477051,0.02384222112596035,0.019645990803837776,-0.11043716967105865
63,0,0.43737003207206726,0.005177111364901066,0.0036240178160369396,0.47436484694480896,-0.010490577667951584,0.009727626107633114,-0.061226826161146164,-0.06461802124977112,-0.008245029486715794,0.03757534176111221,-0.2630273997783661,0.024223696440458298,0.012779430486261845,-0.061226826161146164,0.06809338182210922,0.06198977679014206,0.4122720956802368,0.010001841932535172,0.0032707303762435913,0.4942288398742676,-0.011314481496810913,0.005579214543104172,0.0258236825466156,-0.03017282485961914,0.0019117146730422974,0.03445499762892723,-0.25085893273353577,0.03218376636505127,0.027400970458984375,-0.1177166998386383,0.0,0.0,2.066699981689453,0.33086807214345815,0.21904056821439974,0.7613329092777037,-0.016321729692723608,-0.051272824990830745,-0.019930990950621563,0.4453990989195274,-0.25780251355033734,0.7965846419655189,0.014051874936013231,-0.06815675332056825,-0.051339343124833015,0.43737003207206726,0.005177111364901066,0.0036240178160369396,0.47436484694480896,-0.010490577667951584,0.009727626107633114,-0.061226826161146164,-0.06461802124977112,-0.008245029486715794,0.03757534176111221,-0.2630273997783661,0.024223696440458298,0.012779430486261845,-0.061226826161146164
64,0,0.4649813175201416,0.006327580660581589,0.0036240178160369396,0.4812313914299011,-0.010109102353453636,0.00667582219466567,0.01125352829694748,-0.06960339099168777,-0.009395498782396317,0.03833829239010811,-0.2450980395078659,0.02040894143283367,0.02689402550458908,-0.11539635062217712,0.06809338182210922,0.06198977679014206,0.4285159707069397,0.005414364859461784,0.005569368600845337,0.5017838478088379,0.0008416175842285156,-0.0029865670949220657,0.01693519949913025,-0.01744656264781952,0.007998798042535782,0.033593326807022095,-0.24109014868736267,0.018771111965179443,0.03958699852228165,-0.1289932131767273,0.0,0.0,2.0999999046325684,0.3307213836645334,0.21884798448446588,0.761565036132018,-0.014710242449190947,-0.053690986956784315,-0.020286248073237978,0.44939779654673107,-0.25958179585850194,0.7944843847672102,0.011477917356250256,-0.05755553263778035,-0.05388933590779166,0.4649813175201416,0.006327580660581589,0.0036240178160369396,0.4812313914299011,-0.010109102353453636,0.00667582219466567,0.01125352829694748,-0.06960339099168777,-0.009395498782396317,0.03833829239010811,-0.2450980395078659,0.02040894143283367,0.02689402550458908,-0.11539635062217712
65,0,0.43967097997665405,0.005560601130127907,0.0036240178160369396,0.4812313914299011,-0.010872052982449532,0.007057297509163618,0.02536812424659729,-0.049661919474601746,-0.005560601130127907,0.03795681521296501,-0.23479819297790527,0.024986648932099342,0.026512550190091133,-0.12111848592758179,0.06809338182210922,0.06198977679014206,0.42568981647491455,0.005776029080152512,0.007530644536018372,0.5020800828933716,0.004480898380279541,-0.004405549727380276,0.016901403665542603,-0.014338374137878418,0.007345899939537048,0.03548327460885048,-0.23941028118133545,0.020896553993225098,0.03876792639493942,-0.13432496786117554,0.0,0.0,2.1333000659942627,0.3306610046911194,0.21883774230256464,0.7616414764849728,-0.014256792915787297,-0.0544484602595432,-0.02007247939362866,0.4519935002851725,-0.26069831459214593,0.7928076987282411,0.027999304432100303,-0.0434076860644832,-0.04718915672970869,0.43967097997665405,0.005560601130127907,0.0036240178160369396,0.4812313914299011,-0.010872052982449532,0.007057297509163618,0.02536812424659729,-0.049661919474601746,-0.005560601130127907,0.03795681521296501,-0.23479819297790527,0.024986648932099342,0.026512550190091133,-0.12111848592758179
66,0,0.4128267168998718,0.005944090895354748,0.0036240178160369396,0.4839017391204834,-0.00667582219466567,0.0036240178160369396,0.02079041674733162,-0.024735087528824806,-0.0024926832411438227,0.032616160809993744,-0.23441672325134277,0.02193484455347061,0.02689402550458908,-0.12607766687870026,0.06809338182210922,0.06198977679014206,0.4762604236602783,0.0004759954463224858,0.014119131490588188,0.4558753967285156,-0.00773703632876277,0.007938737981021404,-0.0751940906047821,-0.042097531259059906,-0.03058607131242752,0.06678850948810577,-0.17868511378765106,0.0657954216003418,-0.012178533710539341,-0.10893366485834122,0.0,0.0,2.1666998863220215,0.3305891977569188,0.21886165230623553,0.7616864387798893,-0.013967369424015441,-0.05495398167386645,-0.019779692138100824,0.4548251124306144,-0.261901725223464,0.7911259699451508,0.03019059906212851,-0.030126585973799802,-0.04522587983498916,0.4128267168998718,0.005944090895354748,0.0036240178160369396,0.4839017391204834,-0.00667582219466567,0.0036240178160369396,0.02079041674733162,-0.024735087528824806,-0.0024926832411438227,0.032616160809993744,-0.23441672325134277,0.02193484455347061,0.02689402550458908,-0.12607766687870026
67,0,0.405540406703949,0.005944090895354748,0.0036240178160369396,0.4892423748970032,-0.0013351644156500697,-0.0009536888683214784,0.01773861236870289,-0.0009587243548594415,0.004026642069220543,0.030708782374858856,-0.23479819297790527,0.02040894143283367,0.02727550081908703,-0.12531471252441406,0.06809338182210922,0.06198977679014206,0.4280432462692261,0.00378355011343956,0.010919347405433655,0.5019647479057312,0.01311066746711731,-0.009050562977790833,0.012452930212020874,0.004000775516033173,0.002420961856842041,0.035748809576034546,-0.21814222633838654,0.032843589782714844,0.029990501701831818,-0.16830679774284363,0.0,0.0,2.200000047683716,0.3304595119263554,0.21892020351452193,0.7617333196715901,-0.013892653714846492,-0.055386613706124965,-0.018362031064824258,0.45766388417092413,-0.2634842127377642,0.789703096393572,0.022523756688261454,-0.02111597157507772,-0.0425289014688488,0.405540406703949,0.005944090895354748,0.0036240178160369396,0.4892423748970032,-0.0013351644156500697,-0.0009536888683214784,0.01773861236870289,-0.0009587243548594415,0.004026642069220543,0.030708782374858856,-0.23479819297790527,0.02040894143283367,0.02727550081908703,-0.12531471252441406
68,0,0.43276816606521606,0.004793621599674225,0.005149920005351305,0.4732204079627991,-0.007057297509163618,0.0013351644156500697,-0.05741206929087639,-0.006327580660581589,-0.0013422140618786216,0.04406042397022247,-0.21076524257659912,0.04940108209848404,-0.0036240178160369396,-0.1031891331076622,0.06809338182210922,0.06160829961299896,0.4132990837097168,0.0050711799412965775,0.017330698668956757,0.49912622570991516,0.01889437437057495,-0.009655985981225967,0.01763969659805298,0.017465807497501373,-0.006939951330423355,0.043353207409381866,-0.19696126878261566,0.06343299150466919,0.011280931532382965,-0.19394680857658386,0.0,0.0,2.233299970626831,0.33039406453453024,0.2189956912739295,0.7618161687072317,-0.013912696643770595,-0.05557466788757548,-0.01752790095434964,0.4595580548364846,-0.26473901260740595,0.7883838360722474,0.037284015911071666,-0.009200519238715898,-0.039125875498494445,0.43276816606521606,0.004793621599674225,0.005149920005351305,0.4732204079627991,-0.007057297509163618,0.0013351644156500697,-0.05741206929087639,-0.006327580660581589,-0.0013422140618786216,0.04406042397022247,-0.21076524257659912,0.04940108209848404,-0.0036240178160369396,-0.1031891331076622
69,0,0.47456854581832886,0.005177111364901066,0.005531395319849253,0.47627222537994385,0.00476844422519207,-0.002861066721379757,0.007438773289322853,-0.023584619164466858,-0.012079927138984203,0.05054550990462303,-0.18902114033699036,0.0394827201962471,0.022697795182466507,-0.17071031033992767,0.06809338182210922,0.061226826161146164,0.423015832901001,0.0007771868258714676,0.02436216175556183,0.508333683013916,0.03395536541938782,-0.02061614952981472,0.01726338267326355,0.028391443192958832,-0.002518627792596817,0.04558669775724411,-0.1922740936279297,0.055535733699798584,0.020076774060726166,-0.20397821068763733,0.0,0.0,2.266700029373169,0.3302951446997542,0.21905822289158716,0.7617749554827669,-0.014059861580067778,-0.0555182599749906,-0.016112195941679452,0.46101794203411506,-0.266339322046434,0.7881434322565366,0.04701557897926234,-0.001378736231139932,-0.033867601635650946,0.47456854581832886,0.005177111364901066,0.005531395319849253,0.47627222537994385,0.00476844422519207,-0.002861066721379757,0.007438773289322853,-0.023584619164466858,-0.012079927138984203,0.05054550990462303,-0.18902114033699036,0.0394827201962471,0.022697795182466507,-0.17071031033992767
70,0,0.45539405941963196,0.005560601130127907,0.006294346414506435,0.47627222537994385,0.012397955171763897,-0.008201723918318748,0.01888304017484188,-0.009012009017169476,-0.011696437373757362,0.049782559275627136,-0.18863965570926666,0.0555046908557415,0.018120087683200836,-0.19283588230609894,0.06809338182210922,0.05855649709701538,0.4208872318267822,0.0001886114478111267,0.029171183705329895,0.5116510391235352,0.04170215129852295,-0.023735286667943,0.016830891370773315,0.02688083052635193,-0.006008204072713852,0.05014844238758087,-0.19506224989891052,0.06343087553977966,0.01462981104850769,-0.20984375476837158,0.0,0.0,2.299999952316284,0.33027502618154425,0.21909849049193608,0.7617429992106935,-0.014588376168747086,-0.05466766565764969,-0.014687262693411807,0.46153316507242664,-0.2674198494440002,0.7885519871675615,0.05744096651427055,0.00037481445305509453,-0.026489405758275186,0.45539405941963196,0.005560601130127907,0.006294346414506435,0.47627222537994385,0.012397955171763897,-0.008201723918318748,0.01888304017484188,-0.009012009017169476,-0.011696437373757362,0.049782559275627136,-0.18863965570926666,0.0555046908557415,0.018120087683200836,-0.19283588230609894
71,0,0.4074578583240509,0.005177111364901066,0.01583123579621315,0.4846646785736084,0.025749599561095238,-0.01773861236870289,0.018501564860343933,0.02626904658973217,-0.007861539721488953,0.04787518084049225,-0.18863965570926666,0.0555046908557415,0.018501564860343933,-0.2004653960466385,0.06809338182210922,0.05855649709701538,0.4775063693523407,0.0004479142662603408,0.01624242030084133,0.4573259949684143,-0.008751358836889267,-0.00068530353019014,-0.07414117455482483,-0.017850205302238464,-0.04265362024307251,0.08551239222288132,-0.15859991312026978,0.11355999112129211,-0.04352366924285889,-0.14734134078025818,0.0,0.037802089005708694,2.3333001136779785,0.3302477057487111,0.21924842286446805,0.76169708359643,-0.015825293046711764,-0.05399584422187109,-0.012916526603649281,0.46140878583010214,-0.26824577263110816,0.7893606819103461,0.06202611731330876,-0.00011870710745176538,-0.02532471277371906,0.4074578583240509,0.005177111364901066,0.01583123579621315,0.4846646785736084,0.025749599561095238,-0.01773861236870289,0.018501564860343933,0.02626904658973217,-0.007861539721488953,0.04787518084049225,-0.18863965570926666,0.0555046908557415,0.018501564860343933,-0.2004653960466385
72,0,0.39441919326782227,0.004793621599674225,0.016975661739706993,0.5029755234718323,0.03490501269698143,-0.01926451548933983,0.016594186425209045,0.04467655345797539,-0.005177111364901066,0.046730753034353256,-0.18902114033699036,0.057793546468019485,0.01773861236870289,-0.20122835040092468,0.06809338182210922,0.05855649709701538,0.41721993684768677,-0.0017737969756126404,0.031065478920936584,0.5122402906417847,0.046437472105026245,-0.0278067197650671,0.0155717134475708,0.02521582692861557,-0.011697355657815933,0.054421067237854004,-0.19868995249271393,0.0739561915397644,0.005731217563152313,-0.21726015210151672,0.0,0.7305493950843811,2.3666999340057373,0.3302463657100939,0.21947978695463657,0.7615157027488183,-0.017526131949516355,-0.051647419932866256,-0.009882993494544134,0.46089478002500406,-0.2694189962648985,0.7910798823052192,0.07028554126434416,-0.005176999956244099,-0.022788244842055327,0.39441919326782227,0.004793621599674225,0.016975661739706993,0.5029755234718323,0.03490501269698143,-0.01926451548933983,0.016594186425209045,0.04467655345797539,-0.005177111364901066,0.046730753034353256,-0.18902114033699036,0.057793546468019485,0.01773861236870289,-0.20122835040092468
73,0,0.438137024641037,0.004026642069220543,0.016594186425209045,0.4819943606853485,-0.00667582219466567,-0.0078202486038208,-0.07267109304666519,0.009778988547623158,-0.017448782920837402,0.06389715522527695,-0.1810101419687271,0.10471503436565399,-0.03299763426184654,-0.1520180106163025,0.06771191209554672,0.05855649709701538,0.3526510000228882,0.009752945974469185,0.03419871628284454,0.48666855692863464,0.027040213346481323,-0.01738661713898182,0.053854525089263916,0.03786242753267288,-0.02753320336341858,0.066838838160038,-0.18607687950134277,0.13034933805465698,-0.028138592839241028,-0.23423665761947632,0.0,1.6553846597671509,2.4000000953674316,0.33026781184200227,0.21959788673855715,0.7614665806409104,-0.01924270014888263,-0.04950323280905078,-0.007134395206066735,0.4598160715664039,-0.26926755589048784,0.7930656409663823,0.07089100175043983,-0.01743349640990699,-0.009643980248855044,0.438137024641037,0.004026642069220543,0.016594186425209045,0.4819943606853485,-0.00667582219466567,-0.0078202486038208,-0.07267109304666519,0.009778988547623158,-0.017448782920837402,0.06389715522527695,-0.1810101419687271,0.10471503436565399,-0.03299763426184654,-0.1520180106163025
74,0,0.4753355383872986,0.005944090895354748,0.01773861236870289,0.47627222537994385,0.03376058489084244,-0.02040894143283367,0.012779430486261845,-0.013997375033795834,-0.027036026120185852,0.06733043491840363,-0.17376211285591125,0.08220797777175903,0.001716639962978661,-0.21915769577026367,0.06504157930612564,0.1672770231962204,0.4099205732345581,-0.0035927677527070045,0.035271406173706055,0.511954665184021,0.055535852909088135,-0.03426565229892731,0.019704818725585938,0.03205562382936478,-0.015741847455501556,0.05782712250947952,-0.18981994688510895,0.08554446697235107,-0.0037081167101860046,-0.21602025628089905,0.0,1.7964835166931152,2.433300018310547,0.3302925190518594,0.2196315695104037,0.7614706072999741,-0.01959928989722881,-0.04906521596406055,-0.006425019887517092,0.46001336710000296,-0.26960994445156167,0.793148817699731,0.0683238653089564,-0.015702937938016248,-0.007989869730430588,0.4753355383872986,0.005944090895354748,0.01773861236870289,0.47627222537994385,0.03376058489084244,-0.02040894143283367,0.012779430486261845,-0.013997375033795834,-0.027036026120185852,0.06733043491840363,-0.17376211285591125,0.08220797777175903,0.001716639962978661,-0.21915769577026367
75,0,0.417428582906723,0.005944090895354748,0.02880140393972397,0.4709315598011017,0.026512550190091133,-0.023079270496964455,0.05283436179161072,0.007478049956262112,-0.027419516816735268,0.07267109304666519,-0.17071031033992767,0.12378881871700287,-0.01430533267557621,-0.23479819297790527,0.06427863240242004,0.46330204606056213,0.40875405073165894,-0.0034221280366182327,0.03535597026348114,0.5151839256286621,0.058888256549835205,-0.03563379496335983,0.020342260599136353,0.02769748866558075,-0.01795056462287903,0.060707226395606995,-0.19499512016773224,0.0848490297794342,-0.005039036273956299,-0.2088291049003601,0.0,1.7999999523162842,2.4667000770568848,0.3303124721160152,0.21965504793157753,0.7615634687636015,-0.020713528585505347,-0.048330070870407305,-0.005447829934072335,0.4598358460120868,-0.26986123810766977,0.7942320210785512,0.06724782130577855,-0.013507225854490823,-0.01080093412769001,0.417428582906723,0.005944090895354748,0.02880140393972397,0.4709315598011017,0.026512550190091133,-0.023079270496964455,0.05283436179161072,0.007478049956262112,-0.027419516816735268,0.07267109304666519,-0.17071031033992767,0.12378881871700287,-0.01430533267557621,-0.23479819297790527
76,0,0.3533858060836792,0.005177111364901066,0.03032730519771576,0.49305713176727295,0.046730753034353256,-0.027656977996230125,0.028038453310728073,0.04506004601716995,-0.022050660103559494,0.054741740226745605,-0.17566949129104614,0.09479667246341705,-0.009727626107633114,-0.21877622604370117,0.06427863240242004,0.7280460596084595,0.47770705819129944,-0.005422165151685476,0.014930822886526585,0.4606449007987976,-0.00922646839171648,-0.004211604595184326,-0.06487070024013519,-0.02366047352552414,-0.05026639997959137,0.09224718064069748,-0.17606744170188904,0.13237422704696655,-0.06123508885502815,-0.14806360006332397,0.0,1.7999999523162842,2.5,0.33034455163825027,0.21962041865321044,0.761560778880272,-0.020856536887750465,-0.04781620125030139,-0.005402469025457712,0.4597503603391846,-0.27000442573763367,0.7947879702551234,0.06879558680919029,-0.01375500281546449,-0.010766380406703746,0.3533858060836792,0.005177111364901066,0.03032730519771576,0.49305713176727295,0.046730753034353256,-0.027656977996230125,0.028038453310728073,0.04506004601716995,-0.022050660103559494,0.054741740226745605,-0.17566949129104614,0.09479667246341705,-0.009727626107633114,-0.21877622604370117
77,0,0.35837116837501526,0.004793621599674225,0.03032730519771576,0.5327305793762207,0.05397878959774971,-0.027656977996230125,0.013160906732082367,0.047744471579790115,-0.018215762451291084,0.0558861680328846,-0.19016556441783905,0.09098191559314728,-0.009346150793135166,-0.21000228822231293,0.06427863240242004,0.9409094452857971,0.3903733491897583,-0.0015907920897006989,0.031196080148220062,0.5021886825561523,0.049748122692108154,-0.03162408620119095,0.020848453044891357,0.02054741233587265,-0.026171177625656128,0.06331554055213928,-0.20754699409008026,0.1050698459148407,-0.021906904876232147,-0.22614049911499023,0.0,1.7999999523162842,2.5332999229431152,0.33041583356268306,0.21944672728623787,0.7615782792673502,-0.021455172912293374,-0.047505870075020606,-0.006131716096939854,0.45946060684807066,-0.2698374787177446,0.7961900615132232,0.0664052359985079,-0.013833904627115423,-0.0074408472149825045,0.35837116837501526,0.004793621599674225,0.03032730519771576,0.5327305793762207,0.05397878959774971,-0.027656977996230125,0.013160906732082367,0.047744471579790115,-0.018215762451291084,0.0558861680328846,-0.19016556441783905,0.09098191559314728,-0.009346150793135166,-0.21000228822231293
78,0,0.417428582906723,0.004410131834447384,0.024223696440458298,0.4957274794578552,0.010490577667951584,-0.013160906732082367,-0.059319447726011276,0.017448782920837402,-0.02243414893746376,0.0711451917886734,-0.18863965570926666,0.11959258466959,-0.046730753034353256,-0.15545128285884857,0.061226826161146164,1.1102845668792725,0.3177410960197449,0.013815879821777344,0.03382774442434311,0.4738764464855194,0.02555108070373535,-0.016882190480828285,0.06629335880279541,0.04470197111368179,-0.0405326709151268,0.07838604599237442,-0.18886698782444,0.16114762425422668,-0.05080648139119148,-0.2570969760417938,0.0,1.7999999523162842,2.566699981689453,0.3305441399775196,0.21921965959007872,0.7614247720611453,-0.02204308739109706,-0.04653568509123396,-0.0073186206711479684,0.45909203449708774,-0.2698279682439463,0.797983914213498,0.06158939162648247,-0.01536166634660363,-0.008381129932960807,0.417428582906723,0.004410131834447384,0.024223696440458298,0.4957274794578552,0.010490577667951584,-0.013160906732082367,-0.059319447726011276,0.017448782920837402,-0.02243414893746376,0.0711451917886734,-0.18863965570926666,0.11959258466959,-0.046730753034353256,-0.15545128285884857
79,0,0.467282235622406,0.004410131834447384,0.024223696440458298,0.4690241813659668,0.03528648987412453,-0.02689402550458908,0.02231631986796856,-0.013613885268568993,-0.031637903302907944,0.07457847148180008,-0.18863965570926666,0.11196307092905045,-0.021553369238972664,-0.22259098291397095,0.05703059583902359,1.2457083463668823,0.4025046229362488,-0.004385185427963734,0.03588361293077469,0.5103452801704407,0.055152684450149536,-0.03539959341287613,0.0206182599067688,0.020182646811008453,-0.02314300835132599,0.061270006000995636,-0.2033575028181076,0.09828418493270874,-0.01674390584230423,-0.2207379937171936,0.0,1.7999999523162842,2.5999999046325684,0.3306747477204013,0.21911096335921115,0.7613987817937766,-0.02285483224966267,-0.04531860828412837,-0.00746098738152412,0.4588056651490048,-0.26943541829081274,0.7995633487692888,0.05449367586280429,-0.018325414942754303,-0.0043794217827803905,0.467282235622406,0.004410131834447384,0.024223696440458298,0.4690241813659668,0.03528648987412453,-0.02689402550458908,0.02231631986796856,-0.013613885268568993,-0.031637903302907944,0.07457847148180008,-0.18863965570926666,0.11196307092905045,-0.021553369238972664,-0.22259098291397095
80,0,0.4270158112049103,0.00671107042580843,0.02841992862522602,0.4514763057231903,0.02689402550458908,-0.023079270496964455,0.06733043491840363,-0.0013422140618786216,-0.03317186236381531,0.08220797777175903,-0.17757686972618103,0.14553292095661163,-0.03452353551983833,-0.2595941126346588,0.05664911866188049,1.350232720375061,0.4012414813041687,-0.002987976185977459,0.0348183810710907,0.5120383501052856,0.05869421362876892,-0.03535115346312523,0.019566357135772705,0.022630922496318817,-0.024292923510074615,0.06372938305139542,-0.20451444387435913,0.09521931409835815,-0.015665419399738312,-0.21896323561668396,0.0,1.7999999523162842,2.6333000659942627,0.33070380645296865,0.21901968805618946,0.7614284189541384,-0.023137470026548534,-0.045194362600220916,-0.007959898953469047,0.458806733832014,-0.26945019126156566,0.7998804382383455,0.055070442961861144,-0.017944763965319854,-0.004119805105586849,0.4270158112049103,0.00671107042580843,0.02841992862522602,0.4514763057231903,0.02689402550458908,-0.023079270496964455,0.06733043491840363,-0.0013422140618786216,-0.03317186236381531,0.08220797777175903,-0.17757686972618103,0.14553292095661163,-0.03452353551983833,-0.2595941126346588
81,0,0.3411141335964203,0.004410131834447384,0.029182879254221916,0.4709315598011017,0.04253452271223068,-0.02994582988321781,0.03757534176111221,0.03278837352991104,-0.030870923772454262,0.06580453366041183,-0.18558785319328308,0.11615930497646332,-0.023079270496964455,-0.230601966381073,0.0558861680328846,1.3784618377685547,0.47644859552383423,-0.005290118046104908,0.01567532867193222,0.4612330198287964,-0.01129353791475296,-0.0011873410549014807,-0.059790126979351044,-0.027885206043720245,-0.0557064563035965,0.08961107581853867,-0.19915486872196198,0.12722724676132202,-0.06314776837825775,-0.16060273349285126,0.0,1.7999999523162842,2.6666998863220215,0.3308026581247518,0.21888055216171992,0.7614186868385092,-0.023188480997564653,-0.04466120170728782,-0.009114916145126717,0.4586713244241578,-0.26938320614871664,0.8008917790098926,0.05610204915854489,-0.01964716768119512,-0.004699507004787051,0.3411141335964203,0.004410131834447384,0.029182879254221916,0.4709315598011017,0.04253452271223068,-0.02994582988321781,0.03757534176111221,0.03278837352991104,-0.030870923772454262,0.06580453366041183,-0.18558785319328308,0.11615930497646332,-0.023079270496964455,-0.230601966381073
