gaodalingithub/END2JOINT/ik_net/save_real/ik_validation_log.csv
frame,is_init,real_joint_state_left_shoulder_pitch_joint1,real_joint_state_left_shoulder_roll_joint2,real_joint_state_left_shoulder_yaw_joint3,real_joint_state_left_elbow_pitch_joint4,real_joint_state_left_elbow_roll_joint5,real_joint_state_left_wrist_yaw_joint6,real_joint_state_left_wrist_pitch_joint7,real_joint_state_right_shoulder_pitch_joint1,real_joint_state_right_shoulder_roll_joint2,real_joint_state_right_shoulder_yaw_joint3,real_joint_state_right_elbow_pitch_joint4,real_joint_state_right_elbow_roll_joint5,real_joint_state_right_wrist_yaw_joint6,real_joint_state_right_wrist_pitch_joint7,real_joint_state_left_gripper_joint,real_joint_state_right_gripper_joint,pred_action_left_shoulder_pitch_joint1,pred_action_left_shoulder_roll_joint2,pred_action_left_shoulder_yaw_joint3,pred_action_left_elbow_pitch_joint4,pred_action_left_elbow_roll_joint5,pred_action_left_wrist_yaw_joint6,pred_action_left_wrist_pitch_joint7,pred_action_right_shoulder_pitch_joint1,pred_action_right_shoulder_roll_joint2,pred_action_right_shoulder_yaw_joint3,pred_action_right_elbow_pitch_joint4,pred_action_right_elbow_roll_joint5,pred_action_right_wrist_yaw_joint6,pred_action_right_wrist_pitch_joint7,pred_action_left_gripper_joint,pred_action_right_gripper_joint,timestamp,input_ee_eeL_x,input_ee_eeL_y,input_ee_eeL_z,input_ee_eeL_roll,input_ee_eeL_pitch,input_ee_eeL_yaw,input_ee_eeR_x,input_ee_eeR_y,input_ee_eeR_z,input_ee_eeR_roll,input_ee_eeR_pitch,input_ee_eeR_yaw,input_prev_joint_state_L_sh_pitch,input_prev_joint_state_L_sh_roll,input_prev_joint_state_L_sh_yaw,input_prev_joint_state_L_el_pitch,input_prev_joint_state_L_el_roll,input_prev_joint_state_L_wr_yaw,input_prev_joint_state_L_wr_pitch,input_prev_joint_state_R_sh_pitch,input_prev_joint_state_R_sh_roll,input_prev_joint_state_R_sh_yaw,input_prev_joint_state_R_el_pitch,input_prev_joint_state_R_el_roll,input_prev_joint_state_R_wr_yaw,input_prev_joint_state_R_wr_pitch
0,1,0.49259257316589355,-0.0024926832411438227,-0.00858320016413927,0.4991607666015625,-0.00667582219466567,0.000572213320992887,-0.004005493130534887,-0.49604398012161255,-0.005560601130127907,0.008964675478637218,-0.507553219795227,0.0020981156267225742,-0.010490577667951584,-0.00019073777366429567,0.03528648987412453,0.06275273114442825,0.47801995277404785,0.004793621599674225,0.009346150793135166,0.46330204606056213,-0.021171892061829567,0.01506828423589468,-0.07572289556264877,-0.4818548560142517,-0.011312947608530521,0.013160906732082367,-0.49000534415245056,0.02231631986796856,-0.010872052982449532,-0.007438773289322853,0.0,0.0,,,,,,,,,,,,,,,,,,,,,,,,,,,
1,0,0.49259257316589355,-0.0024926832411438227,-0.00858320016413927,0.4991607666015625,-0.007057297509163618,0.000572213320992887,-0.004005493130534887,-0.49604398012161255,-0.005560601130127907,0.008964675478637218,-0.507553219795227,0.0020981156267225742,-0.010490577667951584,-0.00019073777366429567,0.03528648987412453,0.06275273114442825,0.4681670367717743,0.0028479048050940037,0.003924073651432991,0.4761486351490021,-0.011391166597604752,0.007442924659699202,-0.04783790931105614,-0.4572780430316925,-0.015238777734339237,0.016127418726682663,-0.47735917568206787,0.03336162865161896,-0.008651883341372013,-0.02421046607196331,0.0,0.0,0.0,0.3296839783284264,0.21927637199572056,0.760148681816507,-0.022265430815224363,-0.049355232583983444,-0.022818094361451102,0.330191207700067,-0.23315866847036182,0.7593856539664704,0.006234445563278239,0.008222119939317646,0.004073582912385963,0.49259257316589355,-0.0024926832411438227,-0.00858320016413927,0.4991607666015625,-0.007057297509163618,0.000572213320992887,-0.004005493130534887,-0.49604398012161255,-0.005560601130127907,0.008964675478637218,-0.507553219795227,0.0020981156267225742,-0.010490577667951584,-0.00019073777366429567
2,0,0.4795539081096649,-0.0024926832411438227,-0.004386968910694122,0.46368351578712463,-0.018501564860343933,0.0078202486038208,-0.06885633617639542,-0.48262184858322144,-0.005944090895354748,0.010872052982449532,-0.49496451020240784,0.01773861236870289,-0.011635004542768002,-0.005149920005351305,0.03490501269698143,0.06198977679014206,0.47118422389030457,-0.00038112379843369126,0.006617242470383644,0.46469974517822266,-0.008215103298425674,0.011512842029333115,-0.06465762853622437,-0.4588794410228729,-0.017114780843257904,0.01957423985004425,-0.474685400724411,0.03698746860027313,-0.009999469853937626,-0.023686958476901054,0.0,0.0,0.0333000011742115,0.3297167619153547,0.21922337206930598,0.7600966229585842,-0.022244169327483743,-0.048797779588812595,-0.022700870437588172,0.3301742825954559,-0.2330989094783746,0.7594332914349736,0.0065855336993279395,0.008393390920635528,0.003858192145961712,0.4795539081096649,-0.0024926832411438227,-0.004386968910694122,0.46368351578712463,-0.018501564860343933,0.0078202486038208,-0.06885633617639542,-0.48262184858322144,-0.005944090895354748,0.010872052982449532,-0.49496451020240784,0.01773861236870289,-0.011635004542768002,-0.005149920005351305
3,0,0.4753355383872986,-0.0024926832411438227,-0.0020981156267225742,0.46253910660743713,-0.01773861236870289,0.008201723918318748,-0.05397878959774971,-0.4642143249511719,-0.006327580660581589,0.010872052982449532,-0.4835202693939209,0.024605173617601395,-0.01125352829694748,-0.019645990803837776,0.03490501269698143,0.06198977679014206,0.47345611453056335,0.0017019755905494094,0.00696178711950779,0.46910399198532104,-0.0038844982627779245,0.007554105948656797,-0.06322774291038513,-0.458950012922287,-0.014094957150518894,0.017409849911928177,-0.4768213629722595,0.030972793698310852,-0.006313607562333345,-0.020337684080004692,0.0,0.0,0.06669999659061432,0.32972861387635244,0.21921097536061224,0.760142072639706,-0.021561615979824644,-0.049066408025022934,-0.02343123641551026,0.33001374622614194,-0.23286490574400837,0.7596496928399527,0.005791445871701324,0.007085301034317459,0.003571592448628161,0.4753355383872986,-0.0024926832411438227,-0.0020981156267225742,0.46253910660743713,-0.01773861236870289,0.008201723918318748,-0.05397878959774971,-0.4642143249511719,-0.006327580660581589,0.010872052982449532,-0.4835202693939209,0.024605173617601395,-0.01125352829694748,-0.019645990803837776
4,0,0.46881619095802307,-0.0024926832411438227,-0.0020981156267225742,0.46253910660743713,-0.01430533267557621,0.008201723918318748,-0.06198977679014206,-0.44849124550819397,-0.008245029486715794,0.012397955171763897,-0.47589075565338135,0.02994582988321781,-0.01125352829694748,-0.02384222112596035,0.03490501269698143,0.06198977679014206,0.4746863543987274,0.0013173877960070968,0.006704078987240791,0.4681490361690521,-0.0024899879936128855,0.006856483872979879,-0.06598100066184998,-0.45781877636909485,-0.013904151506721973,0.0167972631752491,-0.47612839937210083,0.02923525869846344,-0.005762920249253511,-0.020579440519213676,0.0,0.0,0.10000000149011612,0.32989725644355306,0.21925230241682392,0.760118602492138,-0.0210628140834066,-0.048890822456340466,-0.023929326653512106,0.33001920385776085,-0.2327849787235774,0.7595451885381943,0.005867541564114636,0.007035954478827801,0.0031553435861557816,0.46881619095802307,-0.0024926832411438227,-0.0020981156267225742,0.46253910660743713,-0.01430533267557621,0.008201723918318748,-0.06198977679014206,-0.44849124550819397,-0.008245029486715794,0.012397955171763897,-0.47589075565338135,0.02994582988321781,-0.01125352829694748,-0.02384222112596035
5,0,0.46766573190689087,-0.0024926832411438227,-0.0020981156267225742,0.46253910660743713,-0.010109102353453636,0.0078202486038208,-0.06389715522527695,-0.44849124550819397,-0.009395498782396317,0.012779430486261845,-0.47589075565338135,0.02880140393972397,-0.01125352829694748,-0.023079270496964455,0.03490501269698143,0.06198977679014206,0.47447696328163147,0.001344322576187551,0.006663033738732338,0.4676741659641266,-0.002809081459417939,0.0075366380624473095,-0.06641003489494324,-0.4576195180416107,-0.014247690327465534,0.016996677964925766,-0.4758989214897156,0.0295477956533432,-0.006038025487214327,-0.02081511728465557,0.0,0.0,0.13330000638961792,0.3299249876847504,0.21923525656257842,0.7601135294956843,-0.020763120820846748,-0.04881521237260111,-0.024453752534151718,0.3300020964059501,-0.23274910568189897,0.7595444019315555,0.0060291755617475325,0.006982630008856317,0.0030340816467319433,0.46766573190689087,-0.0024926832411438227,-0.0020981156267225742,0.46253910660743713,-0.010109102353453636,0.0078202486038208,-0.06389715522527695,-0.44849124550819397,-0.009395498782396317,0.012779430486261845,-0.47589075565338135,0.02880140393972397,-0.01125352829694748,-0.023079270496964455
6,0,0.4715006351470947,-0.0024926832411438227,-0.0020981156267225742,0.46253910660743713,-0.009727626107633114,0.0078202486038208,-0.06466010212898254,-0.4523261487483978,-0.010162478312849998,0.012779430486261845,-0.47589075565338135,0.02880140393972397,-0.01125352829694748,-0.023079270496964455,0.03490501269698143,0.06198977679014206,0.47442707419395447,0.0017984214937314391,0.006670752540230751,0.46815332770347595,-0.0032618383411318064,0.008132196962833405,-0.06580618023872375,-0.4578970968723297,-0.01404812652617693,0.016937851905822754,-0.47626206278800964,0.02957276999950409,-0.005818404722958803,-0.020669860765337944,0.0,0.0,0.16670000553131104,0.3299271352036831,0.2193496746636932,0.7601070365915736,-0.02093740958123691,-0.04890954127529801,-0.02481110978524903,0.329909487407437,-0.23256202062846204,0.7594504353506998,0.0057823143946438265,0.007447228790918051,0.0030883375685499138,0.4715006351470947,-0.0024926832411438227,-0.0020981156267225742,0.46253910660743713,-0.009727626107633114,0.0078202486038208,-0.06466010212898254,-0.4523261487483978,-0.010162478312849998,0.012779430486261845,-0.47589075565338135,0.02880140393972397,-0.01125352829694748,-0.023079270496964455
7,0,0.47226759791374207,-0.0028761730063706636,-0.0020981156267225742,0.46253910660743713,-0.009346150793135166,0.0078202486038208,-0.06427863240242004,-0.45347660779953003,-0.010162478312849998,0.012779430486261845,-0.47589075565338135,0.02880140393972397,-0.01125352829694748,-0.023460745811462402,0.03490501269698143,0.06198977679014206,0.4744122326374054,0.00199538329616189,0.006528908386826515,0.46834051609039307,-0.003724608803167939,0.008513737469911575,-0.06545910239219666,-0.458053857088089,-0.013835993595421314,0.01698678359389305,-0.4765316843986511,0.02974851429462433,-0.00564555125311017,-0.02078126184642315,0.0,0.0,0.20000000298023224,0.3298756717238568,0.21955941709652307,0.7600368607462162,-0.02106086385661987,-0.048680609250950635,-0.024574734526336073,0.3297887268645926,-0.2324801875611183,0.7593073610556744,0.006563970001435231,0.008048128473867879,0.002599493822265205,0.47226759791374207,-0.0028761730063706636,-0.0020981156267225742,0.46253910660743713,-0.009346150793135166,0.0078202486038208,-0.06427863240242004,-0.45347660779953003,-0.010162478312849998,0.012779430486261845,-0.47589075565338135,0.02880140393972397,-0.01125352829694748,-0.023460745811462402
8,0,0.47226759791374207,-0.0024926832411438227,-0.0020981156267225742,0.46253910660743713,-0.009346150793135166,0.0078202486038208,-0.06466010212898254,-0.45309311151504517,-0.010162478312849998,0.012779430486261845,-0.47589075565338135,0.02880140393972397,-0.01125352829694748,-0.023079270496964455,0.03490501269698143,0.06198977679014206,0.4746585190296173,0.0019263013964518905,0.006288344040513039,0.46871787309646606,-0.004011098295450211,0.008350906893610954,-0.06506893038749695,-0.45809176564216614,-0.013792094774544239,0.01671779155731201,-0.4763982594013214,0.029440566897392273,-0.005553059745579958,-0.020325226709246635,0.0,0.0,0.23330000042915344,0.32986677070991516,0.21974831236986175,0.7599066095353406,-0.021669281006069685,-0.047599062942228265,-0.024244561554489064,0.3296817512388355,-0.2323549751823657,0.7593179194602503,0.0062020905192517435,0.007687044544699871,0.00279487421713268,0.47226759791374207,-0.0024926832411438227,-0.0020981156267225742,0.46253910660743713,-0.009346150793135166,0.0078202486038208,-0.06466010212898254,-0.45309311151504517,-0.010162478312849998,0.012779430486261845,-0.47589075565338135,0.02880140393972397,-0.01125352829694748,-0.023079270496964455
9,0,0.47226759791374207,-0.0024926832411438227,-0.0020981156267225742,0.46253910660743713,-0.009346150793135166,0.0078202486038208,-0.06427863240242004,-0.45347660779953003,-0.010162478312849998,0.012779430486261845,-0.47589075565338135,0.02880140393972397,-0.01125352829694748,-0.023079270496964455,0.03490501269698143,0.06198977679014206,0.47502264380455017,0.0019787647761404514,0.006057286635041237,0.46939384937286377,-0.00440007820725441,0.00812082551419735,-0.06422549486160278,-0.45821282267570496,-0.013520264066755772,0.016329459846019745,-0.4762643277645111,0.02888830006122589,-0.005185001064091921,-0.019397927448153496,0.0,0.0,0.26669999957084656,0.32986835837132644,0.21988950034512647,0.7598944081402804,-0.02241979279918649,-0.046574854011816935,-0.023766387136443523,0.32952288913985506,-0.23229337314407195,0.7592326125975636,0.005559243507367199,0.006993936939840353,0.0025047228561245133,0.47226759791374207,-0.0024926832411438227,-0.0020981156267225742,0.46253910660743713,-0.009346150793135166,0.0078202486038208,-0.06427863240242004,-0.45347660779953003,-0.010162478312849998,0.012779430486261845,-0.47589075565338135,0.02880140393972397,-0.01125352829694748,-0.023079270496964455
10,0,0.47226759791374207,-0.0024926832411438227,-0.0020981156267225742,0.46253910660743713,-0.009346150793135166,0.0078202486038208,-0.06427863240242004,-0.45309311151504517,-0.010162478312849998,0.012779430486261845,-0.47589075565338135,0.02880140393972397,-0.01125352829694748,-0.023079270496964455,0.03490501269698143,0.06198977679014206,0.47523263096809387,0.0019994662143290043,0.005982035771012306,0.46903911232948303,-0.004759255796670914,0.00856911949813366,-0.06455373764038086,-0.4583328068256378,-0.013346818275749683,0.0162215419113636,-0.47615084052085876,0.028878673911094666,-0.004981048870831728,-0.01931591145694256,0.0,0.0,0.30000001192092896,0.3297515523369556,0.2200124757542653,0.7598863035376294,-0.022725981021881392,-0.047055228183412456,-0.02384663464221015,0.3294048710650813,-0.23223714768438114,0.7591463351993241,0.005601026366092665,0.007187803906147744,0.001791593297563667,0.47226759791374207,-0.0024926832411438227,-0.0020981156267225742,0.46253910660743713,-0.009346150793135166,0.0078202486038208,-0.06427863240242004,-0.45309311151504517,-0.010162478312849998,0.012779430486261845,-0.47589075565338135,0.02880140393972397,-0.01125352829694748,-0.023079270496964455
11,0,0.47226759791374207,-0.0024926832411438227,-0.0020981156267225742,0.46253910660743713,-0.009346150793135166,0.0078202486038208,-0.06427863240242004,-0.45347660779953003,-0.010162478312849998,0.012779430486261845,-0.47589075565338135,0.02880140393972397,-0.01125352829694748,-0.023079270496964455,0.03490501269698143,0.06198977679014206,0.4752289354801178,0.0022565932013094425,0.005876699462532997,0.4693031907081604,-0.005363825708627701,0.008994590491056442,-0.06391945481300354,-0.45834067463874817,-0.013152611441910267,0.01608860120177269,-0.47610121965408325,0.028799250721931458,-0.0047254119999706745,-0.01905764453113079,0.0,0.0,0.33329999446868896,0.3297649892239514,0.22012794699298763,0.7597090675214359,-0.02280999741434675,-0.045861522017257794,-0.0240751938323851,0.32934246176434456,-0.23213139329673027,0.7590455465638026,0.005389101225743132,0.007290852897929504,0.0014862345226427257,0.47226759791374207,-0.0024926832411438227,-0.0020981156267225742,0.46253910660743713,-0.009346150793135166,0.0078202486038208,-0.06427863240242004,-0.45347660779953003,-0.010162478312849998,0.012779430486261845,-0.47589075565338135,0.02880140393972397,-0.01125352829694748,-0.023079270496964455
12,0,0.47226759791374207,-0.0024926832411438227,-0.0020981156267225742,0.46253910660743713,-0.009727626107633114,0.0078202486038208,-0.06427863240242004,-0.45309311151504517,-0.010162478312849998,0.012779430486261845,-0.47589075565338135,0.02880140393972397,-0.01125352829694748,-0.023079270496964455,0.03490501269698143,0.06198977679014206,0.47530296444892883,0.002414949703961611,0.005795704200863838,0.46932822465896606,-0.005876366049051285,0.00936947762966156,-0.06356221437454224,-0.45832034945487976,-0.012880091555416584,0.015936661511659622,-0.4760427176952362,0.02872900664806366,-0.004421592224389315,-0.018996907398104668,0.0,0.0,0.3666999936103821,0.32975523544786645,0.22024550496473677,0.759614328285792,-0.02300052093775795,-0.045291900072170765,-0.024205409395504862,0.32928263953181736,-0.23202389374481067,0.7589417368212804,0.005642714412298137,0.007458412646414793,0.0008977796253451397,0.47226759791374207,-0.0024926832411438227,-0.0020981156267225742,0.46253910660743713,-0.009727626107633114,0.0078202486038208,-0.06427863240242004,-0.45309311151504517,-0.010162478312849998,0.012779430486261845,-0.47589075565338135,0.02880140393972397,-0.01125352829694748,-0.023079270496964455
13,0,0.47226759791374207,-0.0024926832411438227,-0.0020981156267225742,0.46253910660743713,-0.009346150793135166,0.0078202486038208,-0.06427863240242004,-0.45309311151504517,-0.010162478312849998,0.012779430486261845,-0.47589075565338135,0.02880140393972397,-0.01125352829694748,-0.023079270496964455,0.03490501269698143,0.06198977679014206,0.47530391812324524,0.0030923825688660145,0.005927266553044319,0.4695384204387665,-0.00592556968331337,0.010057223960757256,-0.06359884142875671,-0.45860710740089417,-0.012566656805574894,0.015860777348279953,-0.476270467042923,0.028502419590950012,-0.004023299086838961,-0.018479539081454277,0.0,0.0,0.4000000059604645,0.3296142323583162,0.22023110925444767,0.759575726299929,-0.021729483205298994,-0.04527607766628883,-0.025373076614259915,0.32916069762983136,-0.23191022634311065,0.7589097371262542,0.006384678389848922,0.006920667064251647,0.0007821999039271269,0.47226759791374207,-0.0024926832411438227,-0.0020981156267225742,0.46253910660743713,-0.009346150793135166,0.0078202486038208,-0.06427863240242004,-0.45309311151504517,-0.010162478312849998,0.012779430486261845,-0.47589075565338135,0.02880140393972397,-0.01125352829694748,-0.023079270496964455
14,0,0.47226759791374207,-0.0024926832411438227,-0.0020981156267225742,0.46253910660743713,-0.009346150793135166,0.0078202486038208,-0.06427863240242004,-0.45309311151504517,-0.010162478312849998,0.012779430486261845,-0.47589075565338135,0.02880140393972397,-0.010872052982449532,-0.023079270496964455,0.03490501269698143,0.06198977679014206,0.47534409165382385,0.0033917115069925785,0.005998076871037483,0.4695221781730652,-0.00574788823723793,0.010276218876242638,-0.06388604640960693,-0.45870664715766907,-0.01234340388327837,0.015841040760278702,-0.47649720311164856,0.028368309140205383,-0.0037915189750492573,-0.018525583669543266,0.0,0.0,0.4332999885082245,0.32950227903464546,0.22023617263335768,0.7596334979117164,-0.02108014195216734,-0.045912646118981826,-0.02578857420596803,0.3291536591765968,-0.23188203968467627,0.7588447999641098,0.0072008376319131475,0.007056817242875686,0.0005602949222614698,0.47226759791374207,-0.0024926832411438227,-0.0020981156267225742,0.46253910660743713,-0.009346150793135166,0.0078202486038208,-0.06427863240242004,-0.45309311151504517,-0.010162478312849998,0.012779430486261845,-0.47589075565338135,0.02880140393972397,-0.010872052982449532,-0.023079270496964455
15,0,0.47226759791374207,-0.0024926832411438227,-0.0020981156267225742,0.46253910660743713,-0.009727626107633114,0.0078202486038208,-0.06427863240242004,-0.45309311151504517,-0.010162478312849998,0.012779430486261845,-0.47589075565338135,0.02880140393972397,-0.01125352829694748,-0.023079270496964455,0.03490501269698143,0.06198977679014206,0.47544822096824646,0.0031807185150682926,0.006250062957406044,0.46841901540756226,-0.004939381033182144,0.01057855412364006,-0.06610634922981262,-0.4586930572986603,-0.012610831297934055,0.016161736100912094,-0.4764030873775482,0.028875425457954407,-0.004185364115983248,-0.01915840618312359,0.0,0.0,0.4666999876499176,0.32903073548715245,0.22047837034361858,0.7598899888373444,-0.019677782486762663,-0.04989909852571017,-0.02537275107214354,0.32936219902096686,-0.23170224360087907,0.7588380668282048,0.008203986074394518,0.007788123873461308,0.0008696874752609856,0.47226759791374207,-0.0024926832411438227,-0.0020981156267225742,0.46253910660743713,-0.009727626107633114,0.0078202486038208,-0.06427863240242004,-0.45309311151504517,-0.010162478312849998,0.012779430486261845,-0.47589075565338135,0.02880140393972397,-0.01125352829694748,-0.023079270496964455
16,0,0.47226759791374207,-0.0024926832411438227,-0.0020981156267225742,0.46253910660743713,-0.009727626107633114,0.0078202486038208,-0.06427863240242004,-0.45309311151504517,-0.010162478312849998,0.012779430486261845,-0.47589075565338135,0.02841992862522602,-0.01125352829694748,-0.023079270496964455,0.03490501269698143,0.06198977679014206,0.4762408435344696,0.002297187689691782,0.005852432921528816,0.4681847095489502,-0.004903886467218399,0.009644431993365288,-0.06653863191604614,-0.4583965241909027,-0.01293788943439722,0.015314657241106033,-0.4752885401248932,0.027934744954109192,-0.004371598828583956,-0.017926199361681938,0.0,0.0,0.5,0.32887157514227877,0.2210464929268835,0.7595406380496695,-0.020825247661349522,-0.04930910983338599,-0.023140621756109425,0.32955259578277396,-0.23106906886825349,0.7592322924864766,0.004273548085549493,0.005917001238969442,0.003124188743872612,0.47226759791374207,-0.0024926832411438227,-0.0020981156267225742,0.46253910660743713,-0.009727626107633114,0.0078202486038208,-0.06427863240242004,-0.45309311151504517,-0.010162478312849998,0.012779430486261845,-0.47589075565338135,0.02841992862522602,-0.01125352829694748,-0.023079270496964455
17,0,0.47226759791374207,-0.0024926832411438227,-0.0020981156267225742,0.46253910660743713,-0.009346150793135166,0.008201723918318748,-0.06466010212898254,-0.45309311151504517,-0.010162478312849998,0.012779430486261845,-0.47589075565338135,0.02880140393972397,-0.01125352829694748,-0.023079270496964455,0.03490501269698143,0.06198977679014206,0.47685226798057556,0.0014814840396866202,0.00500781275331974,0.4687146842479706,-0.005999449640512466,0.008935276418924332,-0.0655098557472229,-0.45817938446998596,-0.013197236694395542,0.01460259035229683,-0.47443926334381104,0.027386531233787537,-0.00454159127548337,-0.01697988621890545,0.0,0.0,0.53329998254776,0.32902126670778,0.22147463961634956,0.7592171525019863,-0.023450383244540074,-0.046777420761643373,-0.02101866987599532,0.3296046302549126,-0.23073888354569888,0.7594500533665732,0.0017954917266309143,0.004562624797487566,0.004428087297275491,0.47226759791374207,-0.0024926832411438227,-0.0020981156267225742,0.46253910660743713,-0.009346150793135166,0.008201723918318748,-0.06466010212898254,-0.45309311151504517,-0.010162478312849998,0.012779430486261845,-0.47589075565338135,0.02880140393972397,-0.01125352829694748,-0.023079270496964455
18,0,0.47226759791374207,-0.0024926832411438227,-0.0020981156267225742,0.46253910660743713,-0.009727626107633114,0.0078202486038208,-0.06427863240242004,-0.45309311151504517,-0.010162478312849998,0.012779430486261845,-0.47589075565338135,0.02841992862522602,-0.01125352829694748,-0.022697795182466507,0.03490501269698143,0.06198977679014206,0.47910502552986145,0.0010797170689329505,0.002949083223938942,0.4700326919555664,-0.0096837617456913,0.009143127128481865,-0.0625872015953064,-0.4585975706577301,-0.012065772898495197,0.012198999524116516,-0.4731453061103821,0.024298682808876038,-0.0025555421598255634,-0.012878907844424248,0.0,0.0,0.5666999816894531,0.3292563848130425,0.22198740309209455,0.7590038046047856,-0.029196496834063,-0.04297165598167796,-0.019138061904631964,0.32954134528470536,-0.23020519432150624,0.7602543419564483,-0.004706002587232217,-0.0026301604910657717,0.00496004598292708,0.47226759791374207,-0.0024926832411438227,-0.0020981156267225742,0.46253910660743713,-0.009727626107633114,0.0078202486038208,-0.06427863240242004,-0.45309311151504517,-0.010162478312849998,0.012779430486261845,-0.47589075565338135,0.02841992862522602,-0.01125352829694748,-0.022697795182466507
19,0,0.47226759791374207,-0.0024926832411438227,-0.0020981156267225742,0.46253910660743713,-0.009727626107633114,0.0078202486038208,-0.06466010212898254,-0.45309311151504517,-0.010162478312849998,0.012779430486261845,-0.47589075565338135,0.02841992862522602,-0.01125352829694748,-0.022697795182466507,0.03490501269698143,0.06198977679014206,0.47932347655296326,0.001237305230461061,0.002308482304215431,0.4699603319168091,-0.010938230901956558,0.00995549000799656,-0.062081124633550644,-0.4588734209537506,-0.011386764235794544,0.01125890389084816,-0.4726760983467102,0.02256239950656891,-0.0011629542568698525,-0.011223865672945976,0.0,0.0,0.6000000238418579,0.32927504668867347,0.2220947568599873,0.7589749534933878,-0.02997895530333583,-0.04260506179340995,-0.018924413394655115,0.32962657312214205,-0.23007598675501378,0.7602942623955148,-0.007400553154880188,-0.003921718034604369,0.004033490845177993,0.47226759791374207,-0.0024926832411438227,-0.0020981156267225742,0.46253910660743713,-0.009727626107633114,0.0078202486038208,-0.06466010212898254,-0.45309311151504517,-0.010162478312849998,0.012779430486261845,-0.47589075565338135,0.02841992862522602,-0.01125352829694748,-0.022697795182466507
20,0,0.47226759791374207,-0.0024926832411438227,-0.0020981156267225742,0.46253910660743713,-0.010109102353453636,0.0078202486038208,-0.06427863240242004,-0.45309311151504517,-0.010162478312849998,0.012779430486261845,-0.47589075565338135,0.027656977996230125,-0.010872052982449532,-0.019645990803837776,0.03490501269698143,0.06198977679014206,0.47947385907173157,0.0015164011856541038,0.001448640483431518,0.47008562088012695,-0.012513343244791031,0.010771872475743294,-0.06092097982764244,-0.4596366584300995,-0.010085475631058216,0.009879384189844131,-0.472076952457428,0.019566699862480164,0.0013709062477573752,-0.007473303005099297,0.0,0.0,0.6333000063896179,0.32941117460123903,0.2222674290838807,0.7588558309361271,-0.03187068177825214,-0.04195813718950481,-0.01844695661546014,0.3296316698117039,-0.22992179462883894,0.761014779044649,-0.011055319002221677,-0.01021344643138353,0.00276806246083602,0.47226759791374207,-0.0024926832411438227,-0.0020981156267225742,0.46253910660743713,-0.010109102353453636,0.0078202486038208,-0.06427863240242004,-0.45309311151504517,-0.010162478312849998,0.012779430486261845,-0.47589075565338135,0.027656977996230125,-0.010872052982449532,-0.019645990803837776
21,0,0.47226759791374207,-0.0024926832411438227,-0.0020981156267225742,0.46253910660743713,-0.010490577667951584,0.0078202486038208,-0.06427863240242004,-0.45309311151504517,-0.010162478312849998,0.012779430486261845,-0.47589075565338135,0.024223696440458298,-0.010490577667951584,-0.018501564860343933,0.03490501269698143,0.06198977679014206,0.47932007908821106,0.0014839902287349105,0.0012871044455096126,0.46986323595046997,-0.012593988329172134,0.010789705440402031,-0.06083190068602562,-0.459643691778183,-0.009726912714540958,0.009607531130313873,-0.471094012260437,0.018160536885261536,0.0024693156592547894,-0.0048917364329099655,0.0,0.0,0.666700005531311,0.32921008641667177,0.22235176632963682,0.7589460147342364,-0.03242121262786535,-0.042946850558318594,-0.01743100816934584,0.32995028995384057,-0.2301327013046762,0.7615717037851392,-0.012522974162280558,-0.015449154866109231,0.0019755043782428415,0.47226759791374207,-0.0024926832411438227,-0.0020981156267225742,0.46253910660743713,-0.010490577667951584,0.0078202486038208,-0.06427863240242004,-0.45309311151504517,-0.010162478312849998,0.012779430486261845,-0.47589075565338135,0.024223696440458298,-0.010490577667951584,-0.018501564860343933
22,0,0.47226759791374207,-0.0024926832411438227,-0.0020981156267225742,0.46253910660743713,-0.010490577667951584,0.0078202486038208,-0.06389715522527695,-0.45309311151504517,-0.010162478312849998,0.012397955171763897,-0.47589075565338135,0.023460745811462402,-0.010109102353453636,-0.014686808921396732,0.03490501269698143,0.06198977679014206,0.4784283936023712,0.001960849855095148,0.0002838539658114314,0.4699419438838959,-0.014359001070261002,0.011396870017051697,-0.059090789407491684,-0.45983144640922546,-0.008954686112701893,0.009529683738946915,-0.46978121995925903,0.017113253474235535,0.003996617626398802,-0.0018259120406582952,0.0,0.0,0.699999988079071,0.329251921729717,0.22246245737218373,0.7590142661054877,-0.03323873470431771,-0.04325795812260358,-0.016436329573487285,0.33044435358119173,-0.23068896492901383,0.7623775192618696,-0.013211534288243065,-0.021139502403846766,-0.002326766209378217,0.47226759791374207,-0.0024926832411438227,-0.0020981156267225742,0.46253910660743713,-0.010490577667951584,0.0078202486038208,-0.06389715522527695,-0.45309311151504517,-0.010162478312849998,0.012397955171763897,-0.47589075565338135,0.023460745811462402,-0.010109102353453636,-0.014686808921396732
23,0,0.47226759791374207,-0.0024926832411438227,-0.0020981156267225742,0.46253910660743713,-0.010490577667951584,0.008201723918318748,-0.06389715522527695,-0.45347660779953003,-0.010162478312849998,0.012397955171763897,-0.47589075565338135,0.02079041674733162,-0.009727626107633114,-0.010872052982449532,0.03490501269698143,0.06198977679014206,0.4771961271762848,0.0028353859670460224,-0.000592900556512177,0.4698476493358612,-0.016235772520303726,0.012765495106577873,-0.057860102504491806,-0.4598821699619293,-0.008793034590780735,0.010799691081047058,-0.4680767357349396,0.017961755394935608,0.004563755821436644,0.0013945269165560603,0.0,0.0,0.733299970626831,0.329297896787785,0.22248359690536698,0.759061779089194,-0.03367531920591027,-0.043031458613169704,-0.01610852268234897,0.3312538303509956,-0.2315309206736247,0.7632878439013905,-0.007742701652182049,-0.027512336761463807,-0.0054338180362019095,0.47226759791374207,-0.0024926832411438227,-0.0020981156267225742,0.46253910660743713,-0.010490577667951584,0.008201723918318748,-0.06389715522527695,-0.45347660779953003,-0.010162478312849998,0.012397955171763897,-0.47589075565338135,0.02079041674733162,-0.009727626107633114,-0.010872052982449532
24,0,0.47226759791374207,-0.0024926832411438227,-0.0020981156267225742,0.46253910660743713,-0.010872052982449532,0.008201723918318748,-0.06389715522527695,-0.45347660779953003,-0.010162478312849998,0.012397955171763897,-0.47589075565338135,0.02079041674733162,-0.007057297509163618,-0.007438773289322853,0.03490501269698143,0.06198977679014206,0.4764702618122101,0.004953915718942881,-0.0014183131279423833,0.4711085557937622,-0.01712760701775551,0.013320358470082283,-0.055633749812841415,-0.458833247423172,-0.006749601103365421,0.01178765669465065,-0.46741965413093567,0.017286226153373718,0.006998829077929258,0.003308521583676338,0.0,0.0,0.766700029373169,0.32920702385960426,0.2221917780677494,0.7592792160936075,-0.03207965255816525,-0.04428087680518367,-0.01709114723525751,0.3328708835624591,-0.23267498978326537,0.7642348698788705,0.005036043495514342,-0.033777145146066,-0.01484269629123558,0.47226759791374207,-0.0024926832411438227,-0.0020981156267225742,0.46253910660743713,-0.010872052982449532,0.008201723918318748,-0.06389715522527695,-0.45347660779953003,-0.010162478312849998,0.012397955171763897,-0.47589075565338135,0.02079041674733162,-0.007057297509163618,-0.007438773289322853
25,0,0.47226759791374207,-0.0024926832411438227,-0.0020981156267225742,0.46253910660743713,-0.014686808921396732,0.008201723918318748,-0.06351567804813385,-0.45347660779953003,-0.010162478312849998,0.012397955171763897,-0.47589075565338135,0.02040894143283367,-0.007057297509163618,-0.004005493130534887,0.03490501269698143,0.06198977679014206,0.47487881779670715,0.006347451824694872,-0.002507111057639122,0.4693785309791565,-0.017141733318567276,0.014769012108445168,-0.055764224380254745,-0.45676103234291077,-0.005512409843504429,0.01104145497083664,-0.46153903007507324,0.013426408171653748,0.010056733153760433,0.011786000803112984,0.0,0.0,0.800000011920929,0.3291078147754195,0.22165190100109544,0.7592423771338647,-0.028266597060381926,-0.04479315555779362,-0.021611328065321622,0.3349252681281539,-0.23344900408117267,0.7659399722101758,0.004575020016247766,-0.04704075318180223,-0.020057542082527746,0.47226759791374207,-0.0024926832411438227,-0.0020981156267225742,0.46253910660743713,-0.014686808921396732,0.008201723918318748,-0.06351567804813385,-0.45347660779953003,-0.010162478312849998,0.012397955171763897,-0.47589075565338135,0.02040894143283367,-0.007057297509163618,-0.004005493130534887
26,0,0.47226759791374207,-0.0024926832411438227,-0.0020981156267225742,0.46253910660743713,-0.014686808921396732,0.008201723918318748,-0.06084534898400307,-0.45347660779953003,-0.010162478312849998,0.012397955171763897,-0.47589075565338135,0.02040894143283367,-0.0036240178160369396,-0.0032425422687083483,0.03490501269698143,0.06198977679014206,0.4737585484981537,0.0071556963957846165,-0.0034364592283964157,0.4689500331878662,-0.016172710806131363,0.014695512130856514,-0.053686436265707016,-0.45508816838264465,-0.0037847093772143126,0.01027732715010643,-0.4602002501487732,0.01063297688961029,0.012315354309976101,0.013060228899121284,0.0,0.0,0.833299994468689,0.32909385626581183,0.22159467828291277,0.7591577559227213,-0.02656625970031934,-0.04436279815734778,-0.022955648962714292,0.33641039125841465,-0.23383360437731338,0.7671661158687072,0.009891482806709817,-0.051296933427742,-0.024833899141710525,0.47226759791374207,-0.0024926832411438227,-0.0020981156267225742,0.46253910660743713,-0.014686808921396732,0.008201723918318748,-0.06084534898400307,-0.45347660779953003,-0.010162478312849998,0.012397955171763897,-0.47589075565338135,0.02040894143283367,-0.0036240178160369396,-0.0032425422687083483
27,0,0.47226759791374207,-0.0024926832411438227,-0.0020981156267225742,0.46253910660743713,-0.014686808921396732,0.008201723918318748,-0.06046387553215027,-0.45309311151504517,-0.010162478312849998,0.012397955171763897,-0.4732204079627991,0.01773861236870289,-0.002861066721379757,0.004386968910694122,0.03490501269698143,0.06198977679014206,0.4724372923374176,0.00856095552444458,-0.00350244902074337,0.46856507658958435,-0.015073094516992569,0.015981709584593773,-0.05389740690588951,-0.45277437567710876,-0.003802471561357379,0.011925220489501953,-0.459369033575058,0.011927172541618347,0.011900505982339382,0.011725442484021187,0.0,0.0,0.8666999936103821,0.32890094690821053,0.22135664547194467,0.7592497478622524,-0.024260329384087065,-0.04615323274430372,-0.024827035620103466,0.33861717970588007,-0.2338514095552615,0.7691161000877818,0.016018886594920012,-0.05585429986745449,-0.02763402904762513,0.47226759791374207,-0.0024926832411438227,-0.0020981156267225742,0.46253910660743713,-0.014686808921396732,0.008201723918318748,-0.06046387553215027,-0.45309311151504517,-0.010162478312849998,0.012397955171763897,-0.4732204079627991,0.01773861236870289,-0.002861066721379757,0.004386968910694122
28,0,0.47226759791374207,-0.0024926832411438227,-0.0020981156267225742,0.46253910660743713,-0.014686808921396732,0.008201723918318748,-0.06046387553215027,-0.45309311151504517,-0.009778988547623158,0.012397955171763897,-0.464446485042572,0.016594186425209045,0.00019073777366429567,0.0078202486038208,0.03490501269698143,0.06198977679014206,0.47412267327308655,0.008425259962677956,-0.0023981090635061264,0.46925467252731323,-0.011622045189142227,0.014934999868273735,-0.05649053677916527,-0.4514842927455902,-0.0036094344686716795,0.012119460850954056,-0.4582280218601227,0.009789243340492249,0.01304920669645071,0.013477521017193794,0.0,0.0,0.8999999761581421,0.3288340921876848,0.22131699932035448,0.7591482581265119,-0.023407145051636213,-0.04625688155167573,-0.025330838884009665,0.33935870686131564,-0.23382123935068455,0.7699808913535623,0.013442924109366317,-0.057814977882530094,-0.02730595366182076,0.47226759791374207,-0.0024926832411438227,-0.0020981156267225742,0.46253910660743713,-0.014686808921396732,0.008201723918318748,-0.06046387553215027,-0.45309311151504517,-0.009778988547623158,0.012397955171763897,-0.464446485042572,0.016594186425209045,0.00019073777366429567,0.0078202486038208
29,0,0.47226759791374207,-0.0013422140618786216,-0.0024795911740511656,0.46253910660743713,-0.014686808921396732,0.00858320016413927,-0.059319447726011276,-0.4523261487483978,-0.009778988547623158,0.012397955171763897,-0.46253910660743713,0.016594186425209045,0.00019073777366429567,0.0078202486038208,0.03490501269698143,0.06198977679014206,0.474947065114975,0.00876818411052227,-0.003018176183104515,0.46970614790916443,-0.008454356342554092,0.014471245929598808,-0.05883440002799034,-0.4478980004787445,-0.003296793205663562,0.012404464185237885,-0.454204797744751,0.005884363781660795,0.015233478508889675,0.01755930669605732,0.0,0.0,0.9333000183105469,0.32872681238075446,0.2212431757410515,0.7590068171837213,-0.02200817059468152,-0.04588575667146877,-0.026261758408108182,0.34142932580295715,-0.23445208588860666,0.772960982344424,0.010912080681817482,-0.07043613153142347,-0.029547295866951373,0.47226759791374207,-0.0013422140618786216,-0.0024795911740511656,0.46253910660743713,-0.014686808921396732,0.00858320016413927,-0.059319447726011276,-0.4523261487483978,-0.009778988547623158,0.012397955171763897,-0.46253910660743713,0.016594186425209045,0.00019073777366429567,0.0078202486038208
30,0,0.47226759791374207,-0.0013422140618786216,-0.002861066721379757,0.46253910660743713,-0.014686808921396732,0.00858320016413927,-0.059319447726011276,-0.4515591561794281,-0.009778988547623158,0.012397955171763897,-0.46253910660743713,0.016594186425209045,0.000572213320992887,0.0078202486038208,0.03490501269698143,0.06198977679014206,0.4747669994831085,0.009467514231801033,-0.0037562306970357895,0.46973663568496704,-0.006583217531442642,0.01474028266966343,-0.06056305393576622,-0.44361844658851624,-0.0034856616985052824,0.013338316231966019,-0.45177409052848816,0.004671975504606962,0.015713438391685486,0.01612134464085102,0.0,0.0,0.96670001745224,0.32857185787899984,0.22097318566088234,0.7589366582381223,-0.02042764301046196,-0.04513670861088892,-0.027770424945916528,0.3441213371027727,-0.2351390483056668,0.7755376931521273,0.011311003293681843,-0.07718539698051385,-0.031490352956471845,0.47226759791374207,-0.0013422140618786216,-0.002861066721379757,0.46253910660743713,-0.014686808921396732,0.00858320016413927,-0.059319447726011276,-0.4515591561794281,-0.009778988547623158,0.012397955171763897,-0.46253910660743713,0.016594186425209045,0.000572213320992887,0.0078202486038208
31,0,0.47226759791374207,-0.0013422140618786216,-0.002861066721379757,0.46253910660743713,-0.01430533267557621,0.008201723918318748,-0.06008239835500717,-0.45079219341278076,-0.009778988547623158,0.012397955171763897,-0.46253910660743713,0.012397955171763897,0.0032425422687083483,0.011635004542768002,0.03490501269698143,0.06198977679014206,0.4745708405971527,0.010013621300458908,-0.0028251316398382187,0.46996286511421204,-0.005140993744134903,0.014921201393008232,-0.06141951307654381,-0.4421931803226471,-0.003908776678144932,0.014137450605630875,-0.4516899883747101,0.00461097015067935,0.015629015862941742,0.014886753633618355,0.0,0.0,1.0,0.3284883132451334,0.2207703937523042,0.7589359690945923,-0.019622206785633534,-0.045199134231348914,-0.028896314094474906,0.3451258686391675,-0.23540967789789807,0.7763836646454306,0.011177531886507275,-0.07838627646799567,-0.03101385096253928,0.47226759791374207,-0.0013422140618786216,-0.002861066721379757,0.46253910660743713,-0.01430533267557621,0.008201723918318748,-0.06008239835500717,-0.45079219341278076,-0.009778988547623158,0.012397955171763897,-0.46253910660743713,0.012397955171763897,0.0032425422687083483,0.011635004542768002
32,0,0.47226759791374207,-0.0013422140618786216,-0.002861066721379757,0.46253910660743713,-0.013923857361078262,0.00858320016413927,-0.06046387553215027,-0.44734078645706177,-0.009395498782396317,0.012397955171763897,-0.46215763688087463,0.011635004542768002,0.0036240178160369396,0.011635004542768002,0.03490501269698143,0.06198977679014206,0.47512999176979065,0.010974552482366562,-0.0033590998500585556,0.47029778361320496,-0.002079013967886567,0.015476970002055168,-0.06561779975891113,-0.4353426992893219,-0.00436605978757143,0.014410320669412613,-0.4455457329750061,-0.001057878602296114,0.018473871052265167,0.01779206283390522,0.0,0.0,1.0333000421524048,0.32843214677431015,0.2202787252631368,0.7588849550053977,-0.01652206593655947,-0.0453760513821182,-0.031965366579794985,0.34825747432014065,-0.23644015487490128,0.7791244819302685,0.002916834036317706,-0.0879466598922618,-0.03485062639621894,0.47226759791374207,-0.0013422140618786216,-0.002861066721379757,0.46253910660743713,-0.013923857361078262,0.00858320016413927,-0.06046387553215027,-0.44734078645706177,-0.009395498782396317,0.012397955171763897,-0.46215763688087463,0.011635004542768002,0.0036240178160369396,0.011635004542768002
33,0,0.47226759791374207,-0.0009587243548594415,-0.002861066721379757,0.46253910660743713,-0.012779430486261845,0.00858320016413927,-0.06084534898400307,-0.44197192788124084,-0.008628519251942635,0.012397955171763897,-0.45757991075515747,0.009727626107633114,0.0036240178160369396,0.011635004542768002,0.03490501269698143,0.06198977679014206,0.4734172523021698,0.01167411357164383,-0.003186611458659172,0.4700358808040619,-0.0003633239830378443,0.016169657930731773,-0.06831595301628113,-0.42939093708992004,-0.006805420853197575,0.01833859458565712,-0.4416384696960449,0.000983580481261015,0.01685749739408493,0.016526060178875923,0.0,0.0,1.0666999816894531,0.32854983898352014,0.22001998532982295,0.7587526529244893,-0.01573820550962335,-0.0450819932121207,-0.03406205649776295,0.3518738949525835,-0.23800780028203652,0.7819098815184373,0.0046963995539814896,-0.09328917417943128,-0.03570377941815295,0.47226759791374207,-0.0009587243548594415,-0.002861066721379757,0.46253910660743713,-0.012779430486261845,0.00858320016413927,-0.06084534898400307,-0.44197192788124084,-0.008628519251942635,0.012397955171763897,-0.45757991075515747,0.009727626107633114,0.0036240178160369396,0.011635004542768002
34,0,0.47226759791374207,-0.0009587243548594415,-0.002861066721379757,0.46253910660743713,-0.009727626107633114,0.00858320016413927,-0.06313420087099075,-0.43852052092552185,-0.008628519251942635,0.012397955171763897,-0.4526207447052002,0.0036240178160369396,0.004386968910694122,0.01201647985726595,0.03490501269698143,0.06198977679014206,0.4726886451244354,0.012349970638751984,-0.0030154790729284286,0.4705815613269806,0.0008228382794186473,0.017084134742617607,-0.06992840766906738,-0.42547425627708435,-0.008029640652239323,0.02101985737681389,-0.43981024622917175,0.0022164727561175823,0.01625598967075348,0.014392213895916939,0.0,0.0,1.100000023841858,0.32857679760448133,0.21993247947057573,0.7587395467540651,-0.015555931148433455,-0.045135333612105644,-0.03465983937863548,0.35313433757007884,-0.23854182485735426,0.7827643455382988,0.005909263304958223,-0.09445237418154395,-0.036015422773868266,0.47226759791374207,-0.0009587243548594415,-0.002861066721379757,0.46253910660743713,-0.009727626107633114,0.00858320016413927,-0.06313420087099075,-0.43852052092552185,-0.008628519251942635,0.012397955171763897,-0.4526207447052002,0.0036240178160369396,0.004386968910694122,0.01201647985726595
35,0,0.47226759791374207,-0.0009587243548594415,-0.002861066721379757,0.46253910660743713,-0.007057297509163618,0.00858320016413927,-0.06504157930612564,-0.43161770701408386,-0.008628519251942635,0.012779430486261845,-0.44384679198265076,0.001716639962978661,0.004386968910694122,0.01201647985726595,0.03490501269698143,0.06198977679014206,0.4722823202610016,0.012342356145381927,-0.005294708535075188,0.47131842374801636,0.002203400945290923,0.01770259253680706,-0.07478871941566467,-0.4160359799861908,-0.011056897230446339,0.02377462387084961,-0.4314006268978119,0.0001756693673087284,0.015903890132904053,0.017549948766827583,0.0,0.0,1.1332999467849731,0.32860520962822604,0.21975183066589082,0.7586829638474041,-0.015625672373365873,-0.0449588382190127,-0.03471488094259456,0.35699523410699024,-0.23977893686029494,0.7855403367304205,-0.0036020915022998423,-0.10224527026281871,-0.03578708135123776,0.47226759791374207,-0.0009587243548594415,-0.002861066721379757,0.46253910660743713,-0.007057297509163618,0.00858320016413927,-0.06504157930612564,-0.43161770701408386,-0.008628519251942635,0.012779430486261845,-0.44384679198265076,0.001716639962978661,0.004386968910694122,0.01201647985726595
36,0,0.47226759791374207,-0.0009587243548594415,-0.002861066721379757,0.46253910660743713,-0.007057297509163618,0.00858320016413927,-0.06504157930612564,-0.42816630005836487,-0.009012009017169476,0.012779430486261845,-0.44232088327407837,0.0020981156267225742,0.004386968910694122,0.01201647985726595,0.03490501269698143,0.06198977679014206,0.4688182771205902,0.0125481728464365,-0.004870979115366936,0.4725267291069031,0.0035592277999967337,0.017542237415909767,-0.07356530427932739,-0.4082774817943573,-0.014071033336222172,0.02894505485892296,-0.42879608273506165,0.005480244290083647,0.01238758023828268,0.013345198705792427,0.0,0.0,1.166700005531311,0.32856073823801785,0.2196144808375667,0.7586428216346582,-0.01572418197233283,-0.044788156739320684,-0.03379758159231283,0.3607254212333538,-0.24164930016710007,0.7881163877793098,-0.0003451027489767,-0.10638964890403102,-0.034874864038226594,0.47226759791374207,-0.0009587243548594415,-0.002861066721379757,0.46253910660743713,-0.007057297509163618,0.00858320016413927,-0.06504157930612564,-0.42816630005836487,-0.009012009017169476,0.012779430486261845,-0.44232088327407837,0.0020981156267225742,0.004386968910694122,0.01201647985726595
37,0,0.47226759791374207,-0.0009587243548594415,-0.002861066721379757,0.46253910660743713,-0.00667582219466567,0.00858320016413927,-0.0711451917886734,-0.4220304489135742,-0.009012009017169476,0.012779430486261845,-0.4404135048389435,0.001716639962978661,0.004386968910694122,0.012397955171763897,0.03490501269698143,0.06198977679014206,0.467328280210495,0.012897206470370293,-0.00450286827981472,0.4736359119415283,0.003907736390829086,0.018029501661658287,-0.07279032468795776,-0.40147149562835693,-0.015238367952406406,0.031186535954475403,-0.4264117479324341,0.0074497307650744915,0.011514781974256039,0.010520117357373238,0.0,0.0,1.2000000476837158,0.3285143108772709,0.21956092067584287,0.7586877084732004,-0.015713975604140895,-0.04553935637080864,-0.03323812507721202,0.3633256611357071,-0.24255997133831475,0.7896722016800176,0.0020542089091253324,-0.10873429880268937,-0.03675628373102802,0.47226759791374207,-0.0009587243548594415,-0.002861066721379757,0.46253910660743713,-0.00667582219466567,0.00858320016413927,-0.0711451917886734,-0.4220304489135742,-0.009012009017169476,0.012779430486261845,-0.4404135048389435,0.001716639962978661,0.004386968910694122,0.012397955171763897
38,0,0.4718841314315796,-0.00019174486806150526,-0.002861066721379757,0.46253910660743713,-0.006294346414506435,0.008964675478637218,-0.0722896158695221,-0.4132101833820343,-0.009012009017169476,0.016975661739706993,-0.440032035112381,0.0020981156267225742,0.0036240178160369396,0.011635004542768002,0.03490501269698143,0.06198977679014206,0.46603962779045105,0.011973511427640915,-0.005897572264075279,0.4732179045677185,0.0033964773174375296,0.019604230299592018,-0.07529601454734802,-0.3893599212169647,-0.018680021166801453,0.03320745378732681,-0.41877537965774536,0.008433446288108826,0.009316652081906796,0.01086314208805561,0.0,0.0,1.233299970626831,0.32849066373846253,0.21938783589336594,0.7585927923216724,-0.016483239383986437,-0.04501588144073532,-0.03229130679117986,0.3674632232757292,-0.24351850383703652,0.7919165406581763,-0.007677003463679277,-0.11426775324816152,-0.03600294425850237,0.4718841314315796,-0.00019174486806150526,-0.002861066721379757,0.46253910660743713,-0.006294346414506435,0.008964675478637218,-0.0722896158695221,-0.4132101833820343,-0.009012009017169476,0.016975661739706993,-0.440032035112381,0.0020981156267225742,0.0036240178160369396,0.011635004542768002
39,0,0.4718841314315796,0.004410131834447384,-0.002861066721379757,0.46253910660743713,-0.005912871100008488,0.008964675478637218,-0.071908138692379,-0.40208899974823,-0.009012009017169476,0.026512550190091133,-0.4362172782421112,0.0024795911740511656,0.004005493130534887,0.011635004542768002,0.03490501269698143,0.06198977679014206,0.4631138741970062,0.01235993206501007,-0.006502782925963402,0.4747292101383209,0.003936555236577988,0.021166404709219933,-0.07516902685165405,-0.37595510482788086,-0.022628478705883026,0.03781764954328537,-0.41318291425704956,0.012693896889686584,0.005910947453230619,0.008267359808087349,0.0,0.0,1.266700029373169,0.32855896831113596,0.2193446921396129,0.758531852401694,-0.01645623132133034,-0.04435002800451615,-0.03198508424815838,0.3704352949233759,-0.24408123331576093,0.7931691654723347,-0.007390415397112715,-0.11595443142806339,-0.034345774938018714,0.4718841314315796,0.004410131834447384,-0.002861066721379757,0.46253910660743713,-0.005912871100008488,0.008964675478637218,-0.071908138692379,-0.40208899974823,-0.009012009017169476,0.026512550190091133,-0.4362172782421112,0.0024795911740511656,0.004005493130534887,0.011635004542768002
40,0,0.4718841314315796,0.008628519251942635,-0.0036240178160369396,0.46253910660743713,-0.005912871100008488,0.01125352829694748,-0.0722896158695221,-0.38981732726097107,-0.009778988547623158,0.032616160809993744,-0.42820629477500916,0.002861066721379757,0.0036240178160369396,0.01125352829694748,0.03490501269698143,0.06198977679014206,0.4631914794445038,0.012078158557415009,-0.008912218734622002,0.4749545156955719,0.0015617570606991649,0.022467350587248802,-0.07615315914154053,-0.3639492094516754,-0.02479119598865509,0.03834099322557449,-0.40923401713371277,0.013961628079414368,0.004021092783659697,0.0038736332207918167,0.0,0.0,1.2999999523162842,0.3285763333262651,0.21913194571983272,0.758588353954935,-0.01645987276059424,-0.044112384123085935,-0.03193863967317556,0.3748151900165647,-0.24396658717528966,0.7950235355690427,-0.010635984197237214,-0.11500214684122545,-0.031159612355549537,0.4718841314315796,0.008628519251942635,-0.0036240178160369396,0.46253910660743713,-0.005912871100008488,0.01125352829694748,-0.0722896158695221,-0.38981732726097107,-0.009778988547623158,0.032616160809993744,-0.42820629477500916,0.002861066721379757,0.0036240178160369396,0.01125352829694748
41,0,0.4715006351470947,0.009778988547623158,-0.004005493130534887,0.46253910660743713,-0.005531395319849253,0.011635004542768002,-0.0722896158695221,-0.3802300691604614,-0.013230396434664726,0.032616160809993744,-0.4217212200164795,0.006294346414506435,0.0032425422687083483,0.008964675478637218,0.03490501269698143,0.06198977679014206,0.4644280970096588,0.012327561154961586,-0.010874567553400993,0.47570860385894775,0.0008567533222958446,0.02206180803477764,-0.07675328850746155,-0.3591395616531372,-0.02413301169872284,0.03648167476058006,-0.40756097435951233,0.011166825890541077,0.0051580811850726604,0.0033852923661470413,0.0,0.0,1.333299994468689,0.3286288963584031,0.21907582765586242,0.7585730080937549,-0.016539055447907458,-0.04369602097855818,-0.032048404272126074,0.3767600442375707,-0.24386126830866767,0.7957055442003755,-0.013228126940235008,-0.11431854194170965,-0.029920945379482866,0.4715006351470947,0.009778988547623158,-0.004005493130534887,0.46253910660743713,-0.005531395319849253,0.011635004542768002,-0.0722896158695221,-0.3802300691604614,-0.013230396434664726,0.032616160809993744,-0.4217212200164795,0.006294346414506435,0.0032425422687083483,0.008964675478637218
42,0,0.46919968724250793,0.009395498782396317,-0.004005493130534887,0.46253910660743713,-0.005912871100008488,0.013160906732082367,-0.07267109304666519,-0.3691088855266571,-0.017065294086933136,0.032616160809993744,-0.41561761498451233,0.00667582219466567,0.002861066721379757,0.004386968910694122,0.03490501269698143,0.06198977679014206,0.46589943766593933,0.011907732114195824,-0.012552356347441673,0.4745422303676605,0.0002939066325780004,0.02214129827916622,-0.0794217586517334,-0.35911932587623596,-0.02395298331975937,0.03511904925107956,-0.4058310091495514,0.009119465947151184,0.005754448007792234,0.004612879827618599,0.0,0.0,1.3667000532150269,0.3286290000095252,0.21907566448282775,0.7585744027795014,-0.01653905355885321,-0.04369559284494784,-0.03204837126110416,0.3767743085174469,-0.24386030689021407,0.7957030082180877,-0.013228331360267465,-0.1143181165019187,-0.029921382268113028,0.46919968724250793,0.009395498782396317,-0.004005493130534887,0.46253910660743713,-0.005912871100008488,0.013160906732082367,-0.07267109304666519,-0.3691088855266571,-0.017065294086933136,0.032616160809993744,-0.41561761498451233,0.00667582219466567,0.002861066721379757,0.004386968910694122
43,0,0.467282235622406,0.009395498782396317,-0.005912871100008488,0.46253910660743713,-0.005912871100008488,0.015449759550392628,-0.07267109304666519,-0.35760417580604553,-0.017448782920837402,0.032616160809993744,-0.41218432784080505,0.007057297509163618,0.002861066721379757,0.0036240178160369396,0.03490501269698143,0.06198977679014206,0.4668334424495697,0.010752426460385323,-0.014675954356789589,0.4723493158817291,-0.0017119386466220021,0.023165347054600716,-0.08235856890678406,-0.3616054058074951,-0.024994298815727234,0.03436242789030075,-0.40459123253822327,0.008940503001213074,0.004727713298052549,0.005793707445263863,0.0,0.0,1.399999976158142,0.3286289903511004,0.2190756427180024,0.7585744156672292,-0.016539052016919964,-0.04369555992246754,-0.03204836957225243,0.37677446712369755,-0.24386032313526637,0.7957028718946367,-0.013228331996197884,-0.11431815268340983,-0.0299213829710685,0.467282235622406,0.009395498782396317,-0.005912871100008488,0.46253910660743713,-0.005912871100008488,0.015449759550392628,-0.07267109304666519,-0.35760417580604553,-0.017448782920837402,0.032616160809993744,-0.41218432784080505,0.007057297509163618,0.002861066721379757,0.0036240178160369396
44,0,0.46574828028678894,0.009395498782396317,-0.007438773289322853,0.46253910660743713,-0.005912871100008488,0.015449759550392628,-0.07381551712751389,-0.35415276885032654,-0.017448782920837402,0.032616160809993744,-0.41218432784080505,0.00667582219466567,0.002861066721379757,0.004005493130534887,0.03490501269698143,0.06198977679014206,0.4650268852710724,0.01001315750181675,-0.014742391183972359,0.4734973907470703,-0.001354251173324883,0.020692506805062294,-0.07775762677192688,-0.3447515368461609,-0.02486838400363922,0.030652586370706558,-0.4018276631832123,0.007943794131278992,0.0034906785003840923,-0.003122074529528618,0.0,0.0,1.4333000183105469,0.32905226795693276,0.2186815825823194,0.7587396581220309,-0.01714060926503569,-0.043691878697348585,-0.031456419824511084,0.3893136440566064,-0.2431932387113651,0.7998699419109537,-0.017315304608487292,-0.11133915449192378,-0.018273242230863573,0.46574828028678894,0.009395498782396317,-0.007438773289322853,0.46253910660743713,-0.005912871100008488,0.015449759550392628,-0.07381551712751389,-0.35415276885032654,-0.017448782920837402,0.032616160809993744,-0.41218432784080505,0.00667582219466567,0.002861066721379757,0.004005493130534887
45,0,0.4653647840023041,0.009395498782396317,-0.009727626107633114,0.46253910660743713,-0.005912871100008488,0.01583123579621315,-0.07801175117492676,-0.35491976141929626,-0.017448782920837402,0.032616160809993744,-0.41218432784080505,0.00667582219466567,0.002861066721379757,0.004005493130534887,0.03490501269698143,0.06198977679014206,0.4654662311077118,0.01074240542948246,-0.015243520960211754,0.4749631881713867,-0.000556293991394341,0.01965310238301754,-0.07666739821434021,-0.33677351474761963,-0.023347511887550354,0.02952561527490616,-0.3992399573326111,0.005230828654021025,0.0056907678954303265,-0.0044647883623838425,0.0,0.0,1.4666999578475952,0.329271676118855,0.21849616218063006,0.7588053616125527,-0.016812085700621537,-0.04340251081087354,-0.031145636826390266,0.3945117992862722,-0.24334053562067376,0.802324332056415,-0.011368112727173418,-0.11228483378320986,-0.019537798920112426,0.4653647840023041,0.009395498782396317,-0.009727626107633114,0.46253910660743713,-0.005912871100008488,0.01583123579621315,-0.07801175117492676,-0.35491976141929626,-0.017448782920837402,0.032616160809993744,-0.41218432784080505,0.00667582219466567,0.002861066721379757,0.004005493130534887
46,0,0.4653647840023041,0.009395498782396317,-0.011635004542768002,0.46253910660743713,-0.006294346414506435,0.01583123579621315,-0.07877469807863235,-0.3533858060836792,-0.017448782920837402,0.032616160809993744,-0.41065841913223267,0.006294346414506435,0.002861066721379757,-0.000572213320992887,0.03490501269698143,0.06198977679014206,0.4659900367259979,0.010623138397932053,-0.015896474942564964,0.47579526901245117,0.00036191553226672113,0.017942791804671288,-0.0763990581035614,-0.3295251131057739,-0.022691935300827026,0.0282643623650074,-0.3968675136566162,0.003094180952757597,0.006688288878649473,-0.0063281189650297165,0.0,0.0,1.5,0.32945935636923207,0.2185936031560444,0.7590184760896391,-0.017499015711042176,-0.04436198081177123,-0.029486071302861294,0.39869309459734825,-0.24330176840341716,0.8046801342509825,-0.009029588933176846,-0.11461573213872223,-0.017793228245243764,0.4653647840023041,0.009395498782396317,-0.011635004542768002,0.46253910660743713,-0.006294346414506435,0.01583123579621315,-0.07877469807863235,-0.3533858060836792,-0.017448782920837402,0.032616160809993744,-0.41065841913223267,0.006294346414506435,0.002861066721379757,-0.000572213320992887
47,0,0.4649813175201416,0.009395498782396317,-0.011635004542768002,0.46253910660743713,-0.006294346414506435,0.01583123579621315,-0.07877469807863235,-0.3453325033187866,-0.017448782920837402,0.03147173300385475,-0.4079881012439728,0.005912871100008488,0.002861066721379757,-0.0013351644156500697,0.03490501269698143,0.06198977679014206,0.46484681963920593,0.011229611933231354,-0.017037635669112206,0.4775680899620056,-0.001389954355545342,0.0171447042375803,-0.07260176539421082,-0.3205459415912628,-0.021864183247089386,0.027211695909500122,-0.39432063698768616,0.002498223911970854,0.0072606648318469524,-0.009001029655337334,0.0,0.0,1.5333000421524048,0.3296863048618608,0.2186786832171482,0.7589452224407678,-0.017535003088223533,-0.04295287890833688,-0.028546779210439244,0.40167053067832836,-0.2435039561432263,0.8061149241436477,-0.009968265327487735,-0.1159318911385725,-0.018078889484975935,0.4649813175201416,0.009395498782396317,-0.011635004542768002,0.46253910660743713,-0.006294346414506435,0.01583123579621315,-0.07877469807863235,-0.3453325033187866,-0.017448782920837402,0.03147173300385475,-0.4079881012439728,0.005912871100008488,0.002861066721379757,-0.0013351644156500697
48,0,0.46459782123565674,0.009395498782396317,-0.011635004542768002,0.46253910660743713,-0.005912871100008488,0.01583123579621315,-0.07839322835206985,-0.33229386806488037,-0.017448782920837402,0.03147173300385475,-0.404173344373703,0.005531395319849253,0.002861066721379757,-0.004386968910694122,0.03490501269698143,0.06198977679014206,0.463593453168869,0.011516734957695007,-0.01734832115471363,0.4775767922401428,-0.0020044485572725534,0.017237095162272453,-0.07139992713928223,-0.3185557723045349,-0.022233501076698303,0.02723672240972519,-0.39371630549430847,0.0029099727980792522,0.006716571282595396,-0.009859872981905937,0.0,0.0,1.5666999816894531,0.32970484026313773,0.218671568315985,0.758974916139228,-0.01753434722973557,-0.04293977228680257,-0.028543565925105874,0.40183591373366556,-0.24345937621639624,0.8060763704621956,-0.009980683565876891,-0.1159350344906187,-0.018096802532627798,0.46459782123565674,0.009395498782396317,-0.011635004542768002,0.46253910660743713,-0.005912871100008488,0.01583123579621315,-0.07839322835206985,-0.33229386806488037,-0.017448782920837402,0.03147173300385475,-0.404173344373703,0.005531395319849253,0.002861066721379757,-0.004386968910694122
49,0,0.46459782123565674,0.009395498782396317,-0.011635004542768002,0.46253910660743713,-0.006294346414506435,0.01583123579621315,-0.07801175117492676,-0.3253910541534424,-0.017448782920837402,0.03147173300385475,-0.403410404920578,0.005149920005351305,0.002861066721379757,-0.005149920005351305,0.03490501269698143,0.06198977679014206,0.461149126291275,0.011701742187142372,-0.0175818782299757,0.47702914476394653,-0.003956381231546402,0.016900798305869102,-0.06701064109802246,-0.3020651042461395,-0.02109052985906601,0.02602509781718254,-0.38588181138038635,0.0026353741995990276,0.007907568477094173,-0.013177795335650444,0.0,0.0,1.600000023841858,0.32985699422186626,0.2185352306672793,0.7591850808253925,-0.017758930705324527,-0.04257654874606054,-0.028544110302521464,0.40643739084370434,-0.24383257300065492,0.8070447639107975,-0.01160584906927209,-0.11812025097936374,-0.020491824887579835,0.46459782123565674,0.009395498782396317,-0.011635004542768002,0.46253910660743713,-0.006294346414506435,0.01583123579621315,-0.07801175117492676,-0.3253910541534424,-0.017448782920837402,0.03147173300385475,-0.403410404920578,0.005149920005351305,0.002861066721379757,-0.005149920005351305
50,0,0.46459782123565674,0.009395498782396317,-0.011635004542768002,0.46253910660743713,-0.006294346414506435,0.01583123579621315,-0.07610437273979187,-0.31887170672416687,-0.017448782920837402,0.03147173300385475,-0.4030289053916931,0.005149920005351305,0.002861066721379757,-0.0078202486038208,0.03490501269698143,0.06198977679014206,0.45576003193855286,0.010999022051692009,-0.016092272475361824,0.4790843427181244,-0.00915447250008583,0.01669652946293354,-0.05258282646536827,-0.26581665873527527,-0.017413824796676636,0.024475689977407455,-0.36929410696029663,0.007145300041884184,0.009729227982461452,-0.024721307680010796,0.0,0.0,1.6332999467849731,0.3301803431435613,0.21841600586095206,0.7592140865253949,-0.01794436400452959,-0.04097933921479102,-0.028705612595534724,0.41049369317364837,-0.24448148673431955,0.8071551396669694,-0.016557619344065966,-0.12036954030824898,-0.02500479818676693,0.46459782123565674,0.009395498782396317,-0.011635004542768002,0.46253910660743713,-0.006294346414506435,0.01583123579621315,-0.07610437273979187,-0.31887170672416687,-0.017448782920837402,0.03147173300385475,-0.4030289053916931,0.005149920005351305,0.002861066721379757,-0.0078202486038208
51,0,0.46459782123565674,0.009395498782396317,-0.011635004542768002,0.46253910660743713,-0.00667582219466567,0.015449759550392628,-0.0715266615152359,-0.3104349374771118,-0.017065294086933136,0.03147173300385475,-0.39654383063316345,0.005149920005351305,0.002861066721379757,-0.008201723918318748,0.03490501269698143,0.06198977679014206,0.4534215033054352,0.010770222172141075,-0.014488106593489647,0.4805481731891632,-0.009844306856393814,0.01588074304163456,-0.04591384157538414,-0.2505244016647339,-0.01568210870027542,0.02448076754808426,-0.3625704348087311,0.00890369713306427,0.01093276496976614,-0.030479086562991142,0.0,0.0,1.666700005531311,0.33022121354976885,0.21834909328086305,0.759319546501522,-0.017886892498365725,-0.04106784650527562,-0.02875046703706685,0.4119512892222321,-0.24480130512543707,0.8070804485633387,-0.015480804327391517,-0.11916361984670942,-0.027380387523780136,0.46459782123565674,0.009395498782396317,-0.011635004542768002,0.46253910660743713,-0.00667582219466567,0.015449759550392628,-0.0715266615152359,-0.3104349374771118,-0.017065294086933136,0.03147173300385475,-0.39654383063316345,0.005149920005351305,0.002861066721379757,-0.008201723918318748
52,0,0.46344736218452454,0.009395498782396317,-0.011635004542768002,0.46253910660743713,-0.007438773289322853,0.015449759550392628,-0.06160829961299896,-0.2866585850715637,-0.017065294086933136,0.03147173300385475,-0.3732738196849823,0.005149920005351305,0.0032425422687083483,-0.01888304017484188,0.03490501269698143,0.06198977679014206,0.4434073865413666,0.010545944795012474,-0.007961263880133629,0.48385119438171387,-0.009746048599481583,0.013036606833338737,-0.024026988074183464,-0.19766685366630554,-0.009428885765373707,0.025240331888198853,-0.34160128235816956,0.016012176871299744,0.014424948953092098,-0.054884448647499084,0.0,0.0,1.7000000476837158,0.33040413910061733,0.21810617282324976,0.7595912857004411,-0.017188127349107685,-0.04179843318986931,-0.028914098135697675,0.41579269703457933,-0.24583185750771572,0.8071633932526493,-0.005208729251312771,-0.1135743591406686,-0.03204599547201781,0.46344736218452454,0.009395498782396317,-0.011635004542768002,0.46253910660743713,-0.007438773289322853,0.015449759550392628,-0.06160829961299896,-0.2866585850715637,-0.017065294086933136,0.03147173300385475,-0.3732738196849823,0.005149920005351305,0.0032425422687083483,-0.01888304017484188
53,0,0.456928014755249,0.009395498782396317,-0.01125352829694748,0.46253910660743713,-0.0078202486038208,0.015449759550392628,-0.05207141116261482,-0.2552124261856079,-0.01668180339038372,0.03147173300385475,-0.3561074137687683,0.005912871100008488,0.0036240178160369396,-0.03452353551983833,0.03490501269698143,0.06198977679014206,0.4374484121799469,0.011238016188144684,-0.004841012880206108,0.4840143322944641,-0.008141908794641495,0.012126730754971504,-0.016130326315760612,-0.17270538210868835,-0.007336859591305256,0.026014216244220734,-0.3320225775241852,0.018960818648338318,0.015379919670522213,-0.06619612872600555,0.0,0.0,1.733299970626831,0.3304495155937406,0.21801905302945596,0.7598849220928754,-0.016376387379219093,-0.043940365428533745,-0.029184665763241302,0.4179460057360609,-0.24641508119748515,0.8072487114123402,-0.00041662347192072957,-0.11343480969958097,-0.03440805635117661,0.456928014755249,0.009395498782396317,-0.01125352829694748,0.46253910660743713,-0.0078202486038208,0.015449759550392628,-0.05207141116261482,-0.2552124261856079,-0.01668180339038372,0.03147173300385475,-0.3561074137687683,0.005912871100008488,0.0036240178160369396,-0.03452353551983833
54,0,0.4523261487483978,0.009395498782396317,-0.011635004542768002,0.46368351578712463,-0.008201723918318748,0.014686808921396732,-0.03490501269698143,-0.22683417797088623,-0.016298314556479454,0.02994582988321781,-0.35076677799224854,0.0078202486038208,0.0036240178160369396,-0.04901960864663124,0.03490501269698143,0.06198977679014206,0.43145057559013367,0.011685967445373535,-0.0033770110458135605,0.48378950357437134,-0.008387777954339981,0.011511867865920067,-0.00881570391356945,-0.14989112317562103,-0.0061844224110245705,0.02684866264462471,-0.3226066827774048,0.02216382324695587,0.015507153235375881,-0.07677294313907623,0.0,0.0,1.766700029373169,0.3305270190577234,0.2180568749142574,0.7600921952435139,-0.016037295438586785,-0.045634319545514224,-0.029014740069380096,0.42081702830633183,-0.24713252634334062,0.8074159856788737,0.0009136139340619742,-0.11311850782975919,-0.037152928802035134,0.4523261487483978,0.009395498782396317,-0.011635004542768002,0.46368351578712463,-0.008201723918318748,0.014686808921396732,-0.03490501269698143,-0.22683417797088623,-0.016298314556479454,0.02994582988321781,-0.35076677799224854,0.0078202486038208,0.0036240178160369396,-0.04901960864663124
55,0,0.4438893795013428,0.009395498782396317,-0.010490577667951584,0.4640650153160095,-0.0078202486038208,0.01506828423589468,-0.02193484455347061,-0.17391259968280792,-0.012846906669437885,0.02880140393972397,-0.33283740282058716,0.01430533267557621,0.004386968910694122,-0.06198977679014206,0.03490501269698143,0.06198977679014206,0.4282793402671814,0.012264415621757507,-0.0011863467516377568,0.48446977138519287,-0.008267436176538467,0.011779390275478363,-0.003916678484529257,-0.12967586517333984,-0.0045386189594864845,0.02740255370736122,-0.3140240013599396,0.02404947578907013,0.01696004718542099,-0.08485846221446991,0.0,0.0,1.7999999523162842,0.33062798597655907,0.21812757850822095,0.760229324604074,-0.016144956037476454,-0.046269169659055365,-0.028230628408251857,0.42279240813636587,-0.2475934788819436,0.8073802787810531,0.002476582934555882,-0.11222689278411524,-0.03815198620155469,0.4438893795013428,0.009395498782396317,-0.010490577667951584,0.4640650153160095,-0.0078202486038208,0.01506828423589468,-0.02193484455347061,-0.17391259968280792,-0.012846906669437885,0.02880140393972397,-0.33283740282058716,0.01430533267557621,0.004386968910694122,-0.06198977679014206
56,0,0.43430212140083313,0.009012009017169476,-0.00858320016413927,0.464446485042572,-0.0078202486038208,0.014686808921396732,-0.01773861236870289,-0.14054898917675018,-0.013230396434664726,0.02880140393972397,-0.33169299364089966,0.01735713705420494,0.004005493130534887,-0.0715266615152359,0.03490501269698143,0.06198977679014206,0.42505162954330444,0.01185920275747776,-0.0011790153803303838,0.48685288429260254,-0.011493030935525894,0.011441301554441452,0.006092938128858805,-0.10584917664527893,-0.0023298568557947874,0.026277821511030197,-0.3041287660598755,0.025682702660560608,0.01833125203847885,-0.09452326595783234,0.0,0.0,1.833299994468689,0.3307256564734629,0.21826121257018474,0.760295862660818,-0.016375103808440095,-0.0465714380609743,-0.027021141728861053,0.4244991009305076,-0.24776815004307792,0.8073915916476245,0.0027182597690909027,-0.11267819971444126,-0.03720928356140618,0.43430212140083313,0.009012009017169476,-0.00858320016413927,0.464446485042572,-0.0078202486038208,0.014686808921396732,-0.01773861236870289,-0.14054898917675018,-0.013230396434664726,0.02880140393972397,-0.33169299364089966,0.01735713705420494,0.004005493130534887,-0.0715266615152359
57,0,0.42970025539398193,0.009395498782396317,-0.00858320016413927,0.464446485042572,-0.0078202486038208,0.014686808921396732,-0.010490577667951584,-0.12712684273719788,-0.012846906669437885,0.02841992862522602,-0.3282597064971924,0.018120087683200836,0.004386968910694122,-0.07877469807863235,0.03490501269698143,0.06198977679014206,0.42343196272850037,0.011260567232966423,-0.0013762322487309575,0.48809581995010376,-0.013452325016260147,0.010585583746433258,0.012313159182667732,-0.08520551025867462,-0.0003131188568659127,0.024987250566482544,-0.2941436171531677,0.025635048747062683,0.0202663391828537,-0.10078595578670502,0.0,0.0,1.8667000532150269,0.3308551127772823,0.21835134246151908,0.7603871740535142,-0.0167252955218129,-0.04658336190710566,-0.026105552309100943,0.42729704439707716,-0.24838744351309236,0.8068784964833342,-0.0024673309075140537,-0.11255196737250417,-0.036269060440248246,0.42970025539398193,0.009395498782396317,-0.00858320016413927,0.464446485042572,-0.0078202486038208,0.014686808921396732,-0.010490577667951584,-0.12712684273719788,-0.012846906669437885,0.02841992862522602,-0.3282597064971924,0.018120087683200836,0.004386968910694122,-0.07877469807863235
58,0,0.42739930748939514,0.009395498782396317,-0.00858320016413927,0.464446485042572,-0.009727626107633114,0.014686808921396732,-0.0013351644156500697,-0.11830658465623856,-0.012846906669437885,0.02880140393972397,-0.3118562698364258,0.02040894143283367,0.004386968910694122,-0.0883115902543068,0.03490501269698143,0.06198977679014206,0.4253811240196228,0.010935688391327858,-0.0005498883547261357,0.49266740679740906,-0.011202845722436905,0.009765217080712318,0.014744998887181282,-0.07279404997825623,0.0019375116098672152,0.0257854126393795,-0.28610193729400635,0.02364499866962433,0.024211876094341278,-0.10429199039936066,0.0,0.0,1.899999976158142,0.3308420138148337,0.2184143976880849,0.7606673850432772,-0.01553440305829401,-0.04773625985321761,-0.02577905532033009,0.4305119033737729,-0.24986974808973592,0.8055474300114498,-0.0014892940972113244,-0.10781759178778705,-0.04117999205698242,0.42739930748939514,0.009395498782396317,-0.00858320016413927,0.464446485042572,-0.009727626107633114,0.014686808921396732,-0.0013351644156500697,-0.11830658465623856,-0.012846906669437885,0.02880140393972397,-0.3118562698364258,0.02040894143283367,0.004386968910694122,-0.0883115902543068
59,0,0.4270158112049103,0.009395498782396317,-0.00858320016413927,0.464446485042572,-0.010872052982449532,0.014686808921396732,0.00476844422519207,-0.09951558709144592,-0.012846906669437885,0.02880140393972397,-0.28744181990623474,0.02079041674733162,0.005912871100008488,-0.10204470902681351,0.03490501269698143,0.06198977679014206,0.4267757534980774,0.010452263057231903,0.00012424019223544747,0.4964226186275482,-0.00897175446152687,0.008901834487915039,0.016302289441227913,-0.06297016143798828,0.003828018205240369,0.02739771455526352,-0.2798515558242798,0.02264280617237091,0.027547381818294525,-0.11006598174571991,0.0,0.0,1.9333000183105469,0.33081050844133486,0.2184100188443592,0.7607472242509585,-0.015133615953882629,-0.04836351614501977,-0.025824065036113897,0.4319413338567427,-0.2506508679701946,0.8047482201140409,0.006184877852116966,-0.10233913401318873,-0.04142205649217967,0.4270158112049103,0.009395498782396317,-0.00858320016413927,0.464446485042572,-0.010872052982449532,0.014686808921396732,0.00476844422519207,-0.09951558709144592,-0.012846906669437885,0.02880140393972397,-0.28744181990623474,0.02079041674733162,0.005912871100008488,-0.10204470902681351
60,0,0.42624884843826294,0.009395498782396317,-0.00858320016413927,0.464446485042572,-0.010490577667951584,0.014686808921396732,0.00858320016413927,-0.08225855231285095,-0.012079927138984203,0.02880140393972397,-0.28553444147109985,0.02079041674733162,0.011635004542768002,-0.1028076633810997,0.03490501269698143,0.06198977679014206,0.42654314637184143,0.010009679943323135,-0.0011562240542843938,0.4978766441345215,-0.00958779826760292,0.008391812443733215,0.017993899062275887,-0.04985770583152771,0.00546968262642622,0.028644852340221405,-0.2698516249656677,0.02108617126941681,0.031151510775089264,-0.11486859619617462,0.0,0.0,1.9666999578475952,0.3307678032633111,0.21852696383730688,0.7609431103278522,-0.014636867202532322,-0.04959056654266325,-0.025406002869605704,0.43570452650455804,-0.2529207560842983,0.8026576144616617,0.008852355298035075,-0.09357409189617849,-0.04846263628025271,0.42624884843826294,0.009395498782396317,-0.00858320016413927,0.464446485042572,-0.010490577667951584,0.014686808921396732,0.00858320016413927,-0.08225855231285095,-0.012079927138984203,0.02880140393972397,-0.28553444147109985,0.02079041674733162,0.011635004542768002,-0.1028076633810997
61,0,0.4266323447227478,0.009395498782396317,-0.00858320016413927,0.4686427116394043,-0.010872052982449532,0.01430533267557621,0.011635004542768002,-0.06423453241586685,-0.008628519251942635,0.02880140393972397,-0.28553444147109985,0.02040894143283367,0.01506828423589468,-0.10662241280078888,0.03490501269698143,0.06198977679014206,0.42687124013900757,0.00892348401248455,-0.004165006801486015,0.4960622191429138,-0.011959347873926163,0.007790604140609503,0.01587003655731678,-0.04016263782978058,0.0056765032932162285,0.02920040488243103,-0.26057642698287964,0.019161447882652283,0.0334223136305809,-0.1149444431066513,0.0,0.0,2.0,0.33083992752134805,0.2189425948134278,0.7611461935038683,-0.01595499506675635,-0.05072688458455055,-0.022284797260348377,0.43946019950050524,-0.25495545657734714,0.8003524427257315,0.0011559263722724644,-0.09022602320738171,-0.05363116222162345,0.4266323447227478,0.009395498782396317,-0.00858320016413927,0.4686427116394043,-0.010872052982449532,0.01430533267557621,0.011635004542768002,-0.06423453241586685,-0.008628519251942635,0.02880140393972397,-0.28553444147109985,0.02040894143283367,0.01506828423589468,-0.10662241280078888
62,0,0.4266323447227478,0.009395498782396317,-0.00858320016413927,0.47512778639793396,-0.010490577667951584,0.013542382046580315,0.011635004542768002,-0.053496818989515305,-0.004026642069220543,0.02880140393972397,-0.2813382148742676,0.02040894143283367,0.016594186425209045,-0.10967422276735306,0.03490501269698143,0.06198977679014206,0.42453891038894653,0.008908383548259735,-0.0040952544659376144,0.4953956604003906,-0.012180481106042862,0.007332568522542715,0.016374977305531502,-0.03816977143287659,0.004550370387732983,0.030217833817005157,-0.25921788811683655,0.020873650908470154,0.03216797858476639,-0.11752457916736603,0.0,0.0,2.0332999229431152,0.3308635604709337,0.21902638376703604,0.7611699599238266,-0.01644146128368451,-0.050843896278616185,-0.021203748853449778,0.4411032176575486,-0.2557111770840582,0.7993127788653734,0.004774192910616648,-0.08543648645436042,-0.05350883446736887,0.4266323447227478,0.009395498782396317,-0.00858320016413927,0.47512778639793396,-0.010490577667951584,0.013542382046580315,0.011635004542768002,-0.053496818989515305,-0.004026642069220543,0.02880140393972397,-0.2813382148742676,0.02040894143283367,0.016594186425209045,-0.10967422276735306
63,0,0.4266323447227478,0.009395498782396317,-0.00858320016413927,0.47703516483306885,-0.010872052982449532,0.010109102353453636,0.01125352829694748,-0.04467655345797539,0.00019174486806150526,0.02841992862522602,-0.2660791873931885,0.020027466118335724,0.01926451548933983,-0.11120012402534485,0.03490501269698143,0.06198977679014206,0.4217863380908966,0.008235415443778038,-0.002202337607741356,0.49537214636802673,-0.008806351572275162,0.0041726320050656796,0.016484471037983894,-0.03001004457473755,0.00414701085537672,0.032410942018032074,-0.2533780634403229,0.02232171595096588,0.032494209706783295,-0.1261124461889267,0.0,0.0,2.066699981689453,0.33086807214345815,0.21904056821439974,0.7613329092777037,-0.016321729692723608,-0.051272824990830745,-0.019930990950621563,0.4453990989195274,-0.25780251355033734,0.7965846419655189,0.014051874936013231,-0.06815675332056825,-0.051339343124833015,0.4266323447227478,0.009395498782396317,-0.00858320016413927,0.47703516483306885,-0.010872052982449532,0.010109102353453636,0.01125352829694748,-0.04467655345797539,0.00019174486806150526,0.02841992862522602,-0.2660791873931885,0.020027466118335724,0.01926451548933983,-0.11120012402534485
64,0,0.4266323447227478,0.009395498782396317,-0.00858320016413927,0.47741663455963135,-0.010872052982449532,0.008964675478637218,0.011635004542768002,-0.04352608695626259,0.0009587243548594415,0.02880140393972397,-0.2611200213432312,0.020027466118335724,0.01926451548933983,-0.11577782779932022,0.03490501269698143,0.06198977679014206,0.42207926511764526,0.008116098120808601,-0.001848517102189362,0.49537986516952515,-0.007104102522134781,0.00325373699888587,0.014498891308903694,-0.02228495478630066,0.004890273325145245,0.033236678689718246,-0.24636812508106232,0.020826593041419983,0.034973420202732086,-0.1292509287595749,0.0,0.0,2.0999999046325684,0.3307213836645334,0.21884798448446588,0.761565036132018,-0.014710242449190947,-0.053690986956784315,-0.020286248073237978,0.44939779654673107,-0.25958179585850194,0.7944843847672102,0.011477917356250256,-0.05755553263778035,-0.05388933590779166,0.4266323447227478,0.009395498782396317,-0.00858320016413927,0.47741663455963135,-0.010872052982449532,0.008964675478637218,0.011635004542768002,-0.04352608695626259,0.0009587243548594415,0.02880140393972397,-0.2611200213432312,0.020027466118335724,0.01926451548933983,-0.11577782779932022
65,0,0.42624884843826294,0.009395498782396317,-0.00858320016413927,0.47741663455963135,-0.010490577667951584,0.008201723918318748,0.011635004542768002,-0.04275910556316376,0.0009587243548594415,0.02880140393972397,-0.2607385218143463,0.02040894143283367,0.01926451548933983,-0.12149996310472488,0.03490501269698143,0.06198977679014206,0.4201548397541046,0.007826007902622223,0.0010012107668444514,0.4960384964942932,-0.003427271032705903,0.0010560989612713456,0.014371844008564949,-0.020913779735565186,0.004075049422681332,0.034589555114507675,-0.24601349234580994,0.02335198223590851,0.03349802643060684,-0.13592301309108734,0.0,0.0,2.1333000659942627,0.3306610046911194,0.21883774230256464,0.7616414764849728,-0.014256792915787297,-0.0544484602595432,-0.02007247939362866,0.4519935002851725,-0.26069831459214593,0.7928076987282411,0.027999304432100303,-0.0434076860644832,-0.04718915672970869,0.42624884843826294,0.009395498782396317,-0.00858320016413927,0.47741663455963135,-0.010490577667951584,0.008201723918318748,0.011635004542768002,-0.04275910556316376,0.0009587243548594415,0.02880140393972397,-0.2607385218143463,0.02040894143283367,0.01926451548933983,-0.12149996310472488
66,0,0.42624884843826294,0.009395498782396317,-0.00858320016413927,0.47741663455963135,-0.010490577667951584,0.0078202486038208,0.01125352829694748,-0.038157228380441666,0.0009587243548594415,0.03032730519771576,-0.2595941126346588,0.02040894143283367,0.019645990803837776,-0.12493324279785156,0.03490501269698143,0.06198977679014206,0.4215356111526489,0.007239580620080233,0.002560289576649666,0.4965692460536957,5.64715446671471e-05,-0.0005079642287455499,0.013225199654698372,-0.01183267030864954,0.003538563149049878,0.03519131988286972,-0.23639309406280518,0.026497915387153625,0.032452575862407684,-0.14929766952991486,0.0,0.0,2.1666998863220215,0.3305891977569188,0.21886165230623553,0.7616864387798893,-0.013967369424015441,-0.05495398167386645,-0.019779692138100824,0.4548251124306144,-0.261901725223464,0.7911259699451508,0.03019059906212851,-0.030126585973799802,-0.04522587983498916,0.42624884843826294,0.009395498782396317,-0.00858320016413927,0.47741663455963135,-0.010490577667951584,0.0078202486038208,0.01125352829694748,-0.038157228380441666,0.0009587243548594415,0.03032730519771576,-0.2595941126346588,0.02040894143283367,0.019645990803837776,-0.12493324279785156
67,0,0.4258653521537781,0.009395498782396317,-0.00858320016413927,0.47741663455963135,-0.009727626107633114,0.007438773289322853,0.01125352829694748,-0.02626904658973217,0.0009587243548594415,0.030708782374858856,-0.25234606862068176,0.02040894143283367,0.019645990803837776,-0.1329442262649536,0.03490501269698143,0.06198977679014206,0.424076646566391,0.006414307747036219,0.0032116640359163284,0.49678805470466614,0.0033665557857602835,-0.0019978084601461887,0.010639281943440437,-0.0004234396619722247,0.002563218818977475,0.035418059676885605,-0.22386182844638824,0.02963973581790924,0.031132064759731293,-0.1636127382516861,0.0,0.0,2.200000047683716,0.3304595119263554,0.21892020351452193,0.7617333196715901,-0.013892653714846492,-0.055386613706124965,-0.018362031064824258,0.45766388417092413,-0.2634842127377642,0.789703096393572,0.022523756688261454,-0.02111597157507772,-0.0425289014688488,0.4258653521537781,0.009395498782396317,-0.00858320016413927,0.47741663455963135,-0.009727626107633114,0.007438773289322853,0.01125352829694748,-0.02626904658973217,0.0009587243548594415,0.030708782374858856,-0.25234606862068176,0.02040894143283367,0.019645990803837776,-0.1329442262649536
68,0,0.42509838938713074,0.009012009017169476,-0.00667582219466567,0.47741663455963135,-0.007057297509163618,0.004005493130534887,0.01125352829694748,-0.015531334094703197,0.0009587243548594415,0.03185320645570755,-0.24166475236415863,0.02079041674733162,0.019645990803837776,-0.14438849687576294,0.03490501269698143,0.06198977679014206,0.42563506960868835,0.00458961958065629,0.009715037420392036,0.5006697773933411,0.013302233070135117,-0.007487509865313768,0.010719658806920052,0.008948340080678463,0.000805503863375634,0.038207657635211945,-0.2139420509338379,0.03769288957118988,0.027565181255340576,-0.1813497394323349,0.0,0.0,2.233299970626831,0.33039406453453024,0.2189956912739295,0.7618161687072317,-0.013912696643770595,-0.05557466788757548,-0.01752790095434964,0.4595580548364846,-0.26473901260740595,0.7883838360722474,0.037284015911071666,-0.009200519238715898,-0.039125875498494445,0.42509838938713074,0.009012009017169476,-0.00667582219466567,0.47741663455963135,-0.007057297509163618,0.004005493130534887,0.01125352829694748,-0.015531334094703197,0.0009587243548594415,0.03185320645570755,-0.24166475236415863,0.02079041674733162,0.019645990803837776,-0.14438849687576294
69,0,0.42509838938713074,0.009012009017169476,-0.006294346414506435,0.47741663455963135,-0.005912871100008488,0.000572213320992887,0.010872052982449532,-0.007094560191035271,0.0009587243548594415,0.03185320645570755,-0.22755016386508942,0.021171892061829567,0.019645990803837776,-0.15888457000255585,0.03490501269698143,0.06198977679014206,0.42402899265289307,0.0039309547282755375,0.01531434990465641,0.5037099719047546,0.022365566343069077,-0.011568469926714897,0.01161167211830616,0.017234869301319122,-0.0019019402097910643,0.04214973747730255,-0.206483855843544,0.04638229310512543,0.023030057549476624,-0.19732801616191864,0.0,0.0,2.266700029373169,0.3302951446997542,0.21905822289158716,0.7617749554827669,-0.014059861580067778,-0.0555182599749906,-0.016112195941679452,0.46101794203411506,-0.266339322046434,0.7881434322565366,0.04701557897926234,-0.001378736231139932,-0.033867601635650946,0.42509838938713074,0.009012009017169476,-0.006294346414506435,0.47741663455963135,-0.005912871100008488,0.000572213320992887,0.010872052982449532,-0.007094560191035271,0.0009587243548594415,0.03185320645570755,-0.22755016386508942,0.021171892061829567,0.019645990803837776,-0.15888457000255585
70,0,0.42509838938713074,0.009012009017169476,-0.0020981156267225742,0.47779813408851624,0.0024795911740511656,-0.001716639962978661,0.010872052982449532,0.00019174486806150526,0.0009587243548594415,0.03185320645570755,-0.2157244235277176,0.029182879254221916,0.01926451548933983,-0.17566949129104614,0.03490501269698143,0.06198977679014206,0.4223138093948364,0.002974687609821558,0.02127116359770298,0.5065922737121582,0.030764546245336533,-0.015723928809165955,0.013097139075398445,0.020350687205791473,-0.0044203633442521095,0.04534841328859329,-0.20318450033664703,0.055111363530159,0.017810888588428497,-0.20773349702358246,0.0,0.0,2.299999952316284,0.33027502618154425,0.21909849049193608,0.7617429992106935,-0.014588376168747086,-0.05466766565764969,-0.014687262693411807,0.46153316507242664,-0.2674198494440002,0.7885519871675615,0.05744096651427055,0.00037481445305509453,-0.026489405758275186,0.42509838938713074,0.009012009017169476,-0.0020981156267225742,0.47779813408851624,0.0024795911740511656,-0.001716639962978661,0.010872052982449532,0.00019174486806150526,0.0009587243548594415,0.03185320645570755,-0.2157244235277176,0.029182879254221916,0.01926451548933983,-0.17566949129104614
71,0,0.4247148931026459,0.009012009017169476,0.004005493130534887,0.47779813408851624,0.013923857361078262,-0.0078202486038208,0.010872052982449532,0.007861539721488953,0.0009587243548594415,0.03185320645570755,-0.21000228822231293,0.042153049260377884,0.01888304017484188,-0.19245441257953644,0.03490501269698143,0.06198977679014206,0.4246160387992859,0.0013321716105565429,0.025008702650666237,0.5103389024734497,0.035782601684331894,-0.019374068826436996,0.013040633872151375,0.020038895308971405,-0.004602507688105106,0.047368817031383514,-0.20384272933006287,0.056384965777397156,0.01794341951608658,-0.2095620483160019,0.0,0.037802089005708694,2.3333001136779785,0.3302477057487111,0.21924842286446805,0.76169708359643,-0.015825293046711764,-0.05399584422187109,-0.012916526603649281,0.46140878583010214,-0.26824577263110816,0.7893606819103461,0.06202611731330876,-0.00011870710745176538,-0.02532471277371906,0.4247148931026459,0.009012009017169476,0.004005493130534887,0.47779813408851624,0.013923857361078262,-0.0078202486038208,0.010872052982449532,0.007861539721488953,0.0009587243548594415,0.03185320645570755,-0.21000228822231293,0.042153049260377884,0.01888304017484188,-0.19245441257953644
72,0,0.4247148931026459,0.008245029486715794,0.01125352829694748,0.47779813408851624,0.02231631986796856,-0.01125352829694748,0.010872052982449532,0.013997375033795834,0.0005752345896326005,0.03643091395497322,-0.20962081849575043,0.04749370738863945,0.016594186425209045,-0.20389868319034576,0.03490501269698143,0.06198977679014206,0.4211916923522949,0.0003766086301766336,0.028603145852684975,0.5122226476669312,0.03879242762923241,-0.021657319739460945,0.0160141009837389,0.019130468368530273,-0.00743765477091074,0.05133988708257675,-0.20420870184898376,0.0650373250246048,0.012884541414678097,-0.21269427239894867,0.0,0.7305493950843811,2.3666999340057373,0.3302463657100939,0.21947978695463657,0.7615157027488183,-0.017526131949516355,-0.051647419932866256,-0.009882993494544134,0.46089478002500406,-0.2694189962648985,0.7910798823052192,0.07028554126434416,-0.005176999956244099,-0.022788244842055327,0.4247148931026459,0.008245029486715794,0.01125352829694748,0.47779813408851624,0.02231631986796856,-0.01125352829694748,0.010872052982449532,0.013997375033795834,0.0005752345896326005,0.03643091395497322,-0.20962081849575043,0.04749370738863945,0.016594186425209045,-0.20389868319034576
73,0,0.42509838938713074,0.005560601130127907,0.016975661739706993,0.4842832088470459,0.02727550081908703,-0.016212711110711098,0.01125352829694748,0.016298314556479454,0.00019174486806150526,0.038719769567251205,-0.20962081849575043,0.04787518084049225,0.015449759550392628,-0.20771344006061554,0.03490501269698143,0.06237125024199486,0.4181845188140869,-0.001916315988637507,0.03206527978181839,0.5126878023147583,0.04267212375998497,-0.026583446189761162,0.01877814717590809,0.017739146947860718,-0.010925178416073322,0.0526423454284668,-0.20476371049880981,0.07365696132183075,0.005562088917940855,-0.21329008042812347,0.0,1.6553846597671509,2.4000000953674316,0.33026781184200227,0.21959788673855715,0.7614665806409104,-0.01924270014888263,-0.04950323280905078,-0.007134395206066735,0.4598160715664039,-0.26926755589048784,0.7930656409663823,0.07089100175043983,-0.01743349640990699,-0.009643980248855044,0.42509838938713074,0.005560601130127907,0.016975661739706993,0.4842832088470459,0.02727550081908703,-0.016212711110711098,0.01125352829694748,0.016298314556479454,0.00019174486806150526,0.038719769567251205,-0.20962081849575043,0.04787518084049225,0.015449759550392628,-0.20771344006061554
74,0,0.4247148931026459,0.005560601130127907,0.01773861236870289,0.49000534415245056,0.03147173300385475,-0.01735713705420494,0.01125352829694748,0.016298314556479454,0.0005752345896326005,0.04482337832450867,-0.20962081849575043,0.05664911866188049,0.013923857361078262,-0.21114671230316162,0.03490501269698143,0.15430685877799988,0.4159228503704071,-0.0026574409566819668,0.032374195754528046,0.5117295980453491,0.04403078183531761,-0.028110792860388756,0.018676044419407845,0.01906803995370865,-0.013143693096935749,0.0537710040807724,-0.20349600911140442,0.07874621450901031,0.0014069372555240989,-0.2177743762731552,0.0,1.7964835166931152,2.433300018310547,0.3302925190518594,0.2196315695104037,0.7614706072999741,-0.01959928989722881,-0.04906521596406055,-0.006425019887517092,0.46001336710000296,-0.26960994445156167,0.793148817699731,0.0683238653089564,-0.015702937938016248,-0.007989869730430588,0.4247148931026459,0.005560601130127907,0.01773861236870289,0.49000534415245056,0.03147173300385475,-0.01735713705420494,0.01125352829694748,0.016298314556479454,0.0005752345896326005,0.04482337832450867,-0.20962081849575043,0.05664911866188049,0.013923857361078262,-0.21114671230316162
75,0,0.4247148931026459,0.005560601130127907,0.01773861236870289,0.49076828360557556,0.03528648987412453,-0.01926451548933983,0.012397955171763897,0.016298314556479454,-0.0017257038271054626,0.04596780240535736,-0.20923933386802673,0.07038223743438721,0.010109102353453636,-0.21114671230316162,0.03490501269698143,0.4205767810344696,0.4147438406944275,-0.003453365061432123,0.03212491422891617,0.5111322402954102,0.04526921734213829,-0.029599977657198906,0.018017442896962166,0.01842857152223587,-0.014630836434662342,0.054420359432697296,-0.20436055958271027,0.08164568245410919,-0.0014670869568362832,-0.21953479945659637,0.0,1.7999999523162842,2.4667000770568848,0.3303124721160152,0.21965504793157753,0.7615634687636015,-0.020713528585505347,-0.048330070870407305,-0.005447829934072335,0.4598358460120868,-0.26986123810766977,0.7942320210785512,0.06724782130577855,-0.013507225854490823,-0.01080093412769001,0.4247148931026459,0.005560601130127907,0.01773861236870289,0.49076828360557556,0.03528648987412453,-0.01926451548933983,0.012397955171763897,0.016298314556479454,-0.0017257038271054626,0.04596780240535736,-0.20923933386802673,0.07038223743438721,0.010109102353453636,-0.21114671230316162
76,0,0.424331396818161,0.005560601130127907,0.01773861236870289,0.49076828360557556,0.035667963325977325,-0.022697795182466507,0.01506828423589468,0.016298314556479454,-0.00671107042580843,0.04596780240535736,-0.20923933386802673,0.07343403995037079,0.0032425422687083483,-0.2145799994468689,0.03490501269698143,0.6929503083229065,0.41321873664855957,-0.003920210991054773,0.03248095512390137,0.511056661605835,0.047294434159994125,-0.031040756031870842,0.01748061366379261,0.01852264255285263,-0.015963144600391388,0.05565687268972397,-0.20506741106510162,0.08399976789951324,-0.0036657308228313923,-0.2193080633878708,0.0,1.7999999523162842,2.5,0.33034455163825027,0.21962041865321044,0.761560778880272,-0.020856536887750465,-0.04781620125030139,-0.005402469025457712,0.4597503603391846,-0.27000442573763367,0.7947879702551234,0.06879558680919029,-0.01375500281546449,-0.010766380406703746,0.424331396818161,0.005560601130127907,0.01773861236870289,0.49076828360557556,0.035667963325977325,-0.022697795182466507,0.01506828423589468,0.016298314556479454,-0.00671107042580843,0.04596780240535736,-0.20923933386802673,0.07343403995037079,0.0032425422687083483,-0.2145799994468689
77,0,0.42394790053367615,0.005560601130127907,0.01773861236870289,0.49076828360557556,0.03833829239010811,-0.026131074875593185,0.01506828423589468,0.016298314556479454,-0.009012009017169476,0.04596780240535736,-0.20923933386802673,0.07381551712751389,0.0020981156267225742,-0.2149614691734314,0.03490501269698143,0.9596017599105835,0.4136500954627991,-0.004890964832156897,0.0315326452255249,0.5103965997695923,0.048291321843862534,-0.03267282620072365,0.01573503203690052,0.018247239291667938,-0.01675579696893692,0.055310122668743134,-0.2064606100320816,0.08399178087711334,-0.0050450642593204975,-0.2201886624097824,0.0,1.7999999523162842,2.5332999229431152,0.33041583356268306,0.21944672728623787,0.7615782792673502,-0.021455172912293374,-0.047505870075020606,-0.006131716096939854,0.45946060684807066,-0.2698374787177446,0.7961900615132232,0.0664052359985079,-0.013833904627115423,-0.0074408472149825045,0.42394790053367615,0.005560601130127907,0.01773861236870289,0.49076828360557556,0.03833829239010811,-0.026131074875593185,0.01506828423589468,0.016298314556479454,-0.009012009017169476,0.04596780240535736,-0.20923933386802673,0.07381551712751389,0.0020981156267225742,-0.2149614691734314
78,0,0.4231809377670288,0.005560601130127907,0.01773861236870289,0.49076828360557556,0.038719769567251205,-0.026131074875593185,0.01506828423589468,0.016298314556479454,-0.009012009017169476,0.04596780240535736,-0.20923933386802673,0.07457847148180008,-0.00019073777366429567,-0.2149614691734314,0.03490501269698143,1.1232547760009766,0.4127219021320343,-0.004298575688153505,0.03058173693716526,0.5099840760231018,0.04710232838988304,-0.0316268652677536,0.015347035601735115,0.016082704067230225,-0.01768478751182556,0.055475637316703796,-0.20987118780612946,0.0835803896188736,-0.005762309301644564,-0.22042347490787506,0.0,1.7999999523162842,2.566699981689453,0.3305441399775196,0.21921965959007872,0.7614247720611453,-0.02204308739109706,-0.04653568509123396,-0.0073186206711479684,0.45909203449708774,-0.2698279682439463,0.797983914213498,0.06158939162648247,-0.01536166634660363,-0.008381129932960807,0.4231809377670288,0.005560601130127907,0.01773861236870289,0.49076828360557556,0.038719769567251205,-0.026131074875593185,0.01506828423589468,0.016298314556479454,-0.009012009017169476,0.04596780240535736,-0.20923933386802673,0.07457847148180008,-0.00019073777366429567,-0.2149614691734314
79,0,0.4197295308113098,0.005560601130127907,0.01773861236870289,0.49076828360557556,0.039101243019104004,-0.026512550190091133,0.01506828423589468,0.016298314556479454,-0.009012009017169476,0.04596780240535736,-0.20923933386802673,0.07724879682064056,-0.0009536888683214784,-0.2153429538011551,0.03490501269698143,1.2533378601074219,0.4114452004432678,-0.004229024518281221,0.029209638014435768,0.5085107088088989,0.04638656601309776,-0.031732067465782166,0.01503107137978077,0.015547743998467922,-0.01834101974964142,0.05492895841598511,-0.21186178922653198,0.08315242826938629,-0.006852865684777498,-0.22086201608181,0.0,1.7999999523162842,2.5999999046325684,0.3306747477204013,0.21911096335921115,0.7613987817937766,-0.02285483224966267,-0.04531860828412837,-0.00746098738152412,0.4588056651490048,-0.26943541829081274,0.7995633487692888,0.05449367586280429,-0.018325414942754303,-0.0043794217827803905,0.4197295308113098,0.005560601130127907,0.01773861236870289,0.49076828360557556,0.039101243019104004,-0.026512550190091133,0.01506828423589468,0.016298314556479454,-0.009012009017169476,0.04596780240535736,-0.20923933386802673,0.07724879682064056,-0.0009536888683214784,-0.2153429538011551
80,0,0.4155111312866211,0.005560601130127907,0.01773861236870289,0.49076828360557556,0.039101243019104004,-0.026512550190091133,0.01506828423589468,0.016298314556479454,-0.009012009017169476,0.04596780240535736,-0.20923933386802673,0.07724879682064056,-0.0009536888683214784,-0.21725031733512878,0.03490501269698143,1.3578622341156006,0.4104051887989044,-0.003882455173879862,0.028864363208413124,0.5081025958061218,0.0462353490293026,-0.03135498985648155,0.01520407386124134,0.015543355606496334,-0.018777064979076385,0.055286116898059845,-0.21251115202903748,0.08362393081188202,-0.007426091004163027,-0.22198723256587982,0.0,1.7999999523162842,2.6333000659942627,0.33070380645296865,0.21901968805618946,0.7614284189541384,-0.023137470026548534,-0.045194362600220916,-0.007959898953469047,0.458806733832014,-0.26945019126156566,0.7998804382383455,0.055070442961861144,-0.017944763965319854,-0.004119805105586849,0.4155111312866211,0.005560601130127907,0.01773861236870289,0.49076828360557556,0.039101243019104004,-0.026512550190091133,0.01506828423589468,0.016298314556479454,-0.009012009017169476,0.04596780240535736,-0.20923933386802673,0.07724879682064056,-0.0009536888683214784,-0.21725031733512878
81,0,0.41512763500213623,0.005560601130127907,0.01773861236870289,0.49076828360557556,0.039101243019104004,-0.026512550190091133,0.01506828423589468,0.016298314556479454,-0.009012009017169476,0.04596780240535736,-0.20923933386802673,0.07724879682064056,-0.001716639962978661,-0.21839475631713867,0.03490501269698143,1.3776988983154297,0.40949687361717224,-0.00336028216406703,0.028581278398633003,0.5079758763313293,0.04573836550116539,-0.03057701513171196,0.01554313488304615,0.014578267000615597,-0.019160456955432892,0.055653512477874756,-0.2139890491962433,0.08374489843845367,-0.007729158271104097,-0.2219589501619339,0.0,1.7999999523162842,2.6666998863220215,0.3308026581247518,0.21888055216171992,0.7614186868385092,-0.023188480997564653,-0.04466120170728782,-0.009114916145126717,0.4586713244241578,-0.26938320614871664,0.8008917790098926,0.05610204915854489,-0.01964716768119512,-0.004699507004787051,0.41512763500213623,0.005560601130127907,0.01773861236870289,0.49076828360557556,0.039101243019104004,-0.026512550190091133,0.01506828423589468,0.016298314556479454,-0.009012009017169476,0.04596780240535736,-0.20923933386802673,0.07724879682064056,-0.001716639962978661,-0.21839475631713867
