gaodalingithub/END2JOINT/ik_net/save_real/0618_moredata/ik_validation_log.csv
frame,is_init,real_joint_state_left_shoulder_pitch_joint1,real_joint_state_left_shoulder_roll_joint2,real_joint_state_left_shoulder_yaw_joint3,real_joint_state_left_elbow_pitch_joint4,real_joint_state_left_elbow_roll_joint5,real_joint_state_left_wrist_yaw_joint6,real_joint_state_left_wrist_pitch_joint7,real_joint_state_right_shoulder_pitch_joint1,real_joint_state_right_shoulder_roll_joint2,real_joint_state_right_shoulder_yaw_joint3,real_joint_state_right_elbow_pitch_joint4,real_joint_state_right_elbow_roll_joint5,real_joint_state_right_wrist_yaw_joint6,real_joint_state_right_wrist_pitch_joint7,real_joint_state_left_gripper_joint,real_joint_state_right_gripper_joint,pred_action_left_shoulder_pitch_joint1,pred_action_left_shoulder_roll_joint2,pred_action_left_shoulder_yaw_joint3,pred_action_left_elbow_pitch_joint4,pred_action_left_elbow_roll_joint5,pred_action_left_wrist_yaw_joint6,pred_action_left_wrist_pitch_joint7,pred_action_right_shoulder_pitch_joint1,pred_action_right_shoulder_roll_joint2,pred_action_right_shoulder_yaw_joint3,pred_action_right_elbow_pitch_joint4,pred_action_right_elbow_roll_joint5,pred_action_right_wrist_yaw_joint6,pred_action_right_wrist_pitch_joint7,pred_action_left_gripper_joint,pred_action_right_gripper_joint,timestamp,input_ee_eeL_x,input_ee_eeL_y,input_ee_eeL_z,input_ee_eeL_roll,input_ee_eeL_pitch,input_ee_eeL_yaw,input_ee_eeR_x,input_ee_eeR_y,input_ee_eeR_z,input_ee_eeR_roll,input_ee_eeR_pitch,input_ee_eeR_yaw,input_prev_joint_state_L_sh_pitch,input_prev_joint_state_L_sh_roll,input_prev_joint_state_L_sh_yaw,input_prev_joint_state_L_el_pitch,input_prev_joint_state_L_el_roll,input_prev_joint_state_L_wr_yaw,input_prev_joint_state_L_wr_pitch,input_prev_joint_state_R_sh_pitch,input_prev_joint_state_R_sh_roll,input_prev_joint_state_R_sh_yaw,input_prev_joint_state_R_el_pitch,input_prev_joint_state_R_el_roll,input_prev_joint_state_R_wr_yaw,input_prev_joint_state_R_wr_pitch
0,1,0.49259257316589355,-0.009395498782396317,-0.00858320016413927,0.4980163276195526,-0.00667582219466567,0.000572213320992887,-0.007057297509163618,-0.49604398012161255,-0.00671107042580843,0.0032425422687083483,-0.507553219795227,0.0020981156267225742,-0.010109102353453636,-0.00019073777366429567,0.03490501269698143,0.06275273114442825,0.47801995277404785,0.004793621599674225,0.009346150793135166,0.46330204606056213,-0.021171892061829567,0.01506828423589468,-0.07572289556264877,-0.4818548560142517,-0.011312947608530521,0.013160906732082367,-0.49000534415245056,0.02231631986796856,-0.010872052982449532,-0.007438773289322853,0.0,0.0,,,,,,,,,,,,,,,,,,,,,,,,,,,
1,0,0.49259257316589355,-0.009395498782396317,-0.00858320016413927,0.4983977973461151,-0.00667582219466567,0.000572213320992887,-0.007057297509163618,-0.49604398012161255,-0.00671107042580843,0.0032425422687083483,-0.507553219795227,0.0020981156267225742,-0.010109102353453636,-0.00019073777366429567,0.03528648987412453,0.06275273114442825,0.4674917757511139,0.0029597398824989796,0.0035639721900224686,0.47672683000564575,-0.012760106474161148,0.00817200168967247,-0.046184416860342026,-0.4565953314304352,-0.015597709454596043,0.016085609793663025,-0.4772850573062897,0.03397436439990997,-0.009087585844099522,-0.025112641975283623,0.0,0.0,0.0,0.3296839783284264,0.21927637199572056,0.760148681816507,-0.022265430815224363,-0.049355232583983444,-0.022818094361451102,0.330191207700067,-0.23315866847036182,0.7593856539664704,0.006234445563278239,0.008222119939317646,0.004073582912385963,0.49259257316589355,-0.009395498782396317,-0.00858320016413927,0.4983977973461151,-0.00667582219466567,0.000572213320992887,-0.007057297509163618,-0.49604398012161255,-0.00671107042580843,0.0032425422687083483,-0.507553219795227,0.0020981156267225742,-0.010109102353453636,-0.00019073777366429567
2,0,0.4787869453430176,-0.004026642069220543,-0.0020981156267225742,0.46292057633399963,-0.018501564860343933,0.00858320016413927,-0.06923781335353851,-0.48032090067863464,-0.007478049956262112,0.005149920005351305,-0.49420157074928284,0.01773861236870289,-0.01125352829694748,-0.006294346414506435,0.03490501269698143,0.06198977679014206,0.47132667899131775,0.0005111614591442049,0.0071801189333200455,0.46612244844436646,-0.007598850876092911,0.010984480381011963,-0.06309822201728821,-0.4589138925075531,-0.016337737441062927,0.018615849316120148,-0.47499048709869385,0.035654112696647644,-0.009140552021563053,-0.022634102031588554,0.0,0.0,0.0333000011742115,0.3297167619153547,0.21922337206930598,0.7600966229585842,-0.022244169327483743,-0.048797779588812595,-0.022700870437588172,0.3301742825954559,-0.2330989094783746,0.7594332914349736,0.0065855336993279395,0.008393390920635528,0.003858192145961712,0.4787869453430176,-0.004026642069220543,-0.0020981156267225742,0.46292057633399963,-0.018501564860343933,0.00858320016413927,-0.06923781335353851,-0.48032090067863464,-0.007478049956262112,0.005149920005351305,-0.49420157074928284,0.01773861236870289,-0.01125352829694748,-0.006294346414506435
3,0,0.4738015830516815,0.0009587243548594415,0.0024795911740511656,0.46292057633399963,-0.01773861236870289,0.0078202486038208,-0.05207141116261482,-0.4642143249511719,-0.008245029486715794,0.005149920005351305,-0.4850461483001709,0.02536812424659729,-0.01125352829694748,-0.020027466118335724,0.03490501269698143,0.06198977679014206,0.4731380045413971,0.0028432668186724186,0.008031772449612617,0.47108861804008484,-0.002192680025473237,0.005791279952973127,-0.06064131483435631,-0.45913103222846985,-0.013024725951254368,0.016143057495355606,-0.47789493203163147,0.02908332645893097,-0.00528474198654294,-0.019866658374667168,0.0,0.0,0.06669999659061432,0.32972861387635244,0.21921097536061224,0.760142072639706,-0.021561615979824644,-0.049066408025022934,-0.02343123641551026,0.33001374622614194,-0.23286490574400837,0.7596496928399527,0.005791445871701324,0.007085301034317459,0.003571592448628161,0.4738015830516815,0.0009587243548594415,0.0024795911740511656,0.46292057633399963,-0.01773861236870289,0.0078202486038208,-0.05207141116261482,-0.4642143249511719,-0.008245029486715794,0.005149920005351305,-0.4850461483001709,0.02536812424659729,-0.01125352829694748,-0.020027466118335724
4,0,0.4695831835269928,0.0009587243548594415,0.002861066721379757,0.46292057633399963,-0.01430533267557621,0.008201723918318748,-0.05970092490315437,-0.4504086971282959,-0.008245029486715794,0.010109102353453636,-0.47589075565338135,0.02880140393972397,-0.01125352829694748,-0.023079270496964455,0.03490501269698143,0.06198977679014206,0.4743063747882843,0.0022282549180090427,0.007706912234425545,0.4696032702922821,-0.0010530987055972219,0.005686584394425154,-0.06423825025558472,-0.45819607377052307,-0.013195463456213474,0.016194764524698257,-0.47687217593193054,0.02826644480228424,-0.005143091548234224,-0.019915295764803886,0.0,0.0,0.10000000149011612,0.32989725644355306,0.21925230241682392,0.760118602492138,-0.0210628140834066,-0.048890822456340466,-0.023929326653512106,0.33001920385776085,-0.2327849787235774,0.7595451885381943,0.005867541564114636,0.007035954478827801,0.0031553435861557816,0.4695831835269928,0.0009587243548594415,0.002861066721379757,0.46292057633399963,-0.01430533267557621,0.008201723918318748,-0.05970092490315437,-0.4504086971282959,-0.008245029486715794,0.010109102353453636,-0.47589075565338135,0.02880140393972397,-0.01125352829694748,-0.023079270496964455
5,0,0.4695831835269928,0.0009587243548594415,0.002861066721379757,0.46292057633399963,-0.010109102353453636,0.007438773289322853,-0.06084534898400307,-0.4515591561794281,-0.009395498782396317,0.013542382046580315,-0.47589075565338135,0.02841992862522602,-0.010872052982449532,-0.023079270496964455,0.03490501269698143,0.06198977679014206,0.47421059012413025,0.0020482991822063923,0.0076537225395441055,0.4690735340118408,-0.0007949211867526174,0.0058252583257853985,-0.065143883228302,-0.4580524265766144,-0.013500274159014225,0.01668628677725792,-0.476821631193161,0.028620555996894836,-0.005420439410954714,-0.020192427560687065,0.0,0.0,0.13330000638961792,0.3299249876847504,0.21923525656257842,0.7601135294956843,-0.020763120820846748,-0.04881521237260111,-0.024453752534151718,0.3300020964059501,-0.23274910568189897,0.7595444019315555,0.0060291755617475325,0.006982630008856317,0.0030340816467319433,0.4695831835269928,0.0009587243548594415,0.002861066721379757,0.46292057633399963,-0.010109102353453636,0.007438773289322853,-0.06084534898400307,-0.4515591561794281,-0.009395498782396317,0.013542382046580315,-0.47589075565338135,0.02841992862522602,-0.010872052982449532,-0.023079270496964455
6,0,0.47226759791374207,0.0009587243548594415,0.002861066721379757,0.46292057633399963,-0.007057297509163618,0.007438773289322853,-0.06160829961299896,-0.4527096450328827,-0.01054596807807684,0.014686808921396732,-0.47589075565338135,0.02841992862522602,-0.010872052982449532,-0.023079270496964455,0.03490501269698143,0.06198977679014206,0.47435054183006287,0.002358893398195505,0.007292056456208229,0.4694322347640991,-0.001615706947632134,0.006712773349136114,-0.06499361991882324,-0.45805326104164124,-0.013541457243263721,0.01673584058880806,-0.4769335687160492,0.02866549789905548,-0.0053302873857319355,-0.02025781385600567,0.0,0.0,0.16670000553131104,0.3299271352036831,0.2193496746636932,0.7601070365915736,-0.02093740958123691,-0.04890954127529801,-0.02481110978524903,0.329909487407437,-0.23256202062846204,0.7594504353506998,0.0057823143946438265,0.007447228790918051,0.0030883375685499138,0.47226759791374207,0.0009587243548594415,0.002861066721379757,0.46292057633399963,-0.007057297509163618,0.007438773289322853,-0.06160829961299896,-0.4527096450328827,-0.01054596807807684,0.014686808921396732,-0.47589075565338135,0.02841992862522602,-0.010872052982449532,-0.023079270496964455
7,0,0.47226759791374207,0.0009587243548594415,0.002861066721379757,0.46292057633399963,-0.007057297509163618,0.0078202486038208,-0.06275273114442825,-0.45309311151504517,-0.01054596807807684,0.014686808921396732,-0.47589075565338135,0.02841992862522602,-0.010872052982449532,-0.023079270496964455,0.03490501269698143,0.06198977679014206,0.47432199120521545,0.0023790509440004826,0.007256949320435524,0.46923917531967163,-0.001910809543915093,0.007100184913724661,-0.0651271641254425,-0.45809921622276306,-0.013516646809875965,0.01679832488298416,-0.4769331216812134,0.02895195782184601,-0.005357735324651003,-0.020473791286349297,0.0,0.0,0.20000000298023224,0.3298756717238568,0.21955941709652307,0.7600368607462162,-0.02106086385661987,-0.048680609250950635,-0.024574734526336073,0.3297887268645926,-0.2324801875611183,0.7593073610556744,0.006563970001435231,0.008048128473867879,0.002599493822265205,0.47226759791374207,0.0009587243548594415,0.002861066721379757,0.46292057633399963,-0.007057297509163618,0.0078202486038208,-0.06275273114442825,-0.45309311151504517,-0.01054596807807684,0.014686808921396732,-0.47589075565338135,0.02841992862522602,-0.010872052982449532,-0.023079270496964455
8,0,0.47226759791374207,0.0009587243548594415,0.002861066721379757,0.46292057633399963,-0.007057297509163618,0.0078202486038208,-0.06389715522527695,-0.45309311151504517,-0.01054596807807684,0.014686808921396732,-0.47589075565338135,0.02841992862522602,-0.010872052982449532,-0.023079270496964455,0.03490501269698143,0.06198977679014206,0.4744172990322113,0.0022930395789444447,0.007158191874623299,0.46934613585472107,-0.002186421537771821,0.00711915222927928,-0.06486159563064575,-0.4581656754016876,-0.01356495264917612,0.016654979437589645,-0.4767559766769409,0.028878048062324524,-0.005375996697694063,-0.02010972611606121,0.0,0.0,0.23330000042915344,0.32986677070991516,0.21974831236986175,0.7599066095353406,-0.021669281006069685,-0.047599062942228265,-0.024244561554489064,0.3296817512388355,-0.2323549751823657,0.7593179194602503,0.0062020905192517435,0.007687044544699871,0.00279487421713268,0.47226759791374207,0.0009587243548594415,0.002861066721379757,0.46292057633399963,-0.007057297509163618,0.0078202486038208,-0.06389715522527695,-0.45309311151504517,-0.01054596807807684,0.014686808921396732,-0.47589075565338135,0.02841992862522602,-0.010872052982449532,-0.023079270496964455
9,0,0.47226759791374207,0.0009587243548594415,0.002861066721379757,0.46292057633399963,-0.007057297509163618,0.0078202486038208,-0.06427863240242004,-0.45309311151504517,-0.01054596807807684,0.014686808921396732,-0.47589075565338135,0.02841992862522602,-0.010872052982449532,-0.023079270496964455,0.03490501269698143,0.06198977679014206,0.4747028052806854,0.0022895378060638905,0.007006855681538582,0.4698044955730438,-0.002535794163122773,0.006967843975871801,-0.06416970491409302,-0.4582713544368744,-0.013381333090364933,0.016330894082784653,-0.4765591025352478,0.02845640480518341,-0.005104765761643648,-0.01929093711078167,0.0,0.0,0.26669999957084656,0.32986835837132644,0.21988950034512647,0.7598944081402804,-0.02241979279918649,-0.046574854011816935,-0.023766387136443523,0.32952288913985506,-0.23229337314407195,0.7592326125975636,0.005559243507367199,0.006993936939840353,0.0025047228561245133,0.47226759791374207,0.0009587243548594415,0.002861066721379757,0.46292057633399963,-0.007057297509163618,0.0078202486038208,-0.06427863240242004,-0.45309311151504517,-0.01054596807807684,0.014686808921396732,-0.47589075565338135,0.02841992862522602,-0.010872052982449532,-0.023079270496964455
10,0,0.47226759791374207,0.0009587243548594415,0.002861066721379757,0.46292057633399963,-0.007057297509163618,0.0078202486038208,-0.06427863240242004,-0.45309311151504517,-0.01054596807807684,0.014686808921396732,-0.47589075565338135,0.02841992862522602,-0.010872052982449532,-0.023079270496964455,0.03490501269698143,0.06198977679014206,0.47490647435188293,0.002319898921996355,0.006946982815861702,0.4694472849369049,-0.0028585235122591257,0.0074029783718287945,-0.06450974941253662,-0.4583933651447296,-0.013203945942223072,0.016231723129749298,-0.4764459729194641,0.028440579771995544,-0.004896358121186495,-0.019175155088305473,0.0,0.0,0.30000001192092896,0.3297515523369556,0.2200124757542653,0.7598863035376294,-0.022725981021881392,-0.047055228183412456,-0.02384663464221015,0.3294048710650813,-0.23223714768438114,0.7591463351993241,0.005601026366092665,0.007187803906147744,0.001791593297563667,0.47226759791374207,0.0009587243548594415,0.002861066721379757,0.46292057633399963,-0.007057297509163618,0.0078202486038208,-0.06427863240242004,-0.45309311151504517,-0.01054596807807684,0.014686808921396732,-0.47589075565338135,0.02841992862522602,-0.010872052982449532,-0.023079270496964455
11,0,0.47226759791374207,0.0009587243548594415,0.002861066721379757,0.46292057633399963,-0.007057297509163618,0.007438773289322853,-0.06427863240242004,-0.45309311151504517,-0.01054596807807684,0.014686808921396732,-0.47589075565338135,0.02841992862522602,-0.010872052982449532,-0.023079270496964455,0.03490501269698143,0.06198977679014206,0.47493109107017517,0.0025509153492748737,0.006840983405709267,0.4697628915309906,-0.003383670235052705,0.007677666377276182,-0.0638224184513092,-0.4583961069583893,-0.012972475029528141,0.01606130227446556,-0.47643718123435974,0.028275266289711,-0.004603893030434847,-0.018936021253466606,0.0,0.0,0.33329999446868896,0.3297649892239514,0.22012794699298763,0.7597090675214359,-0.02280999741434675,-0.045861522017257794,-0.0240751938323851,0.32934246176434456,-0.23213139329673027,0.7590455465638026,0.005389101225743132,0.007290852897929504,0.0014862345226427257,0.47226759791374207,0.0009587243548594415,0.002861066721379757,0.46292057633399963,-0.007057297509163618,0.007438773289322853,-0.06427863240242004,-0.45309311151504517,-0.01054596807807684,0.014686808921396732,-0.47589075565338135,0.02841992862522602,-0.010872052982449532,-0.023079270496964455
12,0,0.47226759791374207,0.0009587243548594415,0.002861066721379757,0.46292057633399963,-0.007057297509163618,0.007438773289322853,-0.06427863240242004,-0.45309311151504517,-0.01054596807807684,0.014686808921396732,-0.47589075565338135,0.02841992862522602,-0.010872052982449532,-0.022697795182466507,0.03490501269698143,0.06198977679014206,0.4750077426433563,0.0027824812568724155,0.006708437576889992,0.4699394106864929,-0.00398356094956398,0.008126568049192429,-0.06336480379104614,-0.45841529965400696,-0.012712475843727589,0.01591932401061058,-0.47643163800239563,0.028195813298225403,-0.004297376144677401,-0.018794430419802666,0.0,0.0,0.3666999936103821,0.32975523544786645,0.22024550496473677,0.759614328285792,-0.02300052093775795,-0.045291900072170765,-0.024205409395504862,0.32928263953181736,-0.23202389374481067,0.7589417368212804,0.005642714412298137,0.007458412646414793,0.0008977796253451397,0.47226759791374207,0.0009587243548594415,0.002861066721379757,0.46292057633399963,-0.007057297509163618,0.007438773289322853,-0.06427863240242004,-0.45309311151504517,-0.01054596807807684,0.014686808921396732,-0.47589075565338135,0.02841992862522602,-0.010872052982449532,-0.022697795182466507
13,0,0.47226759791374207,0.0009587243548594415,0.002861066721379757,0.46292057633399963,-0.007057297509163618,0.007438773289322853,-0.06389715522527695,-0.45309311151504517,-0.01054596807807684,0.014686808921396732,-0.47589075565338135,0.02841992862522602,-0.010872052982449532,-0.023079270496964455,0.03490501269698143,0.06198977679014206,0.47510555386543274,0.0036053513176739216,0.0068880412727594376,0.47042715549468994,-0.003947798162698746,0.008758675307035446,-0.06315746903419495,-0.4586334526538849,-0.012203269638121128,0.01574394479393959,-0.47686266899108887,0.02770693600177765,-0.0036650379188358784,-0.01829899661242962,0.0,0.0,0.4000000059604645,0.3296142323583162,0.22023110925444767,0.759575726299929,-0.021729483205298994,-0.04527607766628883,-0.025373076614259915,0.32916069762983136,-0.23191022634311065,0.7589097371262542,0.006384678389848922,0.006920667064251647,0.0007821999039271269,0.47226759791374207,0.0009587243548594415,0.002861066721379757,0.46292057633399963,-0.007057297509163618,0.007438773289322853,-0.06389715522527695,-0.45309311151504517,-0.01054596807807684,0.014686808921396732,-0.47589075565338135,0.02841992862522602,-0.010872052982449532,-0.023079270496964455
14,0,0.47226759791374207,0.0009587243548594415,0.002861066721379757,0.46292057633399963,-0.007057297509163618,0.0078202486038208,-0.06427863240242004,-0.45309311151504517,-0.01054596807807684,0.014686808921396732,-0.47589075565338135,0.02841992862522602,-0.010872052982449532,-0.023079270496964455,0.03490501269698143,0.06198977679014206,0.47512391209602356,0.0038399980403482914,0.0069174934178590775,0.47027817368507385,-0.0039780475199222565,0.009210199117660522,-0.06358245015144348,-0.4586869776248932,-0.012126677669584751,0.015789460390806198,-0.47689759731292725,0.027771785855293274,-0.0035790582187473774,-0.0183249544352293,0.0,0.0,0.4332999885082245,0.32950227903464546,0.22023617263335768,0.7596334979117164,-0.02108014195216734,-0.045912646118981826,-0.02578857420596803,0.3291536591765968,-0.23188203968467627,0.7588447999641098,0.0072008376319131475,0.007056817242875686,0.0005602949222614698,0.47226759791374207,0.0009587243548594415,0.002861066721379757,0.46292057633399963,-0.007057297509163618,0.0078202486038208,-0.06427863240242004,-0.45309311151504517,-0.01054596807807684,0.014686808921396732,-0.47589075565338135,0.02841992862522602,-0.010872052982449532,-0.023079270496964455
15,0,0.47226759791374207,0.0009587243548594415,0.002861066721379757,0.46292057633399963,-0.007057297509163618,0.0078202486038208,-0.06427863240242004,-0.45309311151504517,-0.01054596807807684,0.014686808921396732,-0.47589075565338135,0.028038453310728073,-0.010872052982449532,-0.022697795182466507,0.03490501269698143,0.06198977679014206,0.4754543602466583,0.00352736609056592,0.007009388878941536,0.469167560338974,-0.003045622492209077,0.009286371991038322,-0.06605392694473267,-0.45851007103919983,-0.012391013093292713,0.015975940972566605,-0.4766536355018616,0.02793736755847931,-0.0039032776840031147,-0.018755121156573296,0.0,0.0,0.4666999876499176,0.32903073548715245,0.22047837034361858,0.7598899888373444,-0.019677782486762663,-0.04989909852571017,-0.02537275107214354,0.32936219902096686,-0.23170224360087907,0.7588380668282048,0.008203986074394518,0.007788123873461308,0.0008696874752609856,0.47226759791374207,0.0009587243548594415,0.002861066721379757,0.46292057633399963,-0.007057297509163618,0.0078202486038208,-0.06427863240242004,-0.45309311151504517,-0.01054596807807684,0.014686808921396732,-0.47589075565338135,0.028038453310728073,-0.010872052982449532,-0.022697795182466507
16,0,0.47226759791374207,0.0009587243548594415,0.002861066721379757,0.46292057633399963,-0.007057297509163618,0.0078202486038208,-0.06427863240242004,-0.45309311151504517,-0.01054596807807684,0.014686808921396732,-0.47589075565338135,0.02841992862522602,-0.010872052982449532,-0.022697795182466507,0.03490501269698143,0.06198977679014206,0.47627338767051697,0.002832230646163225,0.0065721143037080765,0.4691848158836365,-0.0029395262245088816,0.008256744593381882,-0.06631684303283691,-0.4583530128002167,-0.01253389660269022,0.01501232385635376,-0.4758089780807495,0.026786789298057556,-0.003913358319550753,-0.017599983140826225,0.0,0.0,0.5,0.32887157514227877,0.2210464929268835,0.7595406380496695,-0.020825247661349522,-0.04930910983338599,-0.023140621756109425,0.32955259578277396,-0.23106906886825349,0.7592322924864766,0.004273548085549493,0.005917001238969442,0.003124188743872612,0.47226759791374207,0.0009587243548594415,0.002861066721379757,0.46292057633399963,-0.007057297509163618,0.0078202486038208,-0.06427863240242004,-0.45309311151504517,-0.01054596807807684,0.014686808921396732,-0.47589075565338135,0.02841992862522602,-0.010872052982449532,-0.022697795182466507
17,0,0.47226759791374207,0.0009587243548594415,0.002861066721379757,0.46292057633399963,-0.007057297509163618,0.0078202486038208,-0.06427863240242004,-0.45309311151504517,-0.01054596807807684,0.014686808921396732,-0.47589075565338135,0.02841992862522602,-0.010872052982449532,-0.022697795182466507,0.03490501269698143,0.06198977679014206,0.4767291247844696,0.0021538068540394306,0.005820849910378456,0.46990957856178284,-0.003873411798849702,0.007397649344056845,-0.06499552726745605,-0.45823368430137634,-0.012737114913761616,0.014378610998392105,-0.47515884041786194,0.026222065091133118,-0.0040343631990253925,-0.01662207953631878,0.0,0.0,0.53329998254776,0.32902126670778,0.22147463961634956,0.7592171525019863,-0.023450383244540074,-0.046777420761643373,-0.02101866987599532,0.3296046302549126,-0.23073888354569888,0.7594500533665732,0.0017954917266309143,0.004562624797487566,0.004428087297275491,0.47226759791374207,0.0009587243548594415,0.002861066721379757,0.46292057633399963,-0.007057297509163618,0.0078202486038208,-0.06427863240242004,-0.45309311151504517,-0.01054596807807684,0.014686808921396732,-0.47589075565338135,0.02841992862522602,-0.010872052982449532,-0.022697795182466507
18,0,0.47226759791374207,0.0009587243548594415,0.002861066721379757,0.46292057633399963,-0.007057297509163618,0.0078202486038208,-0.06427863240242004,-0.45309311151504517,-0.01054596807807684,0.014686808921396732,-0.47589075565338135,0.028038453310728073,-0.010872052982449532,-0.022697795182466507,0.03490501269698143,0.06198977679014206,0.47867706418037415,0.0019576330669224262,0.0040705520659685135,0.4715075194835663,-0.007420722395181656,0.007787251379340887,-0.06183957681059837,-0.4585890471935272,-0.011892651207745075,0.012351837009191513,-0.47393086552619934,0.023701384663581848,-0.002428643871098757,-0.012644363567233086,0.0,0.0,0.5666999816894531,0.3292563848130425,0.22198740309209455,0.7590038046047856,-0.029196496834063,-0.04297165598167796,-0.019138061904631964,0.32954134528470536,-0.23020519432150624,0.7602543419564483,-0.004706002587232217,-0.0026301604910657717,0.00496004598292708,0.47226759791374207,0.0009587243548594415,0.002861066721379757,0.46292057633399963,-0.007057297509163618,0.0078202486038208,-0.06427863240242004,-0.45309311151504517,-0.01054596807807684,0.014686808921396732,-0.47589075565338135,0.028038453310728073,-0.010872052982449532,-0.022697795182466507
19,0,0.47226759791374207,0.0009587243548594415,0.002861066721379757,0.46292057633399963,-0.007057297509163618,0.0078202486038208,-0.06427863240242004,-0.45309311151504517,-0.01054596807807684,0.014686808921396732,-0.47589075565338135,0.028038453310728073,-0.010872052982449532,-0.022697795182466507,0.03490501269698143,0.06198977679014206,0.4788982570171356,0.002162607852369547,0.003431180492043495,0.4715937077999115,-0.008802179247140884,0.008474919945001602,-0.06099006161093712,-0.45879533886909485,-0.011199754662811756,0.011406056582927704,-0.4736180901527405,0.022182568907737732,-0.0011551236966624856,-0.011431081220507622,0.0,0.0,0.6000000238418579,0.32927504668867347,0.2220947568599873,0.7589749534933878,-0.02997895530333583,-0.04260506179340995,-0.018924413394655115,0.32962657312214205,-0.23007598675501378,0.7602942623955148,-0.007400553154880188,-0.003921718034604369,0.004033490845177993,0.47226759791374207,0.0009587243548594415,0.002861066721379757,0.46292057633399963,-0.007057297509163618,0.0078202486038208,-0.06427863240242004,-0.45309311151504517,-0.01054596807807684,0.014686808921396732,-0.47589075565338135,0.028038453310728073,-0.010872052982449532,-0.022697795182466507
20,0,0.47226759791374207,0.0009587243548594415,0.002861066721379757,0.46292057633399963,-0.007438773289322853,0.0078202486038208,-0.06389715522527695,-0.45309311151504517,-0.01054596807807684,0.014686808921396732,-0.47589075565338135,0.02689402550458908,-0.010872052982449532,-0.01888304017484188,0.03490501269698143,0.06198977679014206,0.47888806462287903,0.002151880878955126,0.0026611480861902237,0.4713415205478668,-0.01034620776772499,0.009157536551356316,-0.06005799397826195,-0.4594975411891937,-0.010223587043583393,0.010275758802890778,-0.4725927412509918,0.019745513796806335,0.0009297350188717246,-0.007627440616488457,0.0,0.0,0.6333000063896179,0.32941117460123903,0.2222674290838807,0.7588558309361271,-0.03187068177825214,-0.04195813718950481,-0.01844695661546014,0.3296316698117039,-0.22992179462883894,0.761014779044649,-0.011055319002221677,-0.01021344643138353,0.00276806246083602,0.47226759791374207,0.0009587243548594415,0.002861066721379757,0.46292057633399963,-0.007438773289322853,0.0078202486038208,-0.06389715522527695,-0.45309311151504517,-0.01054596807807684,0.014686808921396732,-0.47589075565338135,0.02689402550458908,-0.010872052982449532,-0.01888304017484188
21,0,0.47226759791374207,0.0009587243548594415,0.002861066721379757,0.46292057633399963,-0.007438773289322853,0.0078202486038208,-0.06389715522527695,-0.45309311151504517,-0.01054596807807684,0.014686808921396732,-0.47589075565338135,0.024223696440458298,-0.010490577667951584,-0.018501564860343933,0.03490501269698143,0.06198977679014206,0.47878965735435486,0.0018041286384686828,0.0025980938225984573,0.4706800580024719,-0.010320995002985,0.009044583886861801,-0.06034054979681969,-0.45948126912117004,-0.009913080371916294,0.010068729519844055,-0.4712389409542084,0.018383249640464783,0.002024404238909483,-0.004689915105700493,0.0,0.0,0.666700005531311,0.32921008641667177,0.22235176632963682,0.7589460147342364,-0.03242121262786535,-0.042946850558318594,-0.01743100816934584,0.32995028995384057,-0.2301327013046762,0.7615717037851392,-0.012522974162280558,-0.015449154866109231,0.0019755043782428415,0.47226759791374207,0.0009587243548594415,0.002861066721379757,0.46292057633399963,-0.007438773289322853,0.0078202486038208,-0.06389715522527695,-0.45309311151504517,-0.01054596807807684,0.014686808921396732,-0.47589075565338135,0.024223696440458298,-0.010490577667951584,-0.018501564860343933
22,0,0.47226759791374207,0.0009587243548594415,0.002861066721379757,0.46292057633399963,-0.0078202486038208,0.0078202486038208,-0.06389715522527695,-0.45309311151504517,-0.01054596807807684,0.014686808921396732,-0.47589075565338135,0.023460745811462402,-0.010109102353453636,-0.014686808921396732,0.03490501269698143,0.06198977679014206,0.4779118001461029,0.0023060240782797337,0.0017888786969706416,0.4707947373390198,-0.01178273931145668,0.00944928266108036,-0.058429326862096786,-0.45978477597236633,-0.00881259236484766,0.00994902104139328,-0.47012633085250854,0.016937360167503357,0.0040155271999537945,-0.0013148022117093205,0.0,0.0,0.699999988079071,0.329251921729717,0.22246245737218373,0.7590142661054877,-0.03323873470431771,-0.04325795812260358,-0.016436329573487285,0.33044435358119173,-0.23068896492901383,0.7623775192618696,-0.013211534288243065,-0.021139502403846766,-0.002326766209378217,0.47226759791374207,0.0009587243548594415,0.002861066721379757,0.46292057633399963,-0.0078202486038208,0.0078202486038208,-0.06389715522527695,-0.45309311151504517,-0.01054596807807684,0.014686808921396732,-0.47589075565338135,0.023460745811462402,-0.010109102353453636,-0.014686808921396732
23,0,0.47226759791374207,0.0009587243548594415,0.0024795911740511656,0.46292057633399963,-0.008201723918318748,0.0078202486038208,-0.06389715522527695,-0.45309311151504517,-0.01054596807807684,0.014686808921396732,-0.47589075565338135,0.02079041674733162,-0.009346150793135166,-0.010490577667951584,0.03490501269698143,0.06198977679014206,0.47686269879341125,0.0030836337246000767,0.001137303072027862,0.47118812799453735,-0.01302671805024147,0.010130053386092186,-0.05698185786604881,-0.4596536457538605,-0.00849785003811121,0.011053048074245453,-0.46853476762771606,0.017377421259880066,0.004752806853502989,0.0018314587650820613,0.0,0.0,0.733299970626831,0.329297896787785,0.22248359690536698,0.759061779089194,-0.03367531920591027,-0.043031458613169704,-0.01610852268234897,0.3312538303509956,-0.2315309206736247,0.7632878439013905,-0.007742701652182049,-0.027512336761463807,-0.0054338180362019095,0.47226759791374207,0.0009587243548594415,0.0024795911740511656,0.46292057633399963,-0.008201723918318748,0.0078202486038208,-0.06389715522527695,-0.45309311151504517,-0.01054596807807684,0.014686808921396732,-0.47589075565338135,0.02079041674733162,-0.009346150793135166,-0.010490577667951584
24,0,0.47226759791374207,0.0009587243548594415,0.0024795911740511656,0.46292057633399963,-0.010490577667951584,0.0078202486038208,-0.06313420087099075,-0.45309311151504517,-0.010162478312849998,0.014686808921396732,-0.47589075565338135,0.02040894143283367,-0.007057297509163618,-0.007057297509163618,0.03490501269698143,0.06198977679014206,0.47587212920188904,0.004515886772423983,0.0006711053429171443,0.4709361791610718,-0.013614896684885025,0.010851141065359116,-0.05547809228301048,-0.4583412706851959,-0.0067496830597519875,0.012243583798408508,-0.46708357334136963,0.017379596829414368,0.006763897370547056,0.0032696593552827835,0.0,0.0,0.766700029373169,0.32920702385960426,0.2221917780677494,0.7592792160936075,-0.03207965255816525,-0.04428087680518367,-0.01709114723525751,0.3328708835624591,-0.23267498978326537,0.7642348698788705,0.005036043495514342,-0.033777145146066,-0.01484269629123558,0.47226759791374207,0.0009587243548594415,0.0024795911740511656,0.46292057633399963,-0.010490577667951584,0.0078202486038208,-0.06313420087099075,-0.45309311151504517,-0.010162478312849998,0.014686808921396732,-0.47589075565338135,0.02040894143283367,-0.007057297509163618,-0.007057297509163618
25,0,0.47226759791374207,0.0009587243548594415,0.0024795911740511656,0.46292057633399963,-0.010490577667951584,0.0078202486038208,-0.061226826161146164,-0.45309311151504517,-0.010162478312849998,0.014686808921396732,-0.47589075565338135,0.02040894143283367,-0.00667582219466567,-0.005912871100008488,0.03490501269698143,0.06198977679014206,0.4747816026210785,0.006306652445346117,-0.000751165789552033,0.4693828821182251,-0.014368299394845963,0.01328582875430584,-0.05587300285696983,-0.45652541518211365,-0.005315137095749378,0.011239532381296158,-0.4615626335144043,0.012807294726371765,0.010415851138532162,0.012277083471417427,0.0,0.0,0.800000011920929,0.3291078147754195,0.22165190100109544,0.7592423771338647,-0.028266597060381926,-0.04479315555779362,-0.021611328065321622,0.3349252681281539,-0.23344900408117267,0.7659399722101758,0.004575020016247766,-0.04704075318180223,-0.020057542082527746,0.47226759791374207,0.0009587243548594415,0.0024795911740511656,0.46292057633399963,-0.010490577667951584,0.0078202486038208,-0.061226826161146164,-0.45309311151504517,-0.010162478312849998,0.014686808921396732,-0.47589075565338135,0.02040894143283367,-0.00667582219466567,-0.005912871100008488
26,0,0.47226759791374207,0.0009587243548594415,0.0024795911740511656,0.46292057633399963,-0.010872052982449532,0.0078202486038208,-0.06084534898400307,-0.45309311151504517,-0.010162478312849998,0.014686808921396732,-0.47589075565338135,0.02040894143283367,-0.004005493130534887,-0.0036240178160369396,0.03490501269698143,0.06198977679014206,0.473550945520401,0.007292328868061304,-0.0014528093161061406,0.4691455662250519,-0.014384839683771133,0.013947529718279839,-0.05360567197203636,-0.45524391531944275,-0.004023601301014423,0.01089293509721756,-0.4605041742324829,0.011248186230659485,0.012050329707562923,0.013123231008648872,0.0,0.0,0.833299994468689,0.32909385626581183,0.22159467828291277,0.7591577559227213,-0.02656625970031934,-0.04436279815734778,-0.022955648962714292,0.33641039125841465,-0.23383360437731338,0.7671661158687072,0.009891482806709817,-0.051296933427742,-0.024833899141710525,0.47226759791374207,0.0009587243548594415,0.0024795911740511656,0.46292057633399963,-0.010872052982449532,0.0078202486038208,-0.06084534898400307,-0.45309311151504517,-0.010162478312849998,0.014686808921396732,-0.47589075565338135,0.02040894143283367,-0.004005493130534887,-0.0036240178160369396
27,0,0.47226759791374207,0.0009587243548594415,0.0024795911740511656,0.46292057633399963,-0.01125352829694748,0.008201723918318748,-0.06046387553215027,-0.45309311151504517,-0.010162478312849998,0.014686808921396732,-0.4720759987831116,0.01735713705420494,-0.0024795911740511656,0.00476844422519207,0.03490501269698143,0.06198977679014206,0.47231796383857727,0.008681029081344604,-0.0014610720099881291,0.4687625765800476,-0.012929949909448624,0.015119800344109535,-0.053876426070928574,-0.45269498229026794,-0.0037490956019610167,0.012398310005664825,-0.45941510796546936,0.012192949652671814,0.011982976458966732,0.012164251878857613,0.0,0.0,0.8666999936103821,0.32890094690821053,0.22135664547194467,0.7592497478622524,-0.024260329384087065,-0.04615323274430372,-0.024827035620103466,0.33861717970588007,-0.2338514095552615,0.7691161000877818,0.016018886594920012,-0.05585429986745449,-0.02763402904762513,0.47226759791374207,0.0009587243548594415,0.0024795911740511656,0.46292057633399963,-0.01125352829694748,0.008201723918318748,-0.06046387553215027,-0.45309311151504517,-0.010162478312849998,0.014686808921396732,-0.4720759987831116,0.01735713705420494,-0.0024795911740511656,0.00476844422519207
28,0,0.47226759791374207,0.0013422140618786216,0.0024795911740511656,0.46292057633399963,-0.010872052982449532,0.008201723918318748,-0.06008239835500717,-0.4527096450328827,-0.010162478312849998,0.014686808921396732,-0.4640650153160095,0.016975661739706993,0.00019073777366429567,0.006294346414506435,0.03490501269698143,0.06198977679014206,0.47424736618995667,0.00866302102804184,-0.00020846548432018608,0.46970394253730774,-0.008685383945703506,0.01391691155731678,-0.05651253089308739,-0.45123645663261414,-0.0032391108106821775,0.012578606605529785,-0.4582081139087677,0.009211614727973938,0.013782381080091,0.014375464990735054,0.0,0.0,0.8999999761581421,0.3288340921876848,0.22131699932035448,0.7591482581265119,-0.023407145051636213,-0.04625688155167573,-0.025330838884009665,0.33935870686131564,-0.23382123935068455,0.7699808913535623,0.013442924109366317,-0.057814977882530094,-0.02730595366182076,0.47226759791374207,0.0013422140618786216,0.0024795911740511656,0.46292057633399963,-0.010872052982449532,0.008201723918318748,-0.06008239835500717,-0.4527096450328827,-0.010162478312849998,0.014686808921396732,-0.4640650153160095,0.016975661739706993,0.00019073777366429567,0.006294346414506435
29,0,0.47226759791374207,0.0013422140618786216,0.0024795911740511656,0.46292057633399963,-0.010872052982449532,0.00858320016413927,-0.05703059583902359,-0.45194265246391296,-0.010162478312849998,0.014686808921396732,-0.46253910660743713,0.016975661739706993,0.00019073777366429567,0.0078202486038208,0.03490501269698143,0.06198977679014206,0.47397252917289734,0.009225815534591675,-0.0011607316555455327,0.4699958860874176,-0.006552074104547501,0.01385064609348774,-0.057557281106710434,-0.4481140673160553,-0.0032377324532717466,0.013182256370782852,-0.454299658536911,0.006197317969053984,0.015457904897630215,0.018577830865979195,0.0,0.0,0.9333000183105469,0.32872681238075446,0.2212431757410515,0.7590068171837213,-0.02200817059468152,-0.04588575667146877,-0.026261758408108182,0.34142932580295715,-0.23445208588860666,0.772960982344424,0.010912080681817482,-0.07043613153142347,-0.029547295866951373,0.47226759791374207,0.0013422140618786216,0.0024795911740511656,0.46292057633399963,-0.010872052982449532,0.00858320016413927,-0.05703059583902359,-0.45194265246391296,-0.010162478312849998,0.014686808921396732,-0.46253910660743713,0.016975661739706993,0.00019073777366429567,0.0078202486038208
30,0,0.47226759791374207,0.0013422140618786216,0.0024795911740511656,0.46292057633399963,-0.010872052982449532,0.008201723918318748,-0.05741206929087639,-0.45194265246391296,-0.009778988547623158,0.014686808921396732,-0.46253910660743713,0.016212711110711098,0.0009536888683214784,0.008201723918318748,0.03490501269698143,0.06198977679014206,0.473384827375412,0.010034732520580292,-0.001525251311250031,0.47012656927108765,-0.004828933626413345,0.0142278503626585,-0.05863606557250023,-0.4439842402935028,-0.0035113401245325804,0.014437787234783173,-0.4522409737110138,0.005664363037794828,0.01570507138967514,0.016696827486157417,0.0,0.0,0.96670001745224,0.32857185787899984,0.22097318566088234,0.7589366582381223,-0.02042764301046196,-0.04513670861088892,-0.027770424945916528,0.3441213371027727,-0.2351390483056668,0.7755376931521273,0.011311003293681843,-0.07718539698051385,-0.031490352956471845,0.47226759791374207,0.0013422140618786216,0.0024795911740511656,0.46292057633399963,-0.010872052982449532,0.008201723918318748,-0.05741206929087639,-0.45194265246391296,-0.009778988547623158,0.014686808921396732,-0.46253910660743713,0.016212711110711098,0.0009536888683214784,0.008201723918318748
31,0,0.47226759791374207,0.0013422140618786216,0.0024795911740511656,0.46292057633399963,-0.010490577667951584,0.008201723918318748,-0.05741206929087639,-0.4504086971282959,-0.009395498782396317,0.014686808921396732,-0.46253910660743713,0.012779430486261845,0.0036240178160369396,0.01201647985726595,0.03490501269698143,0.06198977679014206,0.47339120507240295,0.010537853464484215,-0.0006778148235753179,0.4703986346721649,-0.0030240456108003855,0.014257999137043953,-0.0599912665784359,-0.4421336352825165,-0.003998708911240101,0.01509178802371025,-0.45180755853652954,0.00525830639526248,0.015624499879777431,0.015553133562207222,0.0,0.0,1.0,0.3284883132451334,0.2207703937523042,0.7589359690945923,-0.019622206785633534,-0.045199134231348914,-0.028896314094474906,0.3451258686391675,-0.23540967789789807,0.7763836646454306,0.011177531886507275,-0.07838627646799567,-0.03101385096253928,0.47226759791374207,0.0013422140618786216,0.0024795911740511656,0.46292057633399963,-0.010490577667951584,0.008201723918318748,-0.05741206929087639,-0.4504086971282959,-0.009395498782396317,0.014686808921396732,-0.46253910660743713,0.012779430486261845,0.0036240178160369396,0.01201647985726595
32,0,0.47226759791374207,0.0013422140618786216,0.0024795911740511656,0.46292057633399963,-0.010490577667951584,0.00858320016413927,-0.057793546468019485,-0.4469572901725769,-0.008628519251942635,0.014686808921396732,-0.46253910660743713,0.012779430486261845,0.004005493130534887,0.01201647985726595,0.03490501269698143,0.06198977679014206,0.47389909625053406,0.011444002389907837,-0.00149943504948169,0.47061461210250854,-0.0004085341060999781,0.014933859929442406,-0.06425559520721436,-0.43513473868370056,-0.004546218551695347,0.015260200947523117,-0.4455667734146118,-0.00014434797049034387,0.0182192325592041,0.017983870580792427,0.0,0.0,1.0333000421524048,0.32843214677431015,0.2202787252631368,0.7588849550053977,-0.01652206593655947,-0.0453760513821182,-0.031965366579794985,0.34825747432014065,-0.23644015487490128,0.7791244819302685,0.002916834036317706,-0.0879466598922618,-0.03485062639621894,0.47226759791374207,0.0013422140618786216,0.0024795911740511656,0.46292057633399963,-0.010490577667951584,0.00858320016413927,-0.057793546468019485,-0.4469572901725769,-0.008628519251942635,0.014686808921396732,-0.46253910660743713,0.012779430486261845,0.004005493130534887,0.01201647985726595
33,0,0.47226759791374207,0.0013422140618786216,0.0024795911740511656,0.46292057633399963,-0.009727626107633114,0.008201723918318748,-0.057793546468019485,-0.4438893795013428,-0.008628519251942635,0.014686808921396732,-0.46253910660743713,0.012397955171763897,0.004005493130534887,0.01201647985726595,0.03490501269698143,0.06198977679014206,0.472147673368454,0.012406349182128906,-0.000719664734788239,0.4709448516368866,0.0009912810055539012,0.0159089807420969,-0.06527349352836609,-0.4296429455280304,-0.006295320577919483,0.018864039331674576,-0.4433177411556244,0.0018606032244861126,0.017162948846817017,0.014787452295422554,0.0,0.0,1.0666999816894531,0.32854983898352014,0.22001998532982295,0.7587526529244893,-0.01573820550962335,-0.0450819932121207,-0.03406205649776295,0.3518738949525835,-0.23800780028203652,0.7819098815184373,0.0046963995539814896,-0.09328917417943128,-0.03570377941815295,0.47226759791374207,0.0013422140618786216,0.0024795911740511656,0.46292057633399963,-0.009727626107633114,0.008201723918318748,-0.057793546468019485,-0.4438893795013428,-0.008628519251942635,0.014686808921396732,-0.46253910660743713,0.012397955171763897,0.004005493130534887,0.01201647985726595
34,0,0.47226759791374207,0.0013422140618786216,0.0024795911740511656,0.46292057633399963,-0.007057297509163618,0.008201723918318748,-0.06084534898400307,-0.4377535283565521,-0.008628519251942635,0.014686808921396732,-0.4560540020465851,0.00667582219466567,0.004386968910694122,0.015449759550392628,0.03490501269698143,0.06198977679014206,0.4713169038295746,0.01287142001092434,-0.0007871744455769658,0.4714370369911194,0.0016958973137661815,0.016819508746266365,-0.06709545850753784,-0.4254755675792694,-0.007998448796570301,0.021716468036174774,-0.44101545214653015,0.004003092180937529,0.01571279764175415,0.012750940397381783,0.0,0.0,1.100000023841858,0.32857679760448133,0.21993247947057573,0.7587395467540651,-0.015555931148433455,-0.045135333612105644,-0.03465983937863548,0.35313433757007884,-0.23854182485735426,0.7827643455382988,0.005909263304958223,-0.09445237418154395,-0.036015422773868266,0.47226759791374207,0.0013422140618786216,0.0024795911740511656,0.46292057633399963,-0.007057297509163618,0.008201723918318748,-0.06084534898400307,-0.4377535283565521,-0.008628519251942635,0.014686808921396732,-0.4560540020465851,0.00667582219466567,0.004386968910694122,0.015449759550392628
35,0,0.47226759791374207,0.006327580660581589,0.0024795911740511656,0.46292057633399963,-0.00667582219466567,0.00858320016413927,-0.06427863240242004,-0.4304672181606293,-0.008628519251942635,0.014686808921396732,-0.44422826170921326,0.004386968910694122,0.004386968910694122,0.014686808921396732,0.03490501269698143,0.06198977679014206,0.47191402316093445,0.013238981366157532,-0.002650884911417961,0.4719834625720978,0.005990590900182724,0.0169560257345438,-0.07439669966697693,-0.41342976689338684,-0.010083754546940327,0.02355845645070076,-0.43000906705856323,-0.002187237609177828,0.017875656485557556,0.018386797979474068,0.0,0.0,1.1332999467849731,0.32860520962822604,0.21975183066589082,0.7586829638474041,-0.015625672373365873,-0.0449588382190127,-0.03471488094259456,0.35699523410699024,-0.23977893686029494,0.7855403367304205,-0.0036020915022998423,-0.10224527026281871,-0.03578708135123776,0.47226759791374207,0.006327580660581589,0.0024795911740511656,0.46292057633399963,-0.00667582219466567,0.00858320016413927,-0.06427863240242004,-0.4304672181606293,-0.008628519251942635,0.014686808921396732,-0.44422826170921326,0.004386968910694122,0.004386968910694122,0.014686808921396732
36,0,0.47226759791374207,0.008245029486715794,0.0020981156267225742,0.46292057633399963,-0.00667582219466567,0.00858320016413927,-0.06427863240242004,-0.42816630005836487,-0.008628519251942635,0.015449759550392628,-0.44308385252952576,0.004386968910694122,0.004386968910694122,0.01430533267557621,0.03490501269698143,0.06198977679014206,0.46770772337913513,0.014014486223459244,-0.002105681225657463,0.47425490617752075,0.0075950585305690765,0.01740180514752865,-0.0718747079372406,-0.40200671553611755,-0.013269213028252125,0.029560532420873642,-0.4271642863750458,0.003551348578184843,0.014448492787778378,0.012763576582074165,0.0,0.0,1.166700005531311,0.32856073823801785,0.2196144808375667,0.7586428216346582,-0.01572418197233283,-0.044788156739320684,-0.03379758159231283,0.3607254212333538,-0.24164930016710007,0.7881163877793098,-0.0003451027489767,-0.10638964890403102,-0.034874864038226594,0.47226759791374207,0.008245029486715794,0.0020981156267225742,0.46292057633399963,-0.00667582219466567,0.00858320016413927,-0.06427863240242004,-0.42816630005836487,-0.008628519251942635,0.015449759550392628,-0.44308385252952576,0.004386968910694122,0.004386968910694122,0.01430533267557621
37,0,0.47226759791374207,0.008245029486715794,0.001716639962978661,0.46292057633399963,-0.0024795911740511656,0.008964675478637218,-0.0715266615152359,-0.4185790419578552,-0.008628519251942635,0.016975661739706993,-0.4369802474975586,0.0013351644156500697,0.004386968910694122,0.01506828423589468,0.03490501269698143,0.06198977679014206,0.466828852891922,0.014022571966052055,-0.0037792008370161057,0.4745899438858032,0.006396230310201645,0.018534330651164055,-0.07343810796737671,-0.39618903398513794,-0.01527354959398508,0.031940508633852005,-0.42388036847114563,0.0062342132441699505,0.01241342630237341,0.010794715955853462,0.0,0.0,1.2000000476837158,0.3285143108772709,0.21956092067584287,0.7586877084732004,-0.015713975604140895,-0.04553935637080864,-0.03323812507721202,0.3633256611357071,-0.24255997133831475,0.7896722016800176,0.0020542089091253324,-0.10873429880268937,-0.03675628373102802,0.47226759791374207,0.008245029486715794,0.001716639962978661,0.46292057633399963,-0.0024795911740511656,0.008964675478637218,-0.0715266615152359,-0.4185790419578552,-0.008628519251942635,0.016975661739706993,-0.4369802474975586,0.0013351644156500697,0.004386968910694122,0.01506828423589468
38,0,0.4718841314315796,0.008245029486715794,0.001716639962978661,0.46292057633399963,-0.0009536888683214784,0.009346150793135166,-0.071908138692379,-0.40592387318611145,-0.009012009017169476,0.019645990803837776,-0.4343098998069763,0.001716639962978661,0.004386968910694122,0.013923857361078262,0.03490501269698143,0.06198977679014206,0.46699145436286926,0.013369236141443253,-0.006557470187544823,0.4749760329723358,0.0057942233979702,0.01938074640929699,-0.07739105820655823,-0.38460981845855713,-0.018244102597236633,0.032748784869909286,-0.41570520401000977,0.004734143149107695,0.011148667894303799,0.013399319723248482,0.0,0.0,1.233299970626831,0.32849066373846253,0.21938783589336594,0.7585927923216724,-0.016483239383986437,-0.04501588144073532,-0.03229130679117986,0.3674632232757292,-0.24351850383703652,0.7919165406581763,-0.007677003463679277,-0.11426775324816152,-0.03600294425850237,0.4718841314315796,0.008245029486715794,0.001716639962978661,0.46292057633399963,-0.0009536888683214784,0.009346150793135166,-0.071908138692379,-0.40592387318611145,-0.009012009017169476,0.019645990803837776,-0.4343098998069763,0.001716639962978661,0.004386968910694122,0.013923857361078262
39,0,0.4718841314315796,0.008245029486715794,0.001716639962978661,0.46292057633399963,0.00019073777366429567,0.010490577667951584,-0.071908138692379,-0.3971036374568939,-0.009012009017169476,0.02536812424659729,-0.4343098998069763,0.0020981156267225742,0.004005493130534887,0.013542382046580315,0.03490501269698143,0.06198977679014206,0.4630531370639801,0.012846017256379128,-0.006545929238200188,0.47535228729248047,0.004066284745931625,0.021134430542588234,-0.07490664720535278,-0.37502196431159973,-0.022643961012363434,0.037528958171606064,-0.4132036566734314,0.013025924563407898,0.005437582265585661,0.006964074447751045,0.0,0.0,1.266700029373169,0.32855896831113596,0.2193446921396129,0.758531852401694,-0.01645623132133034,-0.04435002800451615,-0.03198508424815838,0.3704352949233759,-0.24408123331576093,0.7931691654723347,-0.007390415397112715,-0.11595443142806339,-0.034345774938018714,0.4718841314315796,0.008245029486715794,0.001716639962978661,0.46292057633399963,0.00019073777366429567,0.010490577667951584,-0.071908138692379,-0.3971036374568939,-0.009012009017169476,0.02536812424659729,-0.4343098998069763,0.0020981156267225742,0.004005493130534887,0.013542382046580315
40,0,0.4715006351470947,0.008245029486715794,0.001716639962978661,0.46292057633399963,0.00019073777366429567,0.011635004542768002,-0.07343403995037079,-0.3806135654449463,-0.009012009017169476,0.03185320645570755,-0.4236285984516144,0.0020981156267225742,0.004005493130534887,0.01430533267557621,0.03490501269698143,0.06198977679014206,0.4628717005252838,0.011516589671373367,-0.00845750980079174,0.4737117290496826,0.0012974700657650828,0.0225811954587698,-0.07674452662467957,-0.36478644609451294,-0.025007404386997223,0.03802686929702759,-0.40872836112976074,0.01537962257862091,0.0030481363646686077,0.003119664266705513,0.0,0.0,1.2999999523162842,0.3285763333262651,0.21913194571983272,0.758588353954935,-0.01645987276059424,-0.044112384123085935,-0.03193863967317556,0.3748151900165647,-0.24396658717528966,0.7950235355690427,-0.010635984197237214,-0.11500214684122545,-0.031159612355549537,0.4715006351470947,0.008245029486715794,0.001716639962978661,0.46292057633399963,0.00019073777366429567,0.011635004542768002,-0.07343403995037079,-0.3806135654449463,-0.009012009017169476,0.03185320645570755,-0.4236285984516144,0.0020981156267225742,0.004005493130534887,0.01430533267557621
41,0,0.470733642578125,0.008245029486715794,0.001716639962978661,0.46292057633399963,0.00019073777366429567,0.011635004542768002,-0.07267109304666519,-0.3790796101093292,-0.012846906669437885,0.032616160809993744,-0.4232471287250519,0.005912871100008488,0.002861066721379757,0.010872052982449532,0.03490501269698143,0.06198977679014206,0.46302053332328796,0.01179206371307373,-0.00916510634124279,0.47497519850730896,0.0007749459473416209,0.022216426208615303,-0.07529714703559875,-0.36107441782951355,-0.024639829993247986,0.03701024502515793,-0.40875497460365295,0.01411031186580658,0.003507159184664488,0.0015388595638796687,0.0,0.0,1.333299994468689,0.3286288963584031,0.21907582765586242,0.7585730080937549,-0.016539055447907458,-0.04369602097855818,-0.032048404272126074,0.3767600442375707,-0.24386126830866767,0.7957055442003755,-0.013228126940235008,-0.11431854194170965,-0.029920945379482866,0.470733642578125,0.008245029486715794,0.001716639962978661,0.46292057633399963,0.00019073777366429567,0.011635004542768002,-0.07267109304666519,-0.3790796101093292,-0.012846906669437885,0.032616160809993744,-0.4232471287250519,0.005912871100008488,0.002861066721379757,0.010872052982449532
42,0,0.46919968724250793,0.008245029486715794,-0.0013351644156500697,0.46292057633399963,-0.00019073777366429567,0.012397955171763897,-0.07305257022380829,-0.37179329991340637,-0.01591482385993004,0.032616160809993744,-0.4201953113079071,0.010872052982449532,0.002861066721379757,0.004386968910694122,0.03490501269698143,0.06198977679014206,0.4649200141429901,0.011758554726839066,-0.011914445087313652,0.47447577118873596,9.426088945474476e-05,0.022236822172999382,-0.07818567752838135,-0.360379159450531,-0.02419697493314743,0.035439297556877136,-0.4070945680141449,0.010837271809577942,0.004709742497652769,0.0031989682465791702,0.0,0.0,1.3667000532150269,0.3286290000095252,0.21907566448282775,0.7585744027795014,-0.01653905355885321,-0.04369559284494784,-0.03204837126110416,0.3767743085174469,-0.24386030689021407,0.7957030082180877,-0.013228331360267465,-0.1143181165019187,-0.029921382268113028,0.46919968724250793,0.008245029486715794,-0.0013351644156500697,0.46292057633399963,-0.00019073777366429567,0.012397955171763897,-0.07305257022380829,-0.37179329991340637,-0.01591482385993004,0.032616160809993744,-0.4201953113079071,0.010872052982449532,0.002861066721379757,0.004386968910694122
43,0,0.46689876914024353,0.008245029486715794,-0.0032425422687083483,0.46292057633399963,-0.00019073777366429567,0.012779430486261845,-0.07267109304666519,-0.36182257533073425,-0.017832273617386818,0.032616160809993744,-0.41485464572906494,0.01125352829694748,0.002861066721379757,0.0032425422687083483,0.03490501269698143,0.06198977679014206,0.4663862884044647,0.011253409087657928,-0.013843538239598274,0.4733312129974365,-0.0008955338271334767,0.02246866188943386,-0.08077505230903625,-0.3605221211910248,-0.024293705821037292,0.034407515078783035,-0.40535569190979004,0.008945003151893616,0.005215771030634642,0.005071984604001045,0.0,0.0,1.399999976158142,0.3286289903511004,0.2190756427180024,0.7585744156672292,-0.016539052016919964,-0.04369555992246754,-0.03204836957225243,0.37677446712369755,-0.24386032313526637,0.7957028718946367,-0.013228331996197884,-0.11431815268340983,-0.0299213829710685,0.46689876914024353,0.008245029486715794,-0.0032425422687083483,0.46292057633399963,-0.00019073777366429567,0.012779430486261845,-0.07267109304666519,-0.36182257533073425,-0.017832273617386818,0.032616160809993744,-0.41485464572906494,0.01125352829694748,0.002861066721379757,0.0032425422687083483
44,0,0.4626803696155548,0.008245029486715794,-0.005149920005351305,0.46292057633399963,-0.00019073777366429567,0.015449759550392628,-0.07381551712751389,-0.3579876720905304,-0.018982741981744766,0.032616160809993744,-0.41218432784080505,0.011635004542768002,0.0024795911740511656,0.0032425422687083483,0.03490501269698143,0.06198977679014206,0.46507689356803894,0.010363778099417686,-0.014959072694182396,0.47415393590927124,-0.0011414327891543508,0.020041843876242638,-0.07687842845916748,-0.34442105889320374,-0.02418171614408493,0.029900476336479187,-0.4018431305885315,0.0071099246852099895,0.0039794291369616985,-0.0027050506323575974,0.0,0.0,1.4333000183105469,0.32905226795693276,0.2186815825823194,0.7587396581220309,-0.01714060926503569,-0.043691878697348585,-0.031456419824511084,0.3893136440566064,-0.2431932387113651,0.7998699419109537,-0.017315304608487292,-0.11133915449192378,-0.018273242230863573,0.4626803696155548,0.008245029486715794,-0.005149920005351305,0.46292057633399963,-0.00019073777366429567,0.015449759550392628,-0.07381551712751389,-0.3579876720905304,-0.018982741981744766,0.032616160809993744,-0.41218432784080505,0.011635004542768002,0.0024795911740511656,0.0032425422687083483
45,0,0.4630638659000397,0.008245029486715794,-0.005149920005351305,0.46292057633399963,-0.00019073777366429567,0.01583123579621315,-0.07763027399778366,-0.3579876720905304,-0.019749721512198448,0.032616160809993744,-0.41218432784080505,0.01125352829694748,0.002861066721379757,0.0036240178160369396,0.03490501269698143,0.06198977679014206,0.4654160439968109,0.011061031371355057,-0.015267433598637581,0.47544771432876587,-0.0002775528992060572,0.018814830109477043,-0.07562682032585144,-0.33712542057037354,-0.02245660126209259,0.028558652848005295,-0.3998633921146393,0.004548266064375639,0.00611744774505496,-0.004819853231310844,0.0,0.0,1.4666999578475952,0.329271676118855,0.21849616218063006,0.7588053616125527,-0.016812085700621537,-0.04340251081087354,-0.031145636826390266,0.3945117992862722,-0.24334053562067376,0.802324332056415,-0.011368112727173418,-0.11228483378320986,-0.019537798920112426,0.4630638659000397,0.008245029486715794,-0.005149920005351305,0.46292057633399963,-0.00019073777366429567,0.01583123579621315,-0.07763027399778366,-0.3579876720905304,-0.019749721512198448,0.032616160809993744,-0.41218432784080505,0.01125352829694748,0.002861066721379757,0.0036240178160369396
46,0,0.4630638659000397,0.008245029486715794,-0.007438773289322853,0.46292057633399963,-0.000572213320992887,0.01583123579621315,-0.07801175117492676,-0.35415276885032654,-0.019749721512198448,0.03147173300385475,-0.40989547967910767,0.010490577667951584,0.002861066721379757,-0.000572213320992887,0.03490501269698143,0.06198977679014206,0.46564653515815735,0.010803274810314178,-0.016233129426836967,0.47549840807914734,4.317479579185601e-06,0.017500417307019234,-0.07565757632255554,-0.3304481506347656,-0.02208426594734192,0.027316898107528687,-0.3972457945346832,0.0027634943835437298,0.006757683586329222,-0.006478710100054741,0.0,0.0,1.5,0.32945935636923207,0.2185936031560444,0.7590184760896391,-0.017499015711042176,-0.04436198081177123,-0.029486071302861294,0.39869309459734825,-0.24330176840341716,0.8046801342509825,-0.009029588933176846,-0.11461573213872223,-0.017793228245243764,0.4630638659000397,0.008245029486715794,-0.007438773289322853,0.46292057633399963,-0.000572213320992887,0.01583123579621315,-0.07801175117492676,-0.35415276885032654,-0.019749721512198448,0.03147173300385475,-0.40989547967910767,0.010490577667951584,0.002861066721379757,-0.000572213320992887
47,0,0.4626803696155548,0.008245029486715794,-0.011635004542768002,0.46292057633399963,-0.000572213320992887,0.015449759550392628,-0.07763027399778366,-0.3407306373119354,-0.019749721512198448,0.03147173300385475,-0.4056992530822754,0.009727626107633114,0.002861066721379757,-0.004005493130534887,0.03490501269698143,0.06198977679014206,0.46429434418678284,0.01137976162135601,-0.01843203790485859,0.4768819510936737,-0.002356712007895112,0.01693415455520153,-0.07219639420509338,-0.319091796875,-0.021564774215221405,0.026287581771612167,-0.3931850492954254,0.0015730406157672405,0.007464035879820585,-0.009189797565340996,0.0,0.0,1.5333000421524048,0.3296863048618608,0.2186786832171482,0.7589452224407678,-0.017535003088223533,-0.04295287890833688,-0.028546779210439244,0.40167053067832836,-0.2435039561432263,0.8061149241436477,-0.009968265327487735,-0.1159318911385725,-0.018078889484975935,0.4626803696155548,0.008245029486715794,-0.011635004542768002,0.46292057633399963,-0.000572213320992887,0.015449759550392628,-0.07763027399778366,-0.3407306373119354,-0.019749721512198448,0.03147173300385475,-0.4056992530822754,0.009727626107633114,0.002861066721379757,-0.004005493130534887
48,0,0.4626803696155548,0.008245029486715794,-0.011635004542768002,0.46292057633399963,-0.000572213320992887,0.015449759550392628,-0.07763027399778366,-0.32922592759132385,-0.019749721512198448,0.03147173300385475,-0.4056992530822754,0.008964675478637218,0.002861066721379757,-0.004005493130534887,0.03490501269698143,0.06198977679014206,0.46265557408332825,0.011562228202819824,-0.019068876281380653,0.47627151012420654,-0.0034156779292970896,0.017188401892781258,-0.07135817408561707,-0.3186850845813751,-0.022322937846183777,0.026364851742982864,-0.3929251730442047,0.002423360478132963,0.00634303642436862,-0.009453250095248222,0.0,0.0,1.5666999816894531,0.32970484026313773,0.218671568315985,0.758974916139228,-0.01753434722973557,-0.04293977228680257,-0.028543565925105874,0.40183591373366556,-0.24345937621639624,0.8060763704621956,-0.009980683565876891,-0.1159350344906187,-0.018096802532627798,0.4626803696155548,0.008245029486715794,-0.011635004542768002,0.46292057633399963,-0.000572213320992887,0.015449759550392628,-0.07763027399778366,-0.32922592759132385,-0.019749721512198448,0.03147173300385475,-0.4056992530822754,0.008964675478637218,0.002861066721379757,-0.004005493130534887
49,0,0.4630638659000397,0.008245029486715794,-0.011635004542768002,0.46292057633399963,-0.002861066721379757,0.015449759550392628,-0.07572289556264877,-0.3207891583442688,-0.019749721512198448,0.03147173300385475,-0.39921414852142334,0.00476844422519207,0.002861066721379757,-0.005912871100008488,0.03490501269698143,0.06198977679014206,0.4606686532497406,0.0117794219404459,-0.017999490723013878,0.4765249788761139,-0.004102472215890884,0.01674698106944561,-0.06675559282302856,-0.30084705352783203,-0.020987562835216522,0.02575485035777092,-0.3849949538707733,0.002156152855604887,0.008096969686448574,-0.013316435739398003,0.0,0.0,1.600000023841858,0.32985699422186626,0.2185352306672793,0.7591850808253925,-0.017758930705324527,-0.04257654874606054,-0.028544110302521464,0.40643739084370434,-0.24383257300065492,0.8070447639107975,-0.01160584906927209,-0.11812025097936374,-0.020491824887579835,0.4630638659000397,0.008245029486715794,-0.011635004542768002,0.46292057633399963,-0.002861066721379757,0.015449759550392628,-0.07572289556264877,-0.3207891583442688,-0.019749721512198448,0.03147173300385475,-0.39921414852142334,0.00476844422519207,0.002861066721379757,-0.005912871100008488
50,0,0.4626803696155548,0.008245029486715794,-0.011635004542768002,0.46292057633399963,-0.0032425422687083483,0.015449759550392628,-0.07572289556264877,-0.3173377513885498,-0.019749721512198448,0.03147173300385475,-0.39730677008628845,0.00476844422519207,0.002861066721379757,-0.0078202486038208,0.03490501269698143,0.06198977679014206,0.4550637900829315,0.010997291654348373,-0.016217490658164024,0.47887128591537476,-0.009541068226099014,0.016603900119662285,-0.05138814076781273,-0.2625313401222229,-0.016903050243854523,0.024248771369457245,-0.36756306886672974,0.007266208063811064,0.010103150270879269,-0.025747759267687798,0.0,0.0,1.6332999467849731,0.3301803431435613,0.21841600586095206,0.7592140865253949,-0.01794436400452959,-0.04097933921479102,-0.028705612595534724,0.41049369317364837,-0.24448148673431955,0.8071551396669694,-0.016557619344065966,-0.12036954030824898,-0.02500479818676693,0.4626803696155548,0.008245029486715794,-0.011635004542768002,0.46292057633399963,-0.0032425422687083483,0.015449759550392628,-0.07572289556264877,-0.3173377513885498,-0.019749721512198448,0.03147173300385475,-0.39730677008628845,0.00476844422519207,0.002861066721379757,-0.0078202486038208
51,0,0.4626803696155548,0.008245029486715794,-0.011635004542768002,0.46292057633399963,-0.0036240178160369396,0.015449759550392628,-0.071908138692379,-0.2993137538433075,-0.019749721512198448,0.03147173300385475,-0.3843366205692291,0.00476844422519207,0.002861066721379757,-0.011635004542768002,0.03490501269698143,0.06198977679014206,0.4521527588367462,0.010738862678408623,-0.014160161837935448,0.4804973304271698,-0.010507527738809586,0.015812905505299568,-0.04323318228125572,-0.2409493327140808,-0.014476929791271687,0.023682232946157455,-0.35832616686820984,0.009443625807762146,0.011629431508481503,-0.03365586698055267,0.0,0.0,1.666700005531311,0.33022121354976885,0.21834909328086305,0.759319546501522,-0.017886892498365725,-0.04106784650527562,-0.02875046703706685,0.4119512892222321,-0.24480130512543707,0.8070804485633387,-0.015480804327391517,-0.11916361984670942,-0.027380387523780136,0.4626803696155548,0.008245029486715794,-0.011635004542768002,0.46292057633399963,-0.0036240178160369396,0.015449759550392628,-0.071908138692379,-0.2993137538433075,-0.019749721512198448,0.03147173300385475,-0.3843366205692291,0.00476844422519207,0.002861066721379757,-0.011635004542768002
52,0,0.46229687333106995,0.008245029486715794,-0.011635004542768002,0.46330204606056213,-0.007438773289322853,0.015449759550392628,-0.0551232174038887,-0.2778383195400238,-0.019749721512198448,0.030708782374858856,-0.3702220320701599,0.005149920005351305,0.0036240178160369396,-0.02040894143283367,0.03490501269698143,0.06198977679014206,0.4418063461780548,0.010441463440656662,-0.0078811626881361,0.4839300513267517,-0.010040495544672012,0.012388980016112328,-0.020766643807291985,-0.1892310380935669,-0.008472670800983906,0.02449055388569832,-0.3380880355834961,0.015855029225349426,0.015106341801583767,-0.058264121413230896,0.0,0.0,1.7000000476837158,0.33040413910061733,0.21810617282324976,0.7595912857004411,-0.017188127349107685,-0.04179843318986931,-0.028914098135697675,0.41579269703457933,-0.24583185750771572,0.8071633932526493,-0.005208729251312771,-0.1135743591406686,-0.03204599547201781,0.46229687333106995,0.008245029486715794,-0.011635004542768002,0.46330204606056213,-0.007438773289322853,0.015449759550392628,-0.0551232174038887,-0.2778383195400238,-0.019749721512198448,0.030708782374858856,-0.3702220320701599,0.005149920005351305,0.0036240178160369396,-0.02040894143283367
53,0,0.456928014755249,0.008245029486715794,-0.011635004542768002,0.4640650153160095,-0.0078202486038208,0.01506828423589468,-0.048638131469488144,-0.2452416867017746,-0.019749721512198448,0.030708782374858856,-0.3591592311859131,0.005531395319849253,0.0032425422687083483,-0.03299763426184654,0.03490501269698143,0.06198977679014206,0.43306413292884827,0.01094944216310978,-0.005976548418402672,0.4836876392364502,-0.011367324739694595,0.012043481692671776,-0.009977249428629875,-0.1612737774848938,-0.0070816511288285255,0.025408539921045303,-0.3270263373851776,0.02205367386341095,0.013945399783551693,-0.07168890535831451,0.0,0.0,1.733299970626831,0.3304495155937406,0.21801905302945596,0.7598849220928754,-0.016376387379219093,-0.043940365428533745,-0.029184665763241302,0.4179460057360609,-0.24641508119748515,0.8072487114123402,-0.00041662347192072957,-0.11343480969958097,-0.03440805635117661,0.456928014755249,0.008245029486715794,-0.011635004542768002,0.4640650153160095,-0.0078202486038208,0.01506828423589468,-0.048638131469488144,-0.2452416867017746,-0.019749721512198448,0.030708782374858856,-0.3591592311859131,0.005531395319849253,0.0032425422687083483,-0.03299763426184654
54,0,0.4515591561794281,0.008245029486715794,-0.011635004542768002,0.4648279547691345,-0.0078202486038208,0.013542382046580315,-0.026131074875593185,-0.20267432928085327,-0.017448782920837402,0.02536812424659729,-0.3435187339782715,0.011635004542768002,0.004005493130534887,-0.053215838968753815,0.03490501269698143,0.06198977679014206,0.4314322769641876,0.011749489232897758,-0.002658223733305931,0.4835006296634674,-0.007594142109155655,0.011178560554981232,-0.008712230250239372,-0.14404980838298798,-0.005398464389145374,0.02659492939710617,-0.32010117173194885,0.02140878140926361,0.016595393419265747,-0.07919676601886749,0.0,0.0,1.766700029373169,0.3305270190577234,0.2180568749142574,0.7600921952435139,-0.016037295438586785,-0.045634319545514224,-0.029014740069380096,0.42081702830633183,-0.24713252634334062,0.8074159856788737,0.0009136139340619742,-0.11311850782975919,-0.037152928802035134,0.4515591561794281,0.008245029486715794,-0.011635004542768002,0.4648279547691345,-0.0078202486038208,0.013542382046580315,-0.026131074875593185,-0.20267432928085327,-0.017448782920837402,0.02536812424659729,-0.3435187339782715,0.011635004542768002,0.004005493130534887,-0.053215838968753815
55,0,0.4392874836921692,0.007861539721488953,-0.009727626107633114,0.4648279547691345,-0.008964675478637218,0.013923857361078262,-0.016975661739706993,-0.1585730016231537,-0.013997375033795834,0.024986648932099342,-0.3278782367706299,0.01735713705420494,0.004005493130534887,-0.06923781335353851,0.03490501269698143,0.06198977679014206,0.43014588952064514,0.012352464720606804,-0.0006806311430409551,0.4859846830368042,-0.007377002388238907,0.011549696326255798,-0.003042427357286215,-0.12512005865573883,-0.003128391457721591,0.02684042975306511,-0.3125527799129486,0.02153937518596649,0.019369862973690033,-0.08681745827198029,0.0,0.0,1.7999999523162842,0.33062798597655907,0.21812757850822095,0.760229324604074,-0.016144956037476454,-0.046269169659055365,-0.028230628408251857,0.42279240813636587,-0.2475934788819436,0.8073802787810531,0.002476582934555882,-0.11222689278411524,-0.03815198620155469,0.4392874836921692,0.007861539721488953,-0.009727626107633114,0.4648279547691345,-0.008964675478637218,0.013923857361078262,-0.016975661739706993,-0.1585730016231537,-0.013997375033795834,0.024986648932099342,-0.3278782367706299,0.01735713705420494,0.004005493130534887,-0.06923781335353851
56,0,0.4266323447227478,0.007861539721488953,-0.0078202486038208,0.4648279547691345,-0.009727626107633114,0.01201647985726595,-0.015449759550392628,-0.13287919759750366,-0.012846906669437885,0.024986648932099342,-0.3271152675151825,0.01773861236870289,0.004005493130534887,-0.07648584991693497,0.03490501269698143,0.06198977679014206,0.42726758122444153,0.0120659489184618,-0.000450192135758698,0.4876279830932617,-0.00964999571442604,0.01112719438970089,0.0044592940248548985,-0.10764142870903015,-0.0019072599243372679,0.02626480907201767,-0.30496692657470703,0.023214206099510193,0.01990540325641632,-0.09324346482753754,0.0,0.0,1.833299994468689,0.3307256564734629,0.21826121257018474,0.760295862660818,-0.016375103808440095,-0.0465714380609743,-0.027021141728861053,0.4244991009305076,-0.24776815004307792,0.8073915916476245,0.0027182597690909027,-0.11267819971444126,-0.03720928356140618,0.4266323447227478,0.007861539721488953,-0.0078202486038208,0.4648279547691345,-0.009727626107633114,0.01201647985726595,-0.015449759550392628,-0.13287919759750366,-0.012846906669437885,0.024986648932099342,-0.3271152675151825,0.01773861236870289,0.004005493130534887,-0.07648584991693497
57,0,0.4270158112049103,0.008245029486715794,-0.0078202486038208,0.4648279547691345,-0.009727626107633114,0.01125352829694748,-0.010109102353453636,-0.13057824969291687,-0.012846906669437885,0.024986648932099342,-0.3236820101737976,0.01773861236870289,0.004386968910694122,-0.08106355369091034,0.03490501269698143,0.06198977679014206,0.42571163177490234,0.011153403669595718,-8.737864845898002e-05,0.4885789752006531,-0.010842535644769669,0.009566588327288628,0.0102273840457201,-0.08826714754104614,-5.9139736549695954e-05,0.024998079985380173,-0.2955423891544342,0.02355523407459259,0.021402113139629364,-0.09885163605213165,0.0,0.0,1.8667000532150269,0.3308551127772823,0.21835134246151908,0.7603871740535142,-0.0167252955218129,-0.04658336190710566,-0.026105552309100943,0.42729704439707716,-0.24838744351309236,0.8068784964833342,-0.0024673309075140537,-0.11255196737250417,-0.036269060440248246,0.4270158112049103,0.008245029486715794,-0.0078202486038208,0.4648279547691345,-0.009727626107633114,0.01125352829694748,-0.010109102353453636,-0.13057824969291687,-0.012846906669437885,0.024986648932099342,-0.3236820101737976,0.01773861236870289,0.004386968910694122,-0.08106355369091034
58,0,0.4266323447227478,0.007861539721488953,-0.007438773289322853,0.4648279547691345,-0.010109102353453636,0.01125352829694748,-0.001716639962978661,-0.12137450277805328,-0.012463416904211044,0.024986648932099342,-0.3065156042575836,0.018501564860343933,0.004386968910694122,-0.0883115902543068,0.03490501269698143,0.06198977679014206,0.4269835352897644,0.010804001241922379,0.0009903403697535396,0.4922235310077667,-0.008865568786859512,0.008717294782400131,0.012770624831318855,-0.07520690560340881,0.002326029585674405,0.02575419843196869,-0.28711506724357605,0.022013142704963684,0.02529359608888626,-0.10242058336734772,0.0,0.0,1.899999976158142,0.3308420138148337,0.2184143976880849,0.7606673850432772,-0.01553440305829401,-0.04773625985321761,-0.02577905532033009,0.4305119033737729,-0.24986974808973592,0.8055474300114498,-0.0014892940972113244,-0.10781759178778705,-0.04117999205698242,0.4266323447227478,0.007861539721488953,-0.007438773289322853,0.4648279547691345,-0.010109102353453636,0.01125352829694748,-0.001716639962978661,-0.12137450277805328,-0.012463416904211044,0.024986648932099342,-0.3065156042575836,0.018501564860343933,0.004386968910694122,-0.0883115902543068
59,0,0.4266323447227478,0.007861539721488953,-0.007438773289322853,0.4655908942222595,-0.010109102353453636,0.01125352829694748,0.004386968910694122,-0.09913209825754166,-0.008628519251942635,0.024986648932099342,-0.2924010157585144,0.019645990803837776,0.005149920005351305,-0.09937438368797302,0.03490501269698143,0.06198977679014206,0.42786693572998047,0.01006108708679676,0.0010310726938769221,0.49611788988113403,-0.007974658161401749,0.008020538836717606,0.014754237607121468,-0.06619645655155182,0.003295785980299115,0.027111578732728958,-0.28217998147010803,0.022409841418266296,0.026903897523880005,-0.10986389219760895,0.0,0.0,1.9333000183105469,0.33081050844133486,0.2184100188443592,0.7607472242509585,-0.015133615953882629,-0.04836351614501977,-0.025824065036113897,0.4319413338567427,-0.2506508679701946,0.8047482201140409,0.006184877852116966,-0.10233913401318873,-0.04142205649217967,0.4266323447227478,0.007861539721488953,-0.007438773289322853,0.4655908942222595,-0.010109102353453636,0.01125352829694748,0.004386968910694122,-0.09913209825754166,-0.008628519251942635,0.024986648932099342,-0.2924010157585144,0.019645990803837776,0.005149920005351305,-0.09937438368797302
60,0,0.4266323447227478,0.007861539721488953,-0.00667582219466567,0.4682612419128418,-0.010109102353453636,0.01125352829694748,0.0078202486038208,-0.07650620490312576,-0.005177111364901066,0.024986648932099342,-0.2924010157585144,0.019645990803837776,0.011635004542768002,-0.10166323184967041,0.03490501269698143,0.06198977679014206,0.428680419921875,0.009079661220312119,-0.0002678466262295842,0.49879589676856995,-0.009108606725931168,0.007340034004300833,0.016808511689305305,-0.05257900059223175,0.004824521951377392,0.02780764549970627,-0.27224382758140564,0.020995691418647766,0.030178077518939972,-0.1154216080904007,0.0,0.0,1.9666999578475952,0.3307678032633111,0.21852696383730688,0.7609431103278522,-0.014636867202532322,-0.04959056654266325,-0.025406002869605704,0.43570452650455804,-0.2529207560842983,0.8026576144616617,0.008852355298035075,-0.09357409189617849,-0.04846263628025271,0.4266323447227478,0.007861539721488953,-0.00667582219466567,0.4682612419128418,-0.010109102353453636,0.01125352829694748,0.0078202486038208,-0.07650620490312576,-0.005177111364901066,0.024986648932099342,-0.2924010157585144,0.019645990803837776,0.011635004542768002,-0.10166323184967041
61,0,0.4266323447227478,0.007861539721488953,-0.00667582219466567,0.4709315598011017,-0.010109102353453636,0.010872052982449532,0.008201723918318748,-0.06615197658538818,-0.0036431525368243456,0.024605173617601395,-0.2924010157585144,0.020027466118335724,0.011635004542768002,-0.10662241280078888,0.03490501269698143,0.06198977679014206,0.4280545711517334,0.00827423669397831,-0.0028915386646986008,0.4970269501209259,-0.011315617710351944,0.007027338724583387,0.01511460728943348,-0.04252675175666809,0.004752821289002895,0.029059231281280518,-0.26241859793663025,0.02017049491405487,0.03203990310430527,-0.11495469510555267,0.0,0.0,2.0,0.33083992752134805,0.2189425948134278,0.7611461935038683,-0.01595499506675635,-0.05072688458455055,-0.022284797260348377,0.43946019950050524,-0.25495545657734714,0.8003524427257315,0.0011559263722724644,-0.09022602320738171,-0.05363116222162345,0.4266323447227478,0.007861539721488953,-0.00667582219466567,0.4709315598011017,-0.010109102353453636,0.010872052982449532,0.008201723918318748,-0.06615197658538818,-0.0036431525368243456,0.024605173617601395,-0.2924010157585144,0.020027466118335724,0.011635004542768002,-0.10662241280078888
62,0,0.4266323447227478,0.007861539721488953,-0.00667582219466567,0.4728389382362366,-0.010109102353453636,0.009346150793135166,0.01125352829694748,-0.059249166399240494,-0.0036431525368243456,0.024223696440458298,-0.2817196846008301,0.019645990803837776,0.01430533267557621,-0.11043716967105865,0.03490501269698143,0.06198977679014206,0.4283096492290497,0.007854361087083817,-0.0022441204637289047,0.4975440800189972,-0.009385351091623306,0.005522891413420439,0.014898838475346565,-0.03767228126525879,0.005441165529191494,0.029793646186590195,-0.2587629556655884,0.019209876656532288,0.03371759504079819,-0.11748270690441132,0.0,0.0,2.0332999229431152,0.3308635604709337,0.21902638376703604,0.7611699599238266,-0.01644146128368451,-0.050843896278616185,-0.021203748853449778,0.4411032176575486,-0.2557111770840582,0.7993127788653734,0.004774192910616648,-0.08543648645436042,-0.05350883446736887,0.4266323447227478,0.007861539721488953,-0.00667582219466567,0.4728389382362366,-0.010109102353453636,0.009346150793135166,0.01125352829694748,-0.059249166399240494,-0.0036431525368243456,0.024223696440458298,-0.2817196846008301,0.019645990803837776,0.01430533267557621,-0.11043716967105865
63,0,0.4266323447227478,0.007861539721488953,-0.00667582219466567,0.47398337721824646,-0.010490577667951584,0.00858320016413927,0.01125352829694748,-0.05311333015561104,-0.0036431525368243456,0.024223696440458298,-0.26798656582832336,0.019645990803837776,0.01583123579621315,-0.11158160120248795,0.03490501269698143,0.06198977679014206,0.4215312600135803,0.00829254649579525,-0.0015408751787617803,0.49568670988082886,-0.008197728544473648,0.003988148178905249,0.01702726073563099,-0.02970968186855316,0.004274218343198299,0.03267064318060875,-0.2528636157512665,0.02276526391506195,0.03250577300786972,-0.12558816373348236,0.0,0.0,2.066699981689453,0.33086807214345815,0.21904056821439974,0.7613329092777037,-0.016321729692723608,-0.051272824990830745,-0.019930990950621563,0.4453990989195274,-0.25780251355033734,0.7965846419655189,0.014051874936013231,-0.06815675332056825,-0.051339343124833015,0.4266323447227478,0.007861539721488953,-0.00667582219466567,0.47398337721824646,-0.010490577667951584,0.00858320016413927,0.01125352829694748,-0.05311333015561104,-0.0036431525368243456,0.024223696440458298,-0.26798656582832336,0.019645990803837776,0.01583123579621315,-0.11158160120248795
64,0,0.4266323447227478,0.007861539721488953,-0.00667582219466567,0.47550925612449646,-0.010490577667951584,0.008201723918318748,0.01125352829694748,-0.04736098274588585,-0.0036431525368243456,0.024223696440458298,-0.2653162479400635,0.019645990803837776,0.01773861236870289,-0.11692225188016891,0.03490501269698143,0.06198977679014206,0.4232117235660553,0.00794246606528759,-0.001772223156876862,0.49562305212020874,-0.00684264674782753,0.003036122303456068,0.01426023431122303,-0.021590135991573334,0.005624472163617611,0.03265433758497238,-0.2452765554189682,0.0197116881608963,0.03599945455789566,-0.12858577072620392,0.0,0.0,2.0999999046325684,0.3307213836645334,0.21884798448446588,0.761565036132018,-0.014710242449190947,-0.053690986956784315,-0.020286248073237978,0.44939779654673107,-0.25958179585850194,0.7944843847672102,0.011477917356250256,-0.05755553263778035,-0.05388933590779166,0.4266323447227478,0.007861539721488953,-0.00667582219466567,0.47550925612449646,-0.010490577667951584,0.008201723918318748,0.01125352829694748,-0.04736098274588585,-0.0036431525368243456,0.024223696440458298,-0.2653162479400635,0.019645990803837776,0.01773861236870289,-0.11692225188016891
65,0,0.4266323447227478,0.007478049956262112,-0.00667582219466567,0.47550925612449646,-0.010109102353453636,0.0078202486038208,0.011635004542768002,-0.040074676275253296,-0.0032596627715975046,0.024223696440458298,-0.2603570520877838,0.020027466118335724,0.018120087683200836,-0.12111848592758179,0.03490501269698143,0.06198977679014206,0.42111876606941223,0.0076770116575062275,0.001091929036192596,0.4962242543697357,-0.0032941142562776804,0.0009070016094483435,0.014164688065648079,-0.019811294972896576,0.0048201559111475945,0.034134574234485626,-0.2442093789577484,0.022417083382606506,0.03458674997091293,-0.13503219187259674,0.0,0.0,2.1333000659942627,0.3306610046911194,0.21883774230256464,0.7616414764849728,-0.014256792915787297,-0.0544484602595432,-0.02007247939362866,0.4519935002851725,-0.26069831459214593,0.7928076987282411,0.027999304432100303,-0.0434076860644832,-0.04718915672970869,0.4266323447227478,0.007478049956262112,-0.00667582219466567,0.47550925612449646,-0.010109102353453636,0.0078202486038208,0.011635004542768002,-0.040074676275253296,-0.0032596627715975046,0.024223696440458298,-0.2603570520877838,0.020027466118335724,0.018120087683200836,-0.12111848592758179
66,0,0.42624884843826294,0.007478049956262112,-0.00667582219466567,0.47550925612449646,-0.010109102353453636,0.007438773289322853,0.01125352829694748,-0.029720455408096313,-0.0032596627715975046,0.024223696440458298,-0.25196459889411926,0.020027466118335724,0.01888304017484188,-0.12493324279785156,0.03490501269698143,0.06160829961299896,0.4223216772079468,0.007344410289078951,0.0026759449392557144,0.49677595496177673,0.00048455208889208734,-0.0004189540049992502,0.012682052329182625,-0.010483474470674992,0.004164080135524273,0.034884192049503326,-0.23443371057510376,0.02552752196788788,0.033519111573696136,-0.14882348477840424,0.0,0.0,2.1666998863220215,0.3305891977569188,0.21886165230623553,0.7616864387798893,-0.013967369424015441,-0.05495398167386645,-0.019779692138100824,0.4548251124306144,-0.261901725223464,0.7911259699451508,0.03019059906212851,-0.030126585973799802,-0.04522587983498916,0.42624884843826294,0.007478049956262112,-0.00667582219466567,0.47550925612449646,-0.010109102353453636,0.007438773289322853,0.01125352829694748,-0.029720455408096313,-0.0032596627715975046,0.024223696440458298,-0.25196459889411926,0.020027466118335724,0.01888304017484188,-0.12493324279785156
67,0,0.42624884843826294,0.007478049956262112,-0.00667582219466567,0.47550925612449646,-0.009727626107633114,0.007057297509163618,0.01125352829694748,-0.02435159869492054,-0.0032596627715975046,0.024223696440458298,-0.247768372297287,0.020027466118335724,0.01888304017484188,-0.13218127191066742,0.03490501269698143,0.06198977679014206,0.42553654313087463,0.00636295648291707,0.0032975319772958755,0.49692100286483765,0.003998663276433945,-0.0021293782629072666,0.009931208565831184,0.0013405672507360578,0.003436847822740674,0.03453288972377777,-0.22151966392993927,0.02823321521282196,0.032356031239032745,-0.16371242702007294,0.0,0.0,2.200000047683716,0.3304595119263554,0.21892020351452193,0.7617333196715901,-0.013892653714846492,-0.055386613706124965,-0.018362031064824258,0.45766388417092413,-0.2634842127377642,0.789703096393572,0.022523756688261454,-0.02111597157507772,-0.0425289014688488,0.42624884843826294,0.007478049956262112,-0.00667582219466567,0.47550925612449646,-0.009727626107633114,0.007057297509163618,0.01125352829694748,-0.02435159869492054,-0.0032596627715975046,0.024223696440458298,-0.247768372297287,0.020027466118335724,0.01888304017484188,-0.13218127191066742
68,0,0.42624884843826294,0.007478049956262112,-0.00667582219466567,0.47550925612449646,-0.00667582219466567,0.0036240178160369396,0.010872052982449532,-0.020133210346102715,-0.0032596627715975046,0.024223696440458298,-0.24128328263759613,0.02079041674733162,0.01926451548933983,-0.14362554252147675,0.03490501269698143,0.06198977679014206,0.4261362552642822,0.0048451186157763,0.008409099653363228,0.49964961409568787,0.012237366288900375,-0.006786234211176634,0.010019602254033089,0.009935489855706692,0.0018414549995213747,0.03706584498286247,-0.21265262365341187,0.0354970246553421,0.029051154851913452,-0.18006430566310883,0.0,0.0,2.233299970626831,0.33039406453453024,0.2189956912739295,0.7618161687072317,-0.013912696643770595,-0.05557466788757548,-0.01752790095434964,0.4595580548364846,-0.26473901260740595,0.7883838360722474,0.037284015911071666,-0.009200519238715898,-0.039125875498494445,0.42624884843826294,0.007478049956262112,-0.00667582219466567,0.47550925612449646,-0.00667582219466567,0.0036240178160369396,0.010872052982449532,-0.020133210346102715,-0.0032596627715975046,0.024223696440458298,-0.24128328263759613,0.02079041674733162,0.01926451548933983,-0.14362554252147675
69,0,0.4266323447227478,0.007478049956262112,-0.004005493130534887,0.47589075565338135,-0.005149920005351305,0.000572213320992887,0.010490577667951584,-0.008245029486715794,-0.0032596627715975046,0.024986648932099342,-0.22602425515651703,0.021171892061829567,0.018501564860343933,-0.15621423721313477,0.03490501269698143,0.06160829961299896,0.4244844317436218,0.004132904578000307,0.014815116301178932,0.5030231475830078,0.02184220775961876,-0.011153074912726879,0.011160673573613167,0.017698772251605988,-0.0010848760139197111,0.04111034423112869,-0.2054612785577774,0.04501830041408539,0.0240027979016304,-0.19662193953990936,0.0,0.0,2.266700029373169,0.3302951446997542,0.21905822289158716,0.7617749554827669,-0.014059861580067778,-0.0555182599749906,-0.016112195941679452,0.46101794203411506,-0.266339322046434,0.7881434322565366,0.04701557897926234,-0.001378736231139932,-0.033867601635650946,0.4266323447227478,0.007478049956262112,-0.004005493130534887,0.47589075565338135,-0.005149920005351305,0.000572213320992887,0.010490577667951584,-0.008245029486715794,-0.0032596627715975046,0.024986648932099342,-0.22602425515651703,0.021171892061829567,0.018501564860343933,-0.15621423721313477
70,0,0.42624884843826294,0.007478049956262112,-0.0009536888683214784,0.47589075565338135,0.0024795911740511656,-0.002861066721379757,0.010490577667951584,0.006327580660581589,-0.0032596627715975046,0.02536812424659729,-0.2141985148191452,0.02880140393972397,0.01888304017484188,-0.17757686972618103,0.03490501269698143,0.061226826161146164,0.4243488609790802,0.0027534556575119495,0.020636001601815224,0.5064817070960999,0.03121292218565941,-0.01628596894443035,0.011869819834828377,0.022403240203857422,-0.0032145052682608366,0.043937504291534424,-0.20142637193202972,0.051932111382484436,0.01991969347000122,-0.208515003323555,0.0,0.0,2.299999952316284,0.33027502618154425,0.21909849049193608,0.7617429992106935,-0.014588376168747086,-0.05466766565764969,-0.014687262693411807,0.46153316507242664,-0.2674198494440002,0.7885519871675615,0.05744096651427055,0.00037481445305509453,-0.026489405758275186,0.42624884843826294,0.007478049956262112,-0.0009536888683214784,0.47589075565338135,0.0024795911740511656,-0.002861066721379757,0.010490577667951584,0.006327580660581589,-0.0032596627715975046,0.02536812424659729,-0.2141985148191452,0.02880140393972397,0.01888304017484188,-0.17757686972618103
71,0,0.42624884843826294,0.007478049956262112,0.005149920005351305,0.47779813408851624,0.01583123579621315,-0.008201723918318748,0.010872052982449532,0.010162478312849998,-0.0032596627715975046,0.03147173300385475,-0.2141985148191452,0.040245670825242996,0.018501564860343933,-0.19245441257953644,0.03490501269698143,0.05855649709701538,0.4255901873111725,0.001230365945957601,0.024186963215470314,0.5099979639053345,0.035698916763067245,-0.019574318081140518,0.01211625523865223,0.02129821479320526,-0.004206043668091297,0.046571165323257446,-0.203120619058609,0.05456368625164032,0.018867909908294678,-0.2104485183954239,0.0,0.037802089005708694,2.3333001136779785,0.3302477057487111,0.21924842286446805,0.76169708359643,-0.015825293046711764,-0.05399584422187109,-0.012916526603649281,0.46140878583010214,-0.26824577263110816,0.7893606819103461,0.06202611731330876,-0.00011870710745176538,-0.02532471277371906,0.42624884843826294,0.007478049956262112,0.005149920005351305,0.47779813408851624,0.01583123579621315,-0.008201723918318748,0.010872052982449532,0.010162478312849998,-0.0032596627715975046,0.03147173300385475,-0.2141985148191452,0.040245670825242996,0.018501564860343933,-0.19245441257953644
72,0,0.42624884843826294,0.007094560191035271,0.010872052982449532,0.47894254326820374,0.02384222112596035,-0.012397955171763897,0.010872052982449532,0.013613885268568993,-0.004026642069220543,0.03795681521296501,-0.21190966665744781,0.046730753034353256,0.01773861236870289,-0.20389868319034576,0.03490501269698143,0.05855649709701538,0.4218303859233856,0.0001610670587979257,0.02832692302763462,0.5122041702270508,0.039836373180150986,-0.022524569183588028,0.015382470563054085,0.021170638501644135,-0.007328269071877003,0.05092623829841614,-0.20314544439315796,0.06383098661899567,0.013381845317780972,-0.213999941945076,0.0,0.7305493950843811,2.3666999340057373,0.3302463657100939,0.21947978695463657,0.7615157027488183,-0.017526131949516355,-0.051647419932866256,-0.009882993494544134,0.46089478002500406,-0.2694189962648985,0.7910798823052192,0.07028554126434416,-0.005176999956244099,-0.022788244842055327,0.42624884843826294,0.007094560191035271,0.010872052982449532,0.47894254326820374,0.02384222112596035,-0.012397955171763897,0.010872052982449532,0.013613885268568993,-0.004026642069220543,0.03795681521296501,-0.21190966665744781,0.046730753034353256,0.01773861236870289,-0.20389868319034576
73,0,0.42624884843826294,0.005944090895354748,0.016975661739706993,0.4880979657173157,0.027656977996230125,-0.01735713705420494,0.010490577667951584,0.016298314556479454,-0.004410131834447384,0.040627144277095795,-0.20847637951374054,0.04749370738863945,0.01735713705420494,-0.21076524257659912,0.03490501269698143,0.05855649709701538,0.4185708165168762,-0.002056058030575514,0.03180927038192749,0.512733519077301,0.04418626055121422,-0.027628080919384956,0.018273772671818733,0.020674213767051697,-0.010617510415613651,0.05247271806001663,-0.20303773880004883,0.07215668261051178,0.006484493147581816,-0.21427442133426666,0.0,1.6553846597671509,2.4000000953674316,0.33026781184200227,0.21959788673855715,0.7614665806409104,-0.01924270014888263,-0.04950323280905078,-0.007134395206066735,0.4598160715664039,-0.26926755589048784,0.7930656409663823,0.07089100175043983,-0.01743349640990699,-0.009643980248855044,0.42624884843826294,0.005944090895354748,0.016975661739706993,0.4880979657173157,0.027656977996230125,-0.01735713705420494,0.010490577667951584,0.016298314556479454,-0.004410131834447384,0.040627144277095795,-0.20847637951374054,0.04749370738863945,0.01735713705420494,-0.21076524257659912
74,0,0.42624884843826294,0.005944090895354748,0.01773861236870289,0.4888609051704407,0.03147173300385475,-0.018120087683200836,0.01125352829694748,0.016298314556479454,-0.004410131834447384,0.04406042397022247,-0.20847637951374054,0.05855649709701538,0.01125352829694748,-0.21114671230316162,0.03490501269698143,0.20885786414146423,0.41554856300354004,-0.0028454805724322796,0.032188594341278076,0.5114034414291382,0.045176323503255844,-0.02897592820227146,0.01803353615105152,0.020094402134418488,-0.013373796828091145,0.05369138717651367,-0.2027881145477295,0.07861892879009247,0.0010589578887447715,-0.21701253950595856,0.0,1.7964835166931152,2.433300018310547,0.3302925190518594,0.2196315695104037,0.7614706072999741,-0.01959928989722881,-0.04906521596406055,-0.006425019887517092,0.46001336710000296,-0.26960994445156167,0.793148817699731,0.0683238653089564,-0.015702937938016248,-0.007989869730430588,0.42624884843826294,0.005944090895354748,0.01773861236870289,0.4888609051704407,0.03147173300385475,-0.018120087683200836,0.01125352829694748,0.016298314556479454,-0.004410131834447384,0.04406042397022247,-0.20847637951374054,0.05855649709701538,0.01125352829694748,-0.21114671230316162
75,0,0.4258653521537781,0.005944090895354748,0.01773861236870289,0.4888609051704407,0.03604944050312042,-0.021553369238972664,0.01201647985726595,0.016298314556479454,-0.004410131834447384,0.04406042397022247,-0.20847637951374054,0.06618601083755493,0.00667582219466567,-0.21114671230316162,0.03490501269698143,0.42896926403045654,0.41466349363327026,-0.003957686480134726,0.03234054148197174,0.5111197829246521,0.0467599593102932,-0.03082682378590107,0.01730385608971119,0.019142568111419678,-0.014861413277685642,0.054663315415382385,-0.20391134917736053,0.08191688358783722,-0.001941897557117045,-0.21901042759418488,0.0,1.7999999523162842,2.4667000770568848,0.3303124721160152,0.21965504793157753,0.7615634687636015,-0.020713528585505347,-0.048330070870407305,-0.005447829934072335,0.4598358460120868,-0.26986123810766977,0.7942320210785512,0.06724782130577855,-0.013507225854490823,-0.01080093412769001,0.4258653521537781,0.005944090895354748,0.01773861236870289,0.4888609051704407,0.03604944050312042,-0.021553369238972664,0.01201647985726595,0.016298314556479454,-0.004410131834447384,0.04406042397022247,-0.20847637951374054,0.06618601083755493,0.00667582219466567,-0.21114671230316162
76,0,0.42279744148254395,0.005944090895354748,0.01773861236870289,0.4888609051704407,0.03833829239010811,-0.025749599561095238,0.01430533267557621,0.016298314556479454,-0.007094560191035271,0.045204851776361465,-0.20847637951374054,0.07343403995037079,0.0024795911740511656,-0.21152819693088531,0.03490501269698143,0.5266270041465759,0.41347572207450867,-0.00498370872810483,0.03256170451641083,0.5108395218849182,0.04866459593176842,-0.03278978914022446,0.01673436351120472,0.018731333315372467,-0.016058236360549927,0.055776871740818024,-0.20444701611995697,0.08489446341991425,-0.004513428080826998,-0.2181612104177475,0.0,1.7999999523162842,2.5,0.33034455163825027,0.21962041865321044,0.761560778880272,-0.020856536887750465,-0.04781620125030139,-0.005402469025457712,0.4597503603391846,-0.27000442573763367,0.7947879702551234,0.06879558680919029,-0.01375500281546449,-0.010766380406703746,0.42279744148254395,0.005944090895354748,0.01773861236870289,0.4888609051704407,0.03833829239010811,-0.025749599561095238,0.01430533267557621,0.016298314556479454,-0.007094560191035271,0.045204851776361465,-0.20847637951374054,0.07343403995037079,0.0024795911740511656,-0.21152819693088531
77,0,0.4178120791912079,0.005944090895354748,0.01773861236870289,0.4888609051704407,0.039101243019104004,-0.026131074875593185,0.01506828423589468,0.016298314556479454,-0.008245029486715794,0.045204851776361465,-0.20847637951374054,0.07381551712751389,-0.00019073777366429567,-0.2138170450925827,0.03490501269698143,0.541886031627655,0.41162389516830444,-0.004712871741503477,0.031492531299591064,0.5098205804824829,0.048234518617391586,-0.0325472317636013,0.016301603987812996,0.01732219010591507,-0.01754847913980484,0.05618610978126526,-0.2073373794555664,0.08600647747516632,-0.006610133219510317,-0.21981622278690338,0.0,1.7999999523162842,2.5332999229431152,0.33041583356268306,0.21944672728623787,0.7615782792673502,-0.021455172912293374,-0.047505870075020606,-0.006131716096939854,0.45946060684807066,-0.2698374787177446,0.7961900615132232,0.0664052359985079,-0.013833904627115423,-0.0074408472149825045,0.4178120791912079,0.005944090895354748,0.01773861236870289,0.4888609051704407,0.039101243019104004,-0.026131074875593185,0.01506828423589468,0.016298314556479454,-0.008245029486715794,0.045204851776361465,-0.20847637951374054,0.07381551712751389,-0.00019073777366429567,-0.2138170450925827
78,0,0.4155111312866211,0.005944090895354748,0.01773861236870289,0.4888609051704407,0.0394827201962471,-0.026512550190091133,0.01506828423589468,0.016298314556479454,-0.008245029486715794,0.045204851776361465,-0.20847637951374054,0.07419699430465698,-0.0009536888683214784,-0.2134355753660202,0.03490501269698143,0.5430304408073425,0.41122347116470337,-0.0042216298170387745,0.030547404661774635,0.5096012353897095,0.04746338352560997,-0.03175276517868042,0.01563418097794056,0.01532605942338705,-0.01822158694267273,0.056214600801467896,-0.21093392372131348,0.08484549820423126,-0.006864831317216158,-0.2197829931974411,0.0,1.7999999523162842,2.566699981689453,0.3305441399775196,0.21921965959007872,0.7614247720611453,-0.02204308739109706,-0.04653568509123396,-0.0073186206711479684,0.45909203449708774,-0.2698279682439463,0.797983914213498,0.06158939162648247,-0.01536166634660363,-0.008381129932960807,0.4155111312866211,0.005944090895354748,0.01773861236870289,0.4888609051704407,0.0394827201962471,-0.026512550190091133,0.01506828423589468,0.016298314556479454,-0.008245029486715794,0.045204851776361465,-0.20847637951374054,0.07419699430465698,-0.0009536888683214784,-0.2134355753660202
79,0,0.4155111312866211,0.005560601130127907,0.01773861236870289,0.4888609051704407,0.0394827201962471,-0.026512550190091133,0.01506828423589468,0.016298314556479454,-0.009395498782396317,0.045204851776361465,-0.20847637951374054,0.07419699430465698,-0.0020981156267225742,-0.2141985148191452,0.03490501269698143,0.543411910533905,0.4102562367916107,-0.0040040588937699795,0.02916882373392582,0.5081820487976074,0.046537842601537704,-0.03161325305700302,0.01533624716103077,0.015431671403348446,-0.01879466325044632,0.05539762228727341,-0.212242990732193,0.08404524624347687,-0.007645763922482729,-0.22099487483501434,0.0,1.7999999523162842,2.5999999046325684,0.3306747477204013,0.21911096335921115,0.7613987817937766,-0.02285483224966267,-0.04531860828412837,-0.00746098738152412,0.4588056651490048,-0.26943541829081274,0.7995633487692888,0.05449367586280429,-0.018325414942754303,-0.0043794217827803905,0.4155111312866211,0.005560601130127907,0.01773861236870289,0.4888609051704407,0.0394827201962471,-0.026512550190091133,0.01506828423589468,0.016298314556479454,-0.009395498782396317,0.045204851776361465,-0.20847637951374054,0.07419699430465698,-0.0020981156267225742,-0.2141985148191452
80,0,0.4155111312866211,0.005560601130127907,0.01773861236870289,0.4888609051704407,0.0394827201962471,-0.026512550190091133,0.01506828423589468,0.016298314556479454,-0.012079927138984203,0.045204851776361465,-0.20847637951374054,0.07457847148180008,-0.004005493130534887,-0.2141985148191452,0.03490501269698143,0.543411910533905,0.40862852334976196,-0.003537298645824194,0.02882036752998829,0.5074667930603027,0.046402838081121445,-0.03121703490614891,0.015670092776417732,0.01629827171564102,-0.019365087151527405,0.05580657720565796,-0.21181152760982513,0.08502043783664703,-0.008487098850309849,-0.22239099442958832,0.0,1.7999999523162842,2.6333000659942627,0.33070380645296865,0.21901968805618946,0.7614284189541384,-0.023137470026548534,-0.045194362600220916,-0.007959898953469047,0.458806733832014,-0.26945019126156566,0.7998804382383455,0.055070442961861144,-0.017944763965319854,-0.004119805105586849,0.4155111312866211,0.005560601130127907,0.01773861236870289,0.4888609051704407,0.0394827201962471,-0.026512550190091133,0.01506828423589468,0.016298314556479454,-0.012079927138984203,0.045204851776361465,-0.20847637951374054,0.07457847148180008,-0.004005493130534887,-0.2141985148191452
81,0,0.4155111312866211,0.005560601130127907,0.01773861236870289,0.4888609051704407,0.0394827201962471,-0.026512550190091133,0.014686808921396732,0.016298314556479454,-0.014380864799022675,0.04482337832450867,-0.20847637951374054,0.07457847148180008,-0.004386968910694122,-0.2145799994468689,0.03490501269698143,0.5437933802604675,0.4078831970691681,-0.0029312116093933582,0.028364883735775948,0.5072274208068848,0.0459819994866848,-0.03041663207113743,0.01577589102089405,0.015668600797653198,-0.019632495939731598,0.05588309466838837,-0.2131156474351883,0.08456943929195404,-0.008533523418009281,-0.22217683494091034,0.0,1.7999999523162842,2.6666998863220215,0.3308026581247518,0.21888055216171992,0.7614186868385092,-0.023188480997564653,-0.04466120170728782,-0.009114916145126717,0.4586713244241578,-0.26938320614871664,0.8008917790098926,0.05610204915854489,-0.01964716768119512,-0.004699507004787051,0.4155111312866211,0.005560601130127907,0.01773861236870289,0.4888609051704407,0.0394827201962471,-0.026512550190091133,0.014686808921396732,0.016298314556479454,-0.014380864799022675,0.04482337832450867,-0.20847637951374054,0.07457847148180008,-0.004386968910694122,-0.2145799994468689
