gaodalingithub/END2JOINT/ik_net/save_real/0618_moredata/ik_validation_log.csv
frame,is_init,real_joint_state_left_shoulder_pitch_joint1,real_joint_state_left_shoulder_roll_joint2,real_joint_state_left_shoulder_yaw_joint3,real_joint_state_left_elbow_pitch_joint4,real_joint_state_left_elbow_roll_joint5,real_joint_state_left_wrist_yaw_joint6,real_joint_state_left_wrist_pitch_joint7,real_joint_state_right_shoulder_pitch_joint1,real_joint_state_right_shoulder_roll_joint2,real_joint_state_right_shoulder_yaw_joint3,real_joint_state_right_elbow_pitch_joint4,real_joint_state_right_elbow_roll_joint5,real_joint_state_right_wrist_yaw_joint6,real_joint_state_right_wrist_pitch_joint7,real_joint_state_left_gripper_joint,real_joint_state_right_gripper_joint,pred_action_left_shoulder_pitch_joint1,pred_action_left_shoulder_roll_joint2,pred_action_left_shoulder_yaw_joint3,pred_action_left_elbow_pitch_joint4,pred_action_left_elbow_roll_joint5,pred_action_left_wrist_yaw_joint6,pred_action_left_wrist_pitch_joint7,pred_action_right_shoulder_pitch_joint1,pred_action_right_shoulder_roll_joint2,pred_action_right_shoulder_yaw_joint3,pred_action_right_elbow_pitch_joint4,pred_action_right_elbow_roll_joint5,pred_action_right_wrist_yaw_joint6,pred_action_right_wrist_pitch_joint7,pred_action_left_gripper_joint,pred_action_right_gripper_joint,timestamp,input_ee_eeL_x,input_ee_eeL_y,input_ee_eeL_z,input_ee_eeL_roll,input_ee_eeL_pitch,input_ee_eeL_yaw,input_ee_eeR_x,input_ee_eeR_y,input_ee_eeR_z,input_ee_eeR_roll,input_ee_eeR_pitch,input_ee_eeR_yaw,input_prev_joint_state_L_sh_pitch,input_prev_joint_state_L_sh_roll,input_prev_joint_state_L_sh_yaw,input_prev_joint_state_L_el_pitch,input_prev_joint_state_L_el_roll,input_prev_joint_state_L_wr_yaw,input_prev_joint_state_L_wr_pitch,input_prev_joint_state_R_sh_pitch,input_prev_joint_state_R_sh_roll,input_prev_joint_state_R_sh_yaw,input_prev_joint_state_R_el_pitch,input_prev_joint_state_R_el_roll,input_prev_joint_state_R_wr_yaw,input_prev_joint_state_R_wr_pitch
0,1,0.49259257316589355,-0.012079927138984203,-0.01506828423589468,0.4980163276195526,-0.00667582219466567,0.006294346414506435,-0.007057297509163618,-0.4956604838371277,-0.005177111364901066,0.009727626107633114,-0.507553219795227,0.0020981156267225742,-0.007057297509163618,-0.00019073777366429567,0.06847485899925232,0.06275273114442825,0.47801995277404785,0.004793621599674225,0.009346150793135166,0.46330204606056213,-0.021171892061829567,0.01506828423589468,-0.07572289556264877,-0.4818548560142517,-0.011312947608530521,0.013160906732082367,-0.49000534415245056,0.02231631986796856,-0.010872052982449532,-0.007438773289322853,0.0,0.0,,,,,,,,,,,,,,,,,,,,,,,,,,,
1,0,0.49259257316589355,-0.012079927138984203,-0.01506828423589468,0.4980163276195526,-0.00667582219466567,0.006294346414506435,-0.007057297509163618,-0.4956604838371277,-0.005177111364901066,0.009727626107633114,-0.507553219795227,0.0024795911740511656,-0.00667582219466567,0.00019073777366429567,0.06885633617639542,0.06275273114442825,0.46764063835144043,0.0025486648082733154,0.001002684235572815,0.4737206697463989,-0.017431676387786865,0.01223779283463955,-0.04803454875946045,-0.4571485221385956,-0.01592651754617691,0.016773369163274765,-0.47668325901031494,0.0355972945690155,-0.00929509848356247,-0.025567203760147095,0.0,0.0,0.0,0.3296839783284264,0.21927637199572056,0.760148681816507,-0.022265430815224363,-0.049355232583983444,-0.022818094361451102,0.330191207700067,-0.23315866847036182,0.7593856539664704,0.006234445563278239,0.008222119939317646,0.004073582912385963,0.49259257316589355,-0.012079927138984203,-0.01506828423589468,0.4980163276195526,-0.00667582219466567,0.006294346414506435,-0.007057297509163618,-0.4956604838371277,-0.005177111364901066,0.009727626107633114,-0.507553219795227,0.0024795911740511656,-0.00667582219466567,0.00019073777366429567
2,0,0.4795539081096649,-0.0013422140618786216,0.005149920005351305,0.46139466762542725,-0.019645990803837776,0.010490577667951584,-0.071908138692379,-0.4772529900074005,-0.005944090895354748,0.010872052982449532,-0.49076828360557556,0.018120087683200836,-0.0078202486038208,-0.007438773289322853,0.06809338182210922,0.06198977679014206,0.47184550762176514,0.0007113311439752579,0.008646883070468903,0.46594882011413574,-0.004140257835388184,0.008954599499702454,-0.06447988748550415,-0.45925894379615784,-0.01532185822725296,0.018309928476810455,-0.4755934178829193,0.034313470125198364,-0.008214853703975677,-0.0220012366771698,0.0,0.0,0.0333000011742115,0.3297167619153547,0.21922337206930598,0.7600966229585842,-0.022244169327483743,-0.048797779588812595,-0.022700870437588172,0.3301742825954559,-0.2330989094783746,0.7594332914349736,0.0065855336993279395,0.008393390920635528,0.003858192145961712,0.4795539081096649,-0.0013422140618786216,0.005149920005351305,0.46139466762542725,-0.019645990803837776,0.010490577667951584,-0.071908138692379,-0.4772529900074005,-0.005944090895354748,0.010872052982449532,-0.49076828360557556,0.018120087683200836,-0.0078202486038208,-0.007438773289322853
3,0,0.4764859974384308,-0.0013422140618786216,0.0036240178160369396,0.46177613735198975,-0.01888304017484188,0.010109102353453636,-0.053215838968753815,-0.46459782123565674,-0.007094560191035271,0.010872052982449532,-0.4827573001384735,0.02841992862522602,-0.0078202486038208,-0.022697795182466507,0.06809338182210922,0.06198977679014206,0.47395384311676025,0.002661183476448059,0.008098423480987549,0.4703112840652466,-0.0012136101722717285,0.005545312538743019,-0.062412530183792114,-0.45935216546058655,-0.012379676103591919,0.016321532428264618,-0.4783402979373932,0.0286845862865448,-0.004625558853149414,-0.01975834369659424,0.0,0.0,0.06669999659061432,0.32972861387635244,0.21921097536061224,0.760142072639706,-0.021561615979824644,-0.049066408025022934,-0.02343123641551026,0.33001374622614194,-0.23286490574400837,0.7596496928399527,0.005791445871701324,0.007085301034317459,0.003571592448628161,0.4764859974384308,-0.0013422140618786216,0.0036240178160369396,0.46177613735198975,-0.01888304017484188,0.010109102353453636,-0.053215838968753815,-0.46459782123565674,-0.007094560191035271,0.010872052982449532,-0.4827573001384735,0.02841992862522602,-0.0078202486038208,-0.022697795182466507
4,0,0.46996667981147766,-0.0013422140618786216,0.0036240178160369396,0.46177613735198975,-0.010490577667951584,0.009727626107633114,-0.06389715522527695,-0.4511756896972656,-0.009395498782396317,0.012779430486261845,-0.47589075565338135,0.02880140393972397,-0.0078202486038208,-0.026131074875593185,0.06809338182210922,0.06198977679014206,0.47495853900909424,0.0021914001554250717,0.007969468832015991,0.4686862826347351,2.0176172256469727e-05,0.00567593052983284,-0.06598719954490662,-0.4578547775745392,-0.012883137911558151,0.0159396193921566,-0.47707200050354004,0.02729395031929016,-0.004630543291568756,-0.02006790041923523,0.0,0.0,0.10000000149011612,0.32989725644355306,0.21925230241682392,0.760118602492138,-0.0210628140834066,-0.048890822456340466,-0.023929326653512106,0.33001920385776085,-0.2327849787235774,0.7595451885381943,0.005867541564114636,0.007035954478827801,0.0031553435861557816,0.46996667981147766,-0.0013422140618786216,0.0036240178160369396,0.46177613735198975,-0.010490577667951584,0.009727626107633114,-0.06389715522527695,-0.4511756896972656,-0.009395498782396317,0.012779430486261845,-0.47589075565338135,0.02880140393972397,-0.0078202486038208,-0.026131074875593185
5,0,0.47265109419822693,-0.0013422140618786216,0.0036240178160369396,0.46177613735198975,-0.007057297509163618,0.0078202486038208,-0.06351567804813385,-0.45424360036849976,-0.01054596807807684,0.012779430486261845,-0.47589075565338135,0.02841992862522602,-0.007438773289322853,-0.026131074875593185,0.06809338182210922,0.06198977679014206,0.47482138872146606,0.0027926620095968246,0.007821962237358093,0.4698004126548767,-0.00011083483695983887,0.005620015785098076,-0.06474766135215759,-0.4580064117908478,-0.012545924633741379,0.015951700508594513,-0.47793111205101013,0.0268993079662323,-0.004222258925437927,-0.0200330913066864,0.0,0.0,0.13330000638961792,0.3299249876847504,0.21923525656257842,0.7601135294956843,-0.020763120820846748,-0.04881521237260111,-0.024453752534151718,0.3300020964059501,-0.23274910568189897,0.7595444019315555,0.0060291755617475325,0.006982630008856317,0.0030340816467319433,0.47265109419822693,-0.0013422140618786216,0.0036240178160369396,0.46177613735198975,-0.007057297509163618,0.0078202486038208,-0.06351567804813385,-0.45424360036849976,-0.01054596807807684,0.012779430486261845,-0.47589075565338135,0.02841992862522602,-0.007438773289322853,-0.026131074875593185
6,0,0.4738015830516815,-0.0013422140618786216,0.0036240178160369396,0.46177613735198975,-0.007057297509163618,0.007438773289322853,-0.06427863240242004,-0.4538601040840149,-0.01054596807807684,0.012779430486261845,-0.47589075565338135,0.028038453310728073,-0.007438773289322853,-0.026131074875593185,0.06809338182210922,0.06198977679014206,0.47494179010391235,0.002942558377981186,0.007761895656585693,0.4698306918144226,-0.000513613224029541,0.006035635247826576,-0.06460240483283997,-0.458090215921402,-0.012379691004753113,0.01575012132525444,-0.47797897458076477,0.026792287826538086,-0.004019834101200104,-0.020079344511032104,0.0,0.0,0.16670000553131104,0.3299271352036831,0.2193496746636932,0.7601070365915736,-0.02093740958123691,-0.04890954127529801,-0.02481110978524903,0.329909487407437,-0.23256202062846204,0.7594504353506998,0.0057823143946438265,0.007447228790918051,0.0030883375685499138,0.4738015830516815,-0.0013422140618786216,0.0036240178160369396,0.46177613735198975,-0.007057297509163618,0.007438773289322853,-0.06427863240242004,-0.4538601040840149,-0.01054596807807684,0.012779430486261845,-0.47589075565338135,0.028038453310728073,-0.007438773289322853,-0.026131074875593185
7,0,0.4738015830516815,-0.0013422140618786216,0.0036240178160369396,0.46177613735198975,-0.007057297509163618,0.007438773289322853,-0.06427863240242004,-0.4538601040840149,-0.01054596807807684,0.012779430486261845,-0.47589075565338135,0.02841992862522602,-0.007438773289322853,-0.026131074875593185,0.06809338182210922,0.06198977679014206,0.47495120763778687,0.0030285976827144623,0.007656298577785492,0.46995824575424194,-0.0007737874984741211,0.00618111714720726,-0.06437847018241882,-0.45816728472709656,-0.01220487430691719,0.0157550610601902,-0.47816261649131775,0.026896178722381592,-0.003896057605743408,-0.020244956016540527,0.0,0.0,0.20000000298023224,0.3298756717238568,0.21955941709652307,0.7600368607462162,-0.02106086385661987,-0.048680609250950635,-0.024574734526336073,0.3297887268645926,-0.2324801875611183,0.7593073610556744,0.006563970001435231,0.008048128473867879,0.002599493822265205,0.4738015830516815,-0.0013422140618786216,0.0036240178160369396,0.46177613735198975,-0.007057297509163618,0.007438773289322853,-0.06427863240242004,-0.4538601040840149,-0.01054596807807684,0.012779430486261845,-0.47589075565338135,0.02841992862522602,-0.007438773289322853,-0.026131074875593185
8,0,0.4738015830516815,-0.0013422140618786216,0.0036240178160369396,0.46177613735198975,-0.007057297509163618,0.007438773289322853,-0.06389715522527695,-0.4538601040840149,-0.01054596807807684,0.012779430486261845,-0.47589075565338135,0.02841992862522602,-0.007438773289322853,-0.026131074875593185,0.06809338182210922,0.06198977679014206,0.47502923011779785,0.00303858146071434,0.0074949488043785095,0.4702153205871582,-0.0011740624904632568,0.0062060728669166565,-0.06384176015853882,-0.4583047926425934,-0.012130986899137497,0.015612330287694931,-0.47810232639312744,0.02678626775741577,-0.003789164125919342,-0.01983022689819336,0.0,0.0,0.23330000042915344,0.32986677070991516,0.21974831236986175,0.7599066095353406,-0.021669281006069685,-0.047599062942228265,-0.024244561554489064,0.3296817512388355,-0.2323549751823657,0.7593179194602503,0.0062020905192517435,0.007687044544699871,0.00279487421713268,0.4738015830516815,-0.0013422140618786216,0.0036240178160369396,0.46177613735198975,-0.007057297509163618,0.007438773289322853,-0.06389715522527695,-0.4538601040840149,-0.01054596807807684,0.012779430486261845,-0.47589075565338135,0.02841992862522602,-0.007438773289322853,-0.026131074875593185
9,0,0.4738015830516815,-0.0013422140618786216,0.0036240178160369396,0.46177613735198975,-0.007057297509163618,0.007438773289322853,-0.06389715522527695,-0.4538601040840149,-0.01054596807807684,0.012779430486261845,-0.47589075565338135,0.028038453310728073,-0.007438773289322853,-0.026131074875593185,0.06809338182210922,0.06198977679014206,0.47526270151138306,0.0030293576419353485,0.007288388907909393,0.4705265164375305,-0.0017226338386535645,0.006204390898346901,-0.06312432885169983,-0.4584517180919647,-0.011949993669986725,0.015338893979787827,-0.4778691232204437,0.026467084884643555,-0.0035139843821525574,-0.01901233196258545,0.0,0.0,0.26669999957084656,0.32986835837132644,0.21988950034512647,0.7598944081402804,-0.02241979279918649,-0.046574854011816935,-0.023766387136443523,0.32952288913985506,-0.23229337314407195,0.7592326125975636,0.005559243507367199,0.006993936939840353,0.0025047228561245133,0.4738015830516815,-0.0013422140618786216,0.0036240178160369396,0.46177613735198975,-0.007057297509163618,0.007438773289322853,-0.06389715522527695,-0.4538601040840149,-0.01054596807807684,0.012779430486261845,-0.47589075565338135,0.028038453310728073,-0.007438773289322853,-0.026131074875593185
10,0,0.4738015830516815,-0.0013422140618786216,0.0036240178160369396,0.46177613735198975,-0.007057297509163618,0.007438773289322853,-0.06389715522527695,-0.4538601040840149,-0.01054596807807684,0.012779430486261845,-0.47589075565338135,0.028038453310728073,-0.007438773289322853,-0.026131074875593185,0.06809338182210922,0.06198977679014206,0.4755513072013855,0.00312703475356102,0.007171228528022766,0.4704397916793823,-0.0020096302032470703,0.006563493981957436,-0.06335341930389404,-0.45854929089546204,-0.011737745255231857,0.015162389725446701,-0.47782671451568604,0.026280611753463745,-0.003245443105697632,-0.018821626901626587,0.0,0.0,0.30000001192092896,0.3297515523369556,0.2200124757542653,0.7598863035376294,-0.022725981021881392,-0.047055228183412456,-0.02384663464221015,0.3294048710650813,-0.23223714768438114,0.7591463351993241,0.005601026366092665,0.007187803906147744,0.001791593297563667,0.4738015830516815,-0.0013422140618786216,0.0036240178160369396,0.46177613735198975,-0.007057297509163618,0.007438773289322853,-0.06389715522527695,-0.4538601040840149,-0.01054596807807684,0.012779430486261845,-0.47589075565338135,0.028038453310728073,-0.007438773289322853,-0.026131074875593185
11,0,0.4738015830516815,-0.0013422140618786216,0.0036240178160369396,0.46177613735198975,-0.007057297509163618,0.007438773289322853,-0.06389715522527695,-0.4538601040840149,-0.01054596807807684,0.012779430486261845,-0.47589075565338135,0.028038453310728073,-0.007438773289322853,-0.026131074875593185,0.06809338182210922,0.06198977679014206,0.4756174087524414,0.0033791102468967438,0.0070571452379226685,0.4707663953304291,-0.0025262832641601562,0.006882801651954651,-0.0627453625202179,-0.4585314691066742,-0.011498488485813141,0.014967337250709534,-0.47779178619384766,0.026086777448654175,-0.002938874065876007,-0.01859644055366516,0.0,0.0,0.33329999446868896,0.3297649892239514,0.22012794699298763,0.7597090675214359,-0.02280999741434675,-0.045861522017257794,-0.0240751938323851,0.32934246176434456,-0.23213139329673027,0.7590455465638026,0.005389101225743132,0.007290852897929504,0.0014862345226427257,0.4738015830516815,-0.0013422140618786216,0.0036240178160369396,0.46177613735198975,-0.007057297509163618,0.007438773289322853,-0.06389715522527695,-0.4538601040840149,-0.01054596807807684,0.012779430486261845,-0.47589075565338135,0.028038453310728073,-0.007438773289322853,-0.026131074875593185
12,0,0.4738015830516815,-0.0013422140618786216,0.0036240178160369396,0.46177613735198975,-0.007057297509163618,0.007438773289322853,-0.06389715522527695,-0.4538601040840149,-0.01054596807807684,0.012779430486261845,-0.47589075565338135,0.028038453310728073,-0.007438773289322853,-0.026131074875593185,0.06809338182210922,0.06198977679014206,0.475741982460022,0.00358588807284832,0.006932467222213745,0.47096776962280273,-0.0030114054679870605,0.007219063118100166,-0.062333881855010986,-0.4585058391094208,-0.011211063712835312,0.014786116778850555,-0.47778937220573425,0.02592557668685913,-0.002606004476547241,-0.01849663257598877,0.0,0.0,0.3666999936103821,0.32975523544786645,0.22024550496473677,0.759614328285792,-0.02300052093775795,-0.045291900072170765,-0.024205409395504862,0.32928263953181736,-0.23202389374481067,0.7589417368212804,0.005642714412298137,0.007458412646414793,0.0008977796253451397,0.4738015830516815,-0.0013422140618786216,0.0036240178160369396,0.46177613735198975,-0.007057297509163618,0.007438773289322853,-0.06389715522527695,-0.4538601040840149,-0.01054596807807684,0.012779430486261845,-0.47589075565338135,0.028038453310728073,-0.007438773289322853,-0.026131074875593185
13,0,0.4738015830516815,-0.0013422140618786216,0.0036240178160369396,0.46177613735198975,-0.007057297509163618,0.007438773289322853,-0.06389715522527695,-0.4538601040840149,-0.01054596807807684,0.012779430486261845,-0.47589075565338135,0.028038453310728073,-0.007438773289322853,-0.026131074875593185,0.06809338182210922,0.06198977679014206,0.4758771061897278,0.004189144819974899,0.007047414779663086,0.47131502628326416,-0.0029368996620178223,0.007725868374109268,-0.062399864196777344,-0.4587068259716034,-0.010913971811532974,0.014666598290205002,-0.47797390818595886,0.025559812784194946,-0.002197086811065674,-0.017875194549560547,0.0,0.0,0.4000000059604645,0.3296142323583162,0.22023110925444767,0.759575726299929,-0.021729483205298994,-0.04527607766628883,-0.025373076614259915,0.32916069762983136,-0.23191022634311065,0.7589097371262542,0.006384678389848922,0.006920667064251647,0.0007821999039271269,0.4738015830516815,-0.0013422140618786216,0.0036240178160369396,0.46177613735198975,-0.007057297509163618,0.007438773289322853,-0.06389715522527695,-0.4538601040840149,-0.01054596807807684,0.012779430486261845,-0.47589075565338135,0.028038453310728073,-0.007438773289322853,-0.026131074875593185
14,0,0.4738015830516815,-0.0013422140618786216,0.0036240178160369396,0.46177613735198975,-0.007057297509163618,0.007438773289322853,-0.06389715522527695,-0.4538601040840149,-0.01054596807807684,0.012779430486261845,-0.47589075565338135,0.028038453310728073,-0.007057297509163618,-0.026131074875593185,0.06809338182210922,0.06198977679014206,0.4760339856147766,0.004489567130804062,0.007074922323226929,0.4715208113193512,-0.0027033090591430664,0.007832173258066177,-0.062601238489151,-0.458685964345932,-0.010682489722967148,0.014597557485103607,-0.4782085120677948,0.02523741126060486,-0.0019109845161437988,-0.01780623197555542,0.0,0.0,0.4332999885082245,0.32950227903464546,0.22023617263335768,0.7596334979117164,-0.02108014195216734,-0.045912646118981826,-0.02578857420596803,0.3291536591765968,-0.23188203968467627,0.7588447999641098,0.0072008376319131475,0.007056817242875686,0.0005602949222614698,0.4738015830516815,-0.0013422140618786216,0.0036240178160369396,0.46177613735198975,-0.007057297509163618,0.007438773289322853,-0.06389715522527695,-0.4538601040840149,-0.01054596807807684,0.012779430486261845,-0.47589075565338135,0.028038453310728073,-0.007057297509163618,-0.026131074875593185
15,0,0.4738015830516815,-0.0013422140618786216,0.0036240178160369396,0.46177613735198975,-0.007057297509163618,0.0078202486038208,-0.06389715522527695,-0.4538601040840149,-0.01054596807807684,0.012779430486261845,-0.47589075565338135,0.028038453310728073,-0.007057297509163618,-0.026131074875593185,0.06809338182210922,0.06198977679014206,0.4763794541358948,0.004371752962470055,0.007156692445278168,0.4706636965274811,-0.0017531812191009521,0.007981423288583755,-0.06496605277061462,-0.45851555466651917,-0.010887403041124344,0.014690764248371124,-0.4781201183795929,0.02523520588874817,-0.002151191234588623,-0.018250226974487305,0.0,0.0,0.4666999876499176,0.32903073548715245,0.22047837034361858,0.7598899888373444,-0.019677782486762663,-0.04989909852571017,-0.02537275107214354,0.32936219902096686,-0.23170224360087907,0.7588380668282048,0.008203986074394518,0.007788123873461308,0.0008696874752609856,0.4738015830516815,-0.0013422140618786216,0.0036240178160369396,0.46177613735198975,-0.007057297509163618,0.0078202486038208,-0.06389715522527695,-0.4538601040840149,-0.01054596807807684,0.012779430486261845,-0.47589075565338135,0.028038453310728073,-0.007057297509163618,-0.026131074875593185
16,0,0.4738015830516815,-0.0013422140618786216,0.0036240178160369396,0.46177613735198975,-0.007057297509163618,0.0078202486038208,-0.06389715522527695,-0.4538601040840149,-0.01054596807807684,0.012779430486261845,-0.47589075565338135,0.028038453310728073,-0.007057297509163618,-0.026131074875593185,0.06809338182210922,0.06198977679014206,0.4772862195968628,0.0036785975098609924,0.006776019930839539,0.47060179710388184,-0.0015332400798797607,0.006967706605792046,-0.06543165445327759,-0.45831575989723206,-0.011044219136238098,0.013625260442495346,-0.4772077798843384,0.02393600344657898,-0.0021373555064201355,-0.017020970582962036,0.0,0.0,0.5,0.32887157514227877,0.2210464929268835,0.7595406380496695,-0.020825247661349522,-0.04930910983338599,-0.023140621756109425,0.32955259578277396,-0.23106906886825349,0.7592322924864766,0.004273548085549493,0.005917001238969442,0.003124188743872612,0.4738015830516815,-0.0013422140618786216,0.0036240178160369396,0.46177613735198975,-0.007057297509163618,0.0078202486038208,-0.06389715522527695,-0.4538601040840149,-0.01054596807807684,0.012779430486261845,-0.47589075565338135,0.028038453310728073,-0.007057297509163618,-0.026131074875593185
17,0,0.4738015830516815,-0.0013422140618786216,0.0036240178160369396,0.46177613735198975,-0.007057297509163618,0.007438773289322853,-0.06389715522527695,-0.4538601040840149,-0.01054596807807684,0.012779430486261845,-0.47589075565338135,0.028038453310728073,-0.007057297509163618,-0.026131074875593185,0.06809338182210922,0.06198977679014206,0.47768616676330566,0.0029450226575136185,0.006058447062969208,0.47088903188705444,-0.0025896430015563965,0.006191408261656761,-0.06415730714797974,-0.45824798941612244,-0.011082068085670471,0.012997962534427643,-0.4766084551811218,0.023448705673217773,-0.0021230503916740417,-0.016306012868881226,0.0,0.0,0.53329998254776,0.32902126670778,0.22147463961634956,0.7592171525019863,-0.023450383244540074,-0.046777420761643373,-0.02101866987599532,0.3296046302549126,-0.23073888354569888,0.7594500533665732,0.0017954917266309143,0.004562624797487566,0.004428087297275491,0.4738015830516815,-0.0013422140618786216,0.0036240178160369396,0.46177613735198975,-0.007057297509163618,0.007438773289322853,-0.06389715522527695,-0.4538601040840149,-0.01054596807807684,0.012779430486261845,-0.47589075565338135,0.028038453310728073,-0.007057297509163618,-0.026131074875593185
18,0,0.4738015830516815,-0.0013422140618786216,0.0036240178160369396,0.46177613735198975,-0.007057297509163618,0.007438773289322853,-0.06389715522527695,-0.4538601040840149,-0.01054596807807684,0.012779430486261845,-0.47589075565338135,0.027656977996230125,-0.007057297509163618,-0.026131074875593185,0.06809338182210922,0.06198977679014206,0.47904932498931885,0.0026633907109498978,0.004210427403450012,0.47232553362846375,-0.006499946117401123,0.00687156617641449,-0.06072714924812317,-0.45895662903785706,-0.010103005915880203,0.010929074138402939,-0.47539040446281433,0.020639657974243164,-7.440894842147827e-05,-0.012066185474395752,0.0,0.0,0.5666999816894531,0.3292563848130425,0.22198740309209455,0.7590038046047856,-0.029196496834063,-0.04297165598167796,-0.019138061904631964,0.32954134528470536,-0.23020519432150624,0.7602543419564483,-0.004706002587232217,-0.0026301604910657717,0.00496004598292708,0.4738015830516815,-0.0013422140618786216,0.0036240178160369396,0.46177613735198975,-0.007057297509163618,0.007438773289322853,-0.06389715522527695,-0.4538601040840149,-0.01054596807807684,0.012779430486261845,-0.47589075565338135,0.027656977996230125,-0.007057297509163618,-0.026131074875593185
19,0,0.4738015830516815,-0.0013422140618786216,0.0036240178160369396,0.46177613735198975,-0.007057297509163618,0.007438773289322853,-0.06389715522527695,-0.4538601040840149,-0.01054596807807684,0.012779430486261845,-0.47589075565338135,0.02727550081908703,-0.007057297509163618,-0.025749599561095238,0.06809338182210922,0.06198977679014206,0.4791959524154663,0.0028255674988031387,0.003445729613304138,0.47240278124809265,-0.007994085550308228,0.007707783952355385,-0.060001105070114136,-0.459116667509079,-0.009536925703287125,0.010143492370843887,-0.4749112129211426,0.019227266311645508,0.001127086579799652,-0.010698884725570679,0.0,0.0,0.6000000238418579,0.32927504668867347,0.2220947568599873,0.7589749534933878,-0.02997895530333583,-0.04260506179340995,-0.018924413394655115,0.32962657312214205,-0.23007598675501378,0.7602942623955148,-0.007400553154880188,-0.003921718034604369,0.004033490845177993,0.4738015830516815,-0.0013422140618786216,0.0036240178160369396,0.46177613735198975,-0.007057297509163618,0.007438773289322853,-0.06389715522527695,-0.4538601040840149,-0.01054596807807684,0.012779430486261845,-0.47589075565338135,0.02727550081908703,-0.007057297509163618,-0.025749599561095238
20,0,0.4738015830516815,-0.0013422140618786216,0.0036240178160369396,0.46177613735198975,-0.007438773289322853,0.007438773289322853,-0.06351567804813385,-0.4538601040840149,-0.01054596807807684,0.012779430486261845,-0.47589075565338135,0.023460745811462402,-0.007057297509163618,-0.01888304017484188,0.06809338182210922,0.06198977679014206,0.4790034890174866,0.0028553307056427,0.0026454702019691467,0.47209787368774414,-0.009969919919967651,0.008799180388450623,-0.05896243453025818,-0.45981618762016296,-0.008875783532857895,0.009364154189825058,-0.4736291468143463,0.01747569441795349,0.0028102919459342957,-0.006913483142852783,0.0,0.0,0.6333000063896179,0.32941117460123903,0.2222674290838807,0.7588558309361271,-0.03187068177825214,-0.04195813718950481,-0.01844695661546014,0.3296316698117039,-0.22992179462883894,0.761014779044649,-0.011055319002221677,-0.01021344643138353,0.00276806246083602,0.4738015830516815,-0.0013422140618786216,0.0036240178160369396,0.46177613735198975,-0.007438773289322853,0.007438773289322853,-0.06351567804813385,-0.4538601040840149,-0.01054596807807684,0.012779430486261845,-0.47589075565338135,0.023460745811462402,-0.007057297509163618,-0.01888304017484188
21,0,0.4738015830516815,-0.0013422140618786216,0.0036240178160369396,0.46177613735198975,-0.0078202486038208,0.007438773289322853,-0.06351567804813385,-0.4538601040840149,-0.01054596807807684,0.012397955171763897,-0.47589075565338135,0.021171892061829567,-0.00667582219466567,-0.018501564860343933,0.06809338182210922,0.06198977679014206,0.4788469076156616,0.0023997873067855835,0.002486005425453186,0.4712502956390381,-0.009953200817108154,0.008532023057341576,-0.05929708480834961,-0.4597775638103485,-0.008546348661184311,0.009081598371267319,-0.4721861779689789,0.016099125146865845,0.00388307124376297,-0.004038751125335693,0.0,0.0,0.666700005531311,0.32921008641667177,0.22235176632963682,0.7589460147342364,-0.03242121262786535,-0.042946850558318594,-0.01743100816934584,0.32995028995384057,-0.2301327013046762,0.7615717037851392,-0.012522974162280558,-0.015449154866109231,0.0019755043782428415,0.4738015830516815,-0.0013422140618786216,0.0036240178160369396,0.46177613735198975,-0.0078202486038208,0.007438773289322853,-0.06351567804813385,-0.4538601040840149,-0.01054596807807684,0.012397955171763897,-0.47589075565338135,0.021171892061829567,-0.00667582219466567,-0.018501564860343933
22,0,0.4738015830516815,-0.0013422140618786216,0.0036240178160369396,0.46177613735198975,-0.009346150793135166,0.0078202486038208,-0.06351567804813385,-0.4538601040840149,-0.01054596807807684,0.012397955171763897,-0.47589075565338135,0.02079041674733162,-0.004005493130534887,-0.013160906732082367,0.06809338182210922,0.06198977679014206,0.47826361656188965,0.0026932358741760254,0.001745961606502533,0.4714299738407135,-0.01068606972694397,0.00816863402724266,-0.057676732540130615,-0.4599402844905853,-0.007199034094810486,0.008701805025339127,-0.4710911810398102,0.013929784297943115,0.006220951676368713,-0.00037151575088500977,0.0,0.0,0.699999988079071,0.329251921729717,0.22246245737218373,0.7590142661054877,-0.03323873470431771,-0.04325795812260358,-0.016436329573487285,0.33044435358119173,-0.23068896492901383,0.7623775192618696,-0.013211534288243065,-0.021139502403846766,-0.002326766209378217,0.4738015830516815,-0.0013422140618786216,0.0036240178160369396,0.46177613735198975,-0.009346150793135166,0.0078202486038208,-0.06351567804813385,-0.4538601040840149,-0.01054596807807684,0.012397955171763897,-0.47589075565338135,0.02079041674733162,-0.004005493130534887,-0.013160906732082367
23,0,0.4738015830516815,-0.0013422140618786216,0.0036240178160369396,0.46177613735198975,-0.010490577667951584,0.0078202486038208,-0.06351567804813385,-0.4538601040840149,-0.01054596807807684,0.011635004542768002,-0.47589075565338135,0.02040894143283367,-0.0032425422687083483,-0.010490577667951584,0.06809338182210922,0.06198977679014206,0.47702568769454956,0.0029077548533678055,0.0016947165131568909,0.4709879457950592,-0.010795682668685913,0.0078003667294979095,-0.05661773681640625,-0.4596305191516876,-0.0067671239376068115,0.009696237742900848,-0.4698133170604706,0.014438986778259277,0.00679422914981842,0.0017243623733520508,0.0,0.0,0.733299970626831,0.329297896787785,0.22248359690536698,0.759061779089194,-0.03367531920591027,-0.043031458613169704,-0.01610852268234897,0.3312538303509956,-0.2315309206736247,0.7632878439013905,-0.007742701652182049,-0.027512336761463807,-0.0054338180362019095,0.4738015830516815,-0.0013422140618786216,0.0036240178160369396,0.46177613735198975,-0.010490577667951584,0.0078202486038208,-0.06351567804813385,-0.4538601040840149,-0.01054596807807684,0.011635004542768002,-0.47589075565338135,0.02040894143283367,-0.0032425422687083483,-0.010490577667951584
24,0,0.4738015830516815,-0.0013422140618786216,0.0036240178160369396,0.46177613735198975,-0.010872052982449532,0.0078202486038208,-0.06313420087099075,-0.4538601040840149,-0.01054596807807684,0.011635004542768002,-0.47589075565338135,0.020027466118335724,-0.002861066721379757,-0.007057297509163618,0.06809338182210922,0.06198977679014206,0.4756045937538147,0.003731364384293556,0.0013428851962089539,0.4701769948005676,-0.011633872985839844,0.00867684930562973,-0.05506667494773865,-0.4581909477710724,-0.00573701411485672,0.011084962636232376,-0.46684858202934265,0.015202522277832031,0.008128762245178223,0.00415349006652832,0.0,0.0,0.766700029373169,0.32920702385960426,0.2221917780677494,0.7592792160936075,-0.03207965255816525,-0.04428087680518367,-0.01709114723525751,0.3328708835624591,-0.23267498978326537,0.7642348698788705,0.005036043495514342,-0.033777145146066,-0.01484269629123558,0.4738015830516815,-0.0013422140618786216,0.0036240178160369396,0.46177613735198975,-0.010872052982449532,0.0078202486038208,-0.06313420087099075,-0.4538601040840149,-0.01054596807807684,0.011635004542768002,-0.47589075565338135,0.020027466118335724,-0.002861066721379757,-0.007057297509163618
25,0,0.4738015830516815,-0.0013422140618786216,0.0036240178160369396,0.46177613735198975,-0.010872052982449532,0.0078202486038208,-0.06237125024199486,-0.4538601040840149,-0.01054596807807684,0.011635004542768002,-0.47589075565338135,0.020027466118335724,-0.0020981156267225742,-0.00476844422519207,0.06809338182210922,0.06160829961299896,0.4749782085418701,0.005412053316831589,0.000583939254283905,0.46929931640625,-0.011690765619277954,0.010731125250458717,-0.0554947555065155,-0.4566226303577423,-0.004531573504209518,0.01030825451016426,-0.4617135226726532,0.010685503482818604,0.011666543781757355,0.013161510229110718,0.0,0.0,0.800000011920929,0.3291078147754195,0.22165190100109544,0.7592423771338647,-0.028266597060381926,-0.04479315555779362,-0.021611328065321622,0.3349252681281539,-0.23344900408117267,0.7659399722101758,0.004575020016247766,-0.04704075318180223,-0.020057542082527746,0.4738015830516815,-0.0013422140618786216,0.0036240178160369396,0.46177613735198975,-0.010872052982449532,0.0078202486038208,-0.06237125024199486,-0.4538601040840149,-0.01054596807807684,0.011635004542768002,-0.47589075565338135,0.020027466118335724,-0.0020981156267225742,-0.00476844422519207
26,0,0.4738015830516815,-0.0013422140618786216,0.0036240178160369396,0.46177613735198975,-0.010872052982449532,0.0078202486038208,-0.06008239835500717,-0.4538601040840149,-0.010162478312849998,0.011635004542768002,-0.47589075565338135,0.020027466118335724,-0.00019073777366429567,-0.0032425422687083483,0.06809338182210922,0.06198977679014206,0.4737681746482849,0.006554754450917244,-0.00043873488903045654,0.4689408540725708,-0.01225370168685913,0.011857273057103157,-0.053016871213912964,-0.45545265078544617,-0.0029441937804222107,0.01001105085015297,-0.46088024973869324,0.009252697229385376,0.013519145548343658,0.013808399438858032,0.0,0.0,0.833299994468689,0.32909385626581183,0.22159467828291277,0.7591577559227213,-0.02656625970031934,-0.04436279815734778,-0.022955648962714292,0.33641039125841465,-0.23383360437731338,0.7671661158687072,0.009891482806709817,-0.051296933427742,-0.024833899141710525,0.4738015830516815,-0.0013422140618786216,0.0036240178160369396,0.46177613735198975,-0.010872052982449532,0.0078202486038208,-0.06008239835500717,-0.4538601040840149,-0.010162478312849998,0.011635004542768002,-0.47589075565338135,0.020027466118335724,-0.00019073777366429567,-0.0032425422687083483
27,0,0.4738015830516815,-0.0013422140618786216,0.0036240178160369396,0.46177613735198975,-0.010872052982449532,0.0078202486038208,-0.06008239835500717,-0.45347660779953003,-0.010162478312849998,0.011635004542768002,-0.4682612419128418,0.016594186425209045,0.0032425422687083483,0.0078202486038208,0.06809338182210922,0.06198977679014206,0.47327280044555664,0.008038265630602837,0.000916697084903717,0.4692826569080353,-0.008902132511138916,0.012539563700556755,-0.05366209149360657,-0.4533526599407196,-0.0024580098688602448,0.011894986033439636,-0.46015262603759766,0.009816646575927734,0.013934105634689331,0.013611823320388794,0.0,0.0,0.8666999936103821,0.32890094690821053,0.22135664547194467,0.7592497478622524,-0.024260329384087065,-0.04615323274430372,-0.024827035620103466,0.33861717970588007,-0.2338514095552615,0.7691161000877818,0.016018886594920012,-0.05585429986745449,-0.02763402904762513,0.4738015830516815,-0.0013422140618786216,0.0036240178160369396,0.46177613735198975,-0.010872052982449532,0.0078202486038208,-0.06008239835500717,-0.45347660779953003,-0.010162478312849998,0.011635004542768002,-0.4682612419128418,0.016594186425209045,0.0032425422687083483,0.0078202486038208
28,0,0.4738015830516815,-0.0013422140618786216,0.0036240178160369396,0.46177613735198975,-0.01125352829694748,0.0078202486038208,-0.059319447726011276,-0.45347660779953003,-0.010162478312849998,0.011635004542768002,-0.46253910660743713,0.016212711110711098,0.004005493130534887,0.008201723918318748,0.06809338182210922,0.06198977679014206,0.4740232229232788,0.00817018747329712,0.0014939457178115845,0.4697819650173187,-0.006737649440765381,0.012158794328570366,-0.0553954541683197,-0.45228615403175354,-0.0027004554867744446,0.012282144278287888,-0.45923638343811035,0.008517682552337646,0.014438286423683167,0.014898210763931274,0.0,0.0,0.8999999761581421,0.3288340921876848,0.22131699932035448,0.7591482581265119,-0.023407145051636213,-0.04625688155167573,-0.025330838884009665,0.33935870686131564,-0.23382123935068455,0.7699808913535623,0.013442924109366317,-0.057814977882530094,-0.02730595366182076,0.4738015830516815,-0.0013422140618786216,0.0036240178160369396,0.46177613735198975,-0.01125352829694748,0.0078202486038208,-0.059319447726011276,-0.45347660779953003,-0.010162478312849998,0.011635004542768002,-0.46253910660743713,0.016212711110711098,0.004005493130534887,0.008201723918318748
29,0,0.4738015830516815,-0.0013422140618786216,0.0036240178160369396,0.46177613735198975,-0.010872052982449532,0.008201723918318748,-0.059319447726011276,-0.45309311151504517,-0.010162478312849998,0.011635004542768002,-0.46253910660743713,0.016212711110711098,0.004005493130534887,0.008201723918318748,0.06809338182210922,0.06198977679014206,0.4740474224090576,0.008568588644266129,0.00038757920265197754,0.4698461592197418,-0.005060642957687378,0.012219300493597984,-0.05697914958000183,-0.4491211473941803,-0.0026910677552223206,0.012698791921138763,-0.45522046089172363,0.005548655986785889,0.01608828455209732,0.018625527620315552,0.0,0.0,0.9333000183105469,0.32872681238075446,0.2212431757410515,0.7590068171837213,-0.02200817059468152,-0.04588575667146877,-0.026261758408108182,0.34142932580295715,-0.23445208588860666,0.772960982344424,0.010912080681817482,-0.07043613153142347,-0.029547295866951373,0.4738015830516815,-0.0013422140618786216,0.0036240178160369396,0.46177613735198975,-0.010872052982449532,0.008201723918318748,-0.059319447726011276,-0.45309311151504517,-0.010162478312849998,0.011635004542768002,-0.46253910660743713,0.016212711110711098,0.004005493130534887,0.008201723918318748
30,0,0.4738015830516815,-0.0013422140618786216,0.0036240178160369396,0.46177613735198975,-0.010490577667951584,0.008201723918318748,-0.05970092490315437,-0.4523261487483978,-0.010162478312849998,0.011635004542768002,-0.46253910660743713,0.016212711110711098,0.004005493130534887,0.008201723918318748,0.06809338182210922,0.06198977679014206,0.473560094833374,0.009532004594802856,9.115785360336304e-05,0.4701476991176605,-0.003191143274307251,0.012741373851895332,-0.05810832977294922,-0.44482186436653137,-0.0029799602925777435,0.01398707926273346,-0.45328620076179504,0.005002647638320923,0.016301587224006653,0.01650097966194153,0.0,0.0,0.96670001745224,0.32857185787899984,0.22097318566088234,0.7589366582381223,-0.02042764301046196,-0.04513670861088892,-0.027770424945916528,0.3441213371027727,-0.2351390483056668,0.7755376931521273,0.011311003293681843,-0.07718539698051385,-0.031490352956471845,0.4738015830516815,-0.0013422140618786216,0.0036240178160369396,0.46177613735198975,-0.010490577667951584,0.008201723918318748,-0.05970092490315437,-0.4523261487483978,-0.010162478312849998,0.011635004542768002,-0.46253910660743713,0.016212711110711098,0.004005493130534887,0.008201723918318748
31,0,0.4738015830516815,-0.0013422140618786216,0.0036240178160369396,0.46177613735198975,-0.010109102353453636,0.008201723918318748,-0.05970092490315437,-0.4515591561794281,-0.010162478312849998,0.011635004542768002,-0.46253910660743713,0.012779430486261845,0.00476844422519207,0.01201647985726595,0.06809338182210922,0.06198977679014206,0.47302865982055664,0.010151451453566551,0.0006204396486282349,0.4704277217388153,-0.0023767948150634766,0.013252826407551765,-0.05885279178619385,-0.443241685628891,-0.0038733966648578644,0.01496858149766922,-0.4530826807022095,0.00584372878074646,0.015390351414680481,0.0149899423122406,0.0,0.0,1.0,0.3284883132451334,0.2207703937523042,0.7589359690945923,-0.019622206785633534,-0.045199134231348914,-0.028896314094474906,0.3451258686391675,-0.23540967789789807,0.7763836646454306,0.011177531886507275,-0.07838627646799567,-0.03101385096253928,0.4738015830516815,-0.0013422140618786216,0.0036240178160369396,0.46177613735198975,-0.010109102353453636,0.008201723918318748,-0.05970092490315437,-0.4515591561794281,-0.010162478312849998,0.011635004542768002,-0.46253910660743713,0.012779430486261845,0.00476844422519207,0.01201647985726595
32,0,0.4738015830516815,-0.0009587243548594415,0.0036240178160369396,0.46177613735198975,-0.007438773289322853,0.008201723918318748,-0.06008239835500717,-0.44657379388809204,-0.010162478312849998,0.011635004542768002,-0.46253910660743713,0.012397955171763897,0.005149920005351305,0.011635004542768002,0.06809338182210922,0.06198977679014206,0.4740813970565796,0.011376025155186653,-0.0005613565444946289,0.4708731472492218,0.0007808208465576172,0.01417786069214344,-0.06366074085235596,-0.43539169430732727,-0.004045542329549789,0.014999866485595703,-0.44659945368766785,-0.0008090734481811523,0.018784791231155396,0.017031997442245483,0.0,0.0,1.0333000421524048,0.32843214677431015,0.2202787252631368,0.7588849550053977,-0.01652206593655947,-0.0453760513821182,-0.031965366579794985,0.34825747432014065,-0.23644015487490128,0.7791244819302685,0.002916834036317706,-0.0879466598922618,-0.03485062639621894,0.4738015830516815,-0.0009587243548594415,0.0036240178160369396,0.46177613735198975,-0.007438773289322853,0.008201723918318748,-0.06008239835500717,-0.44657379388809204,-0.010162478312849998,0.011635004542768002,-0.46253910660743713,0.012397955171763897,0.005149920005351305,0.011635004542768002
33,0,0.4738015830516815,-0.0009587243548594415,0.0036240178160369396,0.46177613735198975,-0.007438773289322853,0.008201723918318748,-0.06008239835500717,-0.44312238693237305,-0.010162478312849998,0.011635004542768002,-0.46253910660743713,0.012397955171763897,0.005531395319849253,0.011635004542768002,0.06809338182210922,0.06160829961299896,0.47218137979507446,0.012201100587844849,5.2459537982940674e-05,0.4707590341567993,0.0021678805351257324,0.014918597415089607,-0.06503716111183167,-0.4301733076572418,-0.005919240415096283,0.018462035804986954,-0.4439384937286377,0.001217663288116455,0.017551958560943604,0.014506369829177856,0.0,0.0,1.0666999816894531,0.32854983898352014,0.22001998532982295,0.7587526529244893,-0.01573820550962335,-0.0450819932121207,-0.03406205649776295,0.3518738949525835,-0.23800780028203652,0.7819098815184373,0.0046963995539814896,-0.09328917417943128,-0.03570377941815295,0.4738015830516815,-0.0009587243548594415,0.0036240178160369396,0.46177613735198975,-0.007438773289322853,0.008201723918318748,-0.06008239835500717,-0.44312238693237305,-0.010162478312849998,0.011635004542768002,-0.46253910660743713,0.012397955171763897,0.005531395319849253,0.011635004542768002
34,0,0.4738015830516815,-0.0009587243548594415,0.0036240178160369396,0.46177613735198975,-0.00667582219466567,0.00858320016413927,-0.06237125024199486,-0.4354526102542877,-0.010162478312849998,0.011635004542768002,-0.4507133662700653,0.0020981156267225742,0.008201723918318748,0.013542382046580315,0.06809338182210922,0.06198977679014206,0.47207415103912354,0.012731293216347694,0.0006206333637237549,0.47137251496315,0.005520075559616089,0.01503235287964344,-0.06868639588356018,-0.4247860014438629,-0.007289871573448181,0.02148965373635292,-0.4404318034648895,0.0014792084693908691,0.017282679677009583,0.013297230005264282,0.0,0.0,1.100000023841858,0.32857679760448133,0.21993247947057573,0.7587395467540651,-0.015555931148433455,-0.045135333612105644,-0.03465983937863548,0.35313433757007884,-0.23854182485735426,0.7827643455382988,0.005909263304958223,-0.09445237418154395,-0.036015422773868266,0.4738015830516815,-0.0009587243548594415,0.0036240178160369396,0.46177613735198975,-0.00667582219466567,0.00858320016413927,-0.06237125024199486,-0.4354526102542877,-0.010162478312849998,0.011635004542768002,-0.4507133662700653,0.0020981156267225742,0.008201723918318748,0.013542382046580315
35,0,0.4738015830516815,-0.0009587243548594415,0.0036240178160369396,0.46177613735198975,-0.005912871100008488,0.009346150793135166,-0.06389715522527695,-0.4300837516784668,-0.010162478312849998,0.011635004542768002,-0.44384679198265076,0.0020981156267225742,0.00858320016413927,0.011635004542768002,0.06809338182210922,0.06160829961299896,0.47225725650787354,0.012532075867056847,-0.0021919235587120056,0.47147294878959656,0.006236135959625244,0.015749795362353325,-0.07418081164360046,-0.4159529507160187,-0.009665381163358688,0.023239947855472565,-0.43180638551712036,-0.0012190043926239014,0.017465554177761078,0.01667514443397522,0.0,0.0,1.1332999467849731,0.32860520962822604,0.21975183066589082,0.7586829638474041,-0.015625672373365873,-0.0449588382190127,-0.03471488094259456,0.35699523410699024,-0.23977893686029494,0.7855403367304205,-0.0036020915022998423,-0.10224527026281871,-0.03578708135123776,0.4738015830516815,-0.0009587243548594415,0.0036240178160369396,0.46177613735198975,-0.005912871100008488,0.009346150793135166,-0.06389715522527695,-0.4300837516784668,-0.010162478312849998,0.011635004542768002,-0.44384679198265076,0.0020981156267225742,0.00858320016413927,0.011635004542768002
36,0,0.4738015830516815,-0.0009587243548594415,0.0036240178160369396,0.46177613735198975,-0.0024795911740511656,0.009346150793135166,-0.06466010212898254,-0.42739930748939514,-0.010162478312849998,0.01201647985726595,-0.44384679198265076,0.0020981156267225742,0.00858320016413927,0.011635004542768002,0.06809338182210922,0.06198977679014206,0.46847712993621826,0.01295810379087925,-0.0019815564155578613,0.47300925850868225,0.006838679313659668,0.01620296575129032,-0.07238182425498962,-0.40696802735328674,-0.012934252619743347,0.028475046157836914,-0.42931607365608215,0.004599094390869141,0.013579078018665314,0.011860936880111694,0.0,0.0,1.166700005531311,0.32856073823801785,0.2196144808375667,0.7586428216346582,-0.01572418197233283,-0.044788156739320684,-0.03379758159231283,0.3607254212333538,-0.24164930016710007,0.7881163877793098,-0.0003451027489767,-0.10638964890403102,-0.034874864038226594,0.4738015830516815,-0.0009587243548594415,0.0036240178160369396,0.46177613735198975,-0.0024795911740511656,0.009346150793135166,-0.06466010212898254,-0.42739930748939514,-0.010162478312849998,0.01201647985726595,-0.44384679198265076,0.0020981156267225742,0.00858320016413927,0.011635004542768002
37,0,0.4738015830516815,0.0021091934759169817,0.0036240178160369396,0.46177613735198975,0.00019073777366429567,0.009727626107633114,-0.07000076025724411,-0.420879989862442,-0.010162478312849998,0.01201647985726595,-0.440032035112381,0.001716639962978661,0.008964675478637218,0.012397955171763897,0.06809338182210922,0.06198977679014206,0.4677886962890625,0.013342605903744698,-0.002264164388179779,0.47400954365730286,0.008314013481140137,0.01649424247443676,-0.07332289218902588,-0.3987707793712616,-0.013871930539608002,0.03026115894317627,-0.425508975982666,0.004494696855545044,0.013637393712997437,0.010317116975784302,0.0,0.0,1.2000000476837158,0.3285143108772709,0.21956092067584287,0.7586877084732004,-0.015713975604140895,-0.04553935637080864,-0.03323812507721202,0.3633256611357071,-0.24255997133831475,0.7896722016800176,0.0020542089091253324,-0.10873429880268937,-0.03675628373102802,0.4738015830516815,0.0021091934759169817,0.0036240178160369396,0.46177613735198975,0.00019073777366429567,0.009727626107633114,-0.07000076025724411,-0.420879989862442,-0.010162478312849998,0.01201647985726595,-0.440032035112381,0.001716639962978661,0.008964675478637218,0.012397955171763897
38,0,0.47341808676719666,0.008245029486715794,0.0036240178160369396,0.46177613735198975,0.000572213320992887,0.010109102353453636,-0.071908138692379,-0.4097587764263153,-0.010162478312849998,0.019645990803837776,-0.4354543387889862,0.0020981156267225742,0.00858320016413927,0.01125352829694748,0.06809338182210922,0.06160829961299896,0.46841931343078613,0.013426374644041061,-0.005137905478477478,0.47532325983047485,0.009232819080352783,0.017539238557219505,-0.07831385731697083,-0.38484808802604675,-0.016492195427417755,0.031414762139320374,-0.4159567654132843,0.0008981823921203613,0.013909682631492615,0.014917165040969849,0.0,0.0,1.233299970626831,0.32849066373846253,0.21938783589336594,0.7585927923216724,-0.016483239383986437,-0.04501588144073532,-0.03229130679117986,0.3674632232757292,-0.24351850383703652,0.7919165406581763,-0.007677003463679277,-0.11426775324816152,-0.03600294425850237,0.47341808676719666,0.008245029486715794,0.0036240178160369396,0.46177613735198975,0.000572213320992887,0.010109102353453636,-0.071908138692379,-0.4097587764263153,-0.010162478312849998,0.019645990803837776,-0.4354543387889862,0.0020981156267225742,0.00858320016413927,0.01125352829694748
39,0,0.47341808676719666,0.008245029486715794,0.001716639962978661,0.46177613735198975,0.000572213320992887,0.010109102353453636,-0.071908138692379,-0.3997880518436432,-0.01054596807807684,0.02727550081908703,-0.4346913993358612,0.0020981156267225742,0.009346150793135166,0.01125352829694748,0.06809338182210922,0.06198977679014206,0.46625185012817383,0.013662360608577728,-0.00684712827205658,0.477510005235672,0.00735628604888916,0.018816271796822548,-0.07687690854072571,-0.37553849816322327,-0.020077362656593323,0.035199958831071854,-0.4135962128639221,0.005795121192932129,0.01000167429447174,0.011217325925827026,0.0,0.0,1.266700029373169,0.32855896831113596,0.2193446921396129,0.758531852401694,-0.01645623132133034,-0.04435002800451615,-0.03198508424815838,0.3704352949233759,-0.24408123331576093,0.7931691654723347,-0.007390415397112715,-0.11595443142806339,-0.034345774938018714,0.47341808676719666,0.008245029486715794,0.001716639962978661,0.46177613735198975,0.000572213320992887,0.010109102353453636,-0.071908138692379,-0.3997880518436432,-0.01054596807807684,0.02727550081908703,-0.4346913993358612,0.0020981156267225742,0.009346150793135166,0.01125352829694748
40,0,0.47341808676719666,0.008245029486715794,0.001716639962978661,0.46177613735198975,0.000572213320992887,0.010490577667951584,-0.07305257022380829,-0.38559892773628235,-0.01054596807807684,0.031090257689356804,-0.42553597688674927,0.0020981156267225742,0.009346150793135166,0.01201647985726595,0.06809338182210922,0.06198977679014206,0.4651978611946106,0.012755200266838074,-0.008335895836353302,0.4766133725643158,0.0039841532707214355,0.02030325122177601,-0.07624801993370056,-0.3626049757003784,-0.022318586707115173,0.03623161092400551,-0.40948283672332764,0.009799569845199585,0.007072530686855316,0.004312574863433838,0.0,0.0,1.2999999523162842,0.3285763333262651,0.21913194571983272,0.758588353954935,-0.01645987276059424,-0.044112384123085935,-0.03193863967317556,0.3748151900165647,-0.24396658717528966,0.7950235355690427,-0.010635984197237214,-0.11500214684122545,-0.031159612355549537,0.47341808676719666,0.008245029486715794,0.001716639962978661,0.46177613735198975,0.000572213320992887,0.010490577667951584,-0.07305257022380829,-0.38559892773628235,-0.01054596807807684,0.031090257689356804,-0.42553597688674927,0.0020981156267225742,0.009346150793135166,0.01201647985726595
41,0,0.47265109419822693,0.008245029486715794,0.001716639962978661,0.46177613735198975,0.000572213320992887,0.010490577667951584,-0.07534141838550568,-0.374477744102478,-0.01054596807807684,0.03185320645570755,-0.4182879328727722,0.0020981156267225742,0.00858320016413927,0.01125352829694748,0.06809338182210922,0.06160829961299896,0.46515631675720215,0.0119782704859972,-0.009004510939121246,0.4749249219894409,0.0026355981826782227,0.021117007359862328,-0.07744032144546509,-0.35900169610977173,-0.02313273400068283,0.03599054738879204,-0.4070361852645874,0.01057007908821106,0.006232202053070068,0.003079652786254883,0.0,0.0,1.333299994468689,0.3286288963584031,0.21907582765586242,0.7585730080937549,-0.016539055447907458,-0.04369602097855818,-0.032048404272126074,0.3767600442375707,-0.24386126830866767,0.7957055442003755,-0.013228126940235008,-0.11431854194170965,-0.029920945379482866,0.47265109419822693,0.008245029486715794,0.001716639962978661,0.46177613735198975,0.000572213320992887,0.010490577667951584,-0.07534141838550568,-0.374477744102478,-0.01054596807807684,0.03185320645570755,-0.4182879328727722,0.0020981156267225742,0.00858320016413927,0.01125352829694748
42,0,0.4715006351470947,0.008245029486715794,0.0013351644156500697,0.46177613735198975,0.00019073777366429567,0.010872052982449532,-0.07572289556264877,-0.36527398228645325,-0.01092945784330368,0.03185320645570755,-0.4175249934196472,0.002861066721379757,0.007438773289322853,0.006294346414506435,0.06809338182210922,0.06160829961299896,0.4651843309402466,0.011646408587694168,-0.009474530816078186,0.47417864203453064,0.002084106206893921,0.021582478657364845,-0.07830637693405151,-0.3592919409275055,-0.023649007081985474,0.03580064699053764,-0.40718352794647217,0.010941922664642334,0.0054812952876091,0.0016349554061889648,0.0,0.0,1.3667000532150269,0.3286290000095252,0.21907566448282775,0.7585744027795014,-0.01653905355885321,-0.04369559284494784,-0.03204837126110416,0.3767743085174469,-0.24386030689021407,0.7957030082180877,-0.013228331360267465,-0.1143181165019187,-0.029921382268113028,0.4715006351470947,0.008245029486715794,0.0013351644156500697,0.46177613735198975,0.00019073777366429567,0.010872052982449532,-0.07572289556264877,-0.36527398228645325,-0.01092945784330368,0.03185320645570755,-0.4175249934196472,0.002861066721379757,0.007438773289322853,0.006294346414506435
43,0,0.4715006351470947,0.008245029486715794,0.0013351644156500697,0.46177613735198975,0.00019073777366429567,0.01125352829694748,-0.07572289556264877,-0.35837116837501526,-0.012463416904211044,0.03185320645570755,-0.4175249934196472,0.0032425422687083483,0.007438773289322853,0.006294346414506435,0.06809338182210922,0.06198977679014206,0.46570080518722534,0.011276349425315857,-0.010324254631996155,0.4736782908439636,0.0013179779052734375,0.021712401881814003,-0.07904773950576782,-0.35984936356544495,-0.023831583559513092,0.0352073609828949,-0.407109797000885,0.010480642318725586,0.00528380274772644,0.0016343295574188232,0.0,0.0,1.399999976158142,0.3286289903511004,0.2190756427180024,0.7585744156672292,-0.016539052016919964,-0.04369555992246754,-0.03204836957225243,0.37677446712369755,-0.24386032313526637,0.7957028718946367,-0.013228331996197884,-0.11431815268340983,-0.0299213829710685,0.4715006351470947,0.008245029486715794,0.0013351644156500697,0.46177613735198975,0.00019073777366429567,0.01125352829694748,-0.07572289556264877,-0.35837116837501526,-0.012463416904211044,0.03185320645570755,-0.4175249934196472,0.0032425422687083483,0.007438773289322853,0.006294346414506435
44,0,0.4715006351470947,0.008245029486715794,0.0013351644156500697,0.46177613735198975,0.00019073777366429567,0.01125352829694748,-0.07610437273979187,-0.3568372130393982,-0.01668180339038372,0.03185320645570755,-0.4175249934196472,0.0036240178160369396,0.007438773289322853,0.0036240178160369396,0.06809338182210922,0.06160829961299896,0.4656614661216736,0.010150875896215439,-0.011446990072727203,0.47514355182647705,0.0022904574871063232,0.01769893802702427,-0.07545113563537598,-0.34201210737228394,-0.02314598858356476,0.029998645186424255,-0.4037407338619232,0.006522864103317261,0.005176514387130737,-0.005874305963516235,0.0,0.0,1.4333000183105469,0.32905226795693276,0.2186815825823194,0.7587396581220309,-0.01714060926503569,-0.043691878697348585,-0.031456419824511084,0.3893136440566064,-0.2431932387113651,0.7998699419109537,-0.017315304608487292,-0.11133915449192378,-0.018273242230863573,0.4715006351470947,0.008245029486715794,0.0013351644156500697,0.46177613735198975,0.00019073777366429567,0.01125352829694748,-0.07610437273979187,-0.3568372130393982,-0.01668180339038372,0.03185320645570755,-0.4175249934196472,0.0036240178160369396,0.007438773289322853,0.0036240178160369396
45,0,0.4715006351470947,0.008245029486715794,0.0013351644156500697,0.46177613735198975,-0.00019073777366429567,0.011635004542768002,-0.07610437273979187,-0.3568372130393982,-0.018982741981744766,0.03185320645570755,-0.41676202416419983,0.0036240178160369396,0.007438773289322853,0.0036240178160369396,0.06809338182210922,0.06198977679014206,0.4654146432876587,0.011265156790614128,-0.011738039553165436,0.47755563259124756,0.002874225378036499,0.016579465940594673,-0.07241931557655334,-0.3331950008869171,-0.02146640419960022,0.02877335622906685,-0.40174874663352966,0.004107087850570679,0.007224775850772858,-0.007953107357025146,0.0,0.0,1.4666999578475952,0.329271676118855,0.21849616218063006,0.7588053616125527,-0.016812085700621537,-0.04340251081087354,-0.031145636826390266,0.3945117992862722,-0.24334053562067376,0.802324332056415,-0.011368112727173418,-0.11228483378320986,-0.019537798920112426,0.4715006351470947,0.008245029486715794,0.0013351644156500697,0.46177613735198975,-0.00019073777366429567,0.011635004542768002,-0.07610437273979187,-0.3568372130393982,-0.018982741981744766,0.03185320645570755,-0.41676202416419983,0.0036240178160369396,0.007438773289322853,0.0036240178160369396
46,0,0.4715006351470947,0.007861539721488953,-0.0024795911740511656,0.46177613735198975,0.00019073777366429567,0.011635004542768002,-0.07572289556264877,-0.34840041399002075,-0.019749721512198448,0.03147173300385475,-0.41027694940567017,0.0032425422687083483,0.007438773289322853,-0.001716639962978661,0.06809338182210922,0.06198977679014206,0.4655379056930542,0.011431269347667694,-0.012961093336343765,0.4787738025188446,0.0024291276931762695,0.015370136126875877,-0.07123401761054993,-0.32253339886665344,-0.02068624645471573,0.027649816125631332,-0.3980008661746979,0.002320408821105957,0.008330553770065308,-0.010689377784729004,0.0,0.0,1.5,0.32945935636923207,0.2185936031560444,0.7590184760896391,-0.017499015711042176,-0.04436198081177123,-0.029486071302861294,0.39869309459734825,-0.24330176840341716,0.8046801342509825,-0.009029588933176846,-0.11461573213872223,-0.017793228245243764,0.4715006351470947,0.007861539721488953,-0.0024795911740511656,0.46177613735198975,0.00019073777366429567,0.011635004542768002,-0.07572289556264877,-0.34840041399002075,-0.019749721512198448,0.03147173300385475,-0.41027694940567017,0.0032425422687083483,0.007438773289322853,-0.001716639962978661
47,0,0.4715006351470947,0.007478049956262112,-0.00858320016413927,0.46177613735198975,0.00019073777366429567,0.01125352829694748,-0.07534141838550568,-0.33727923035621643,-0.019749721512198448,0.03147173300385475,-0.4064621925354004,0.002861066721379757,0.007438773289322853,-0.005531395319849253,0.06809338182210922,0.06160829961299896,0.4648720622062683,0.011052867397665977,-0.015347931534051895,0.47837305068969727,0.000167161226272583,0.015369834378361702,-0.07007080316543579,-0.3140285611152649,-0.02082531899213791,0.02703757956624031,-0.3936360776424408,0.0014130473136901855,0.008702993392944336,-0.012386143207550049,0.0,0.0,1.5333000421524048,0.3296863048618608,0.2186786832171482,0.7589452224407678,-0.017535003088223533,-0.04295287890833688,-0.028546779210439244,0.40167053067832836,-0.2435039561432263,0.8061149241436477,-0.009968265327487735,-0.1159318911385725,-0.018078889484975935,0.4715006351470947,0.007478049956262112,-0.00858320016413927,0.46177613735198975,0.00019073777366429567,0.01125352829694748,-0.07534141838550568,-0.33727923035621643,-0.019749721512198448,0.03147173300385475,-0.4064621925354004,0.002861066721379757,0.007438773289322853,-0.005531395319849253
48,0,0.4715006351470947,0.007478049956262112,-0.009727626107633114,0.46215763688087463,0.00019073777366429567,0.010872052982449532,-0.07495994865894318,-0.3238570988178253,-0.019749721512198448,0.03147173300385475,-0.4045548141002655,0.0024795911740511656,0.007438773289322853,-0.008201723918318748,0.06809338182210922,0.06198977679014206,0.4640573263168335,0.011112138628959656,-0.015878502279520035,0.47850745916366577,-0.0005826652050018311,0.01559915579855442,-0.06958264112472534,-0.3138423562049866,-0.021735943853855133,0.027425743639469147,-0.39345353841781616,0.002039313316345215,0.007781274616718292,-0.012356460094451904,0.0,0.0,1.5666999816894531,0.32970484026313773,0.218671568315985,0.758974916139228,-0.01753434722973557,-0.04293977228680257,-0.028543565925105874,0.40183591373366556,-0.24345937621639624,0.8060763704621956,-0.009980683565876891,-0.1159350344906187,-0.018096802532627798,0.4715006351470947,0.007478049956262112,-0.009727626107633114,0.46215763688087463,0.00019073777366429567,0.010872052982449532,-0.07495994865894318,-0.3238570988178253,-0.019749721512198448,0.03147173300385475,-0.4045548141002655,0.0024795911740511656,0.007438773289322853,-0.008201723918318748
49,0,0.4718841314315796,0.007478049956262112,-0.009727626107633114,0.46215763688087463,-0.00019073777366429567,0.010872052982449532,-0.07495994865894318,-0.31580379605293274,-0.019749721512198448,0.03147173300385475,-0.403410404920578,0.0020981156267225742,0.007438773289322853,-0.008201723918318748,0.06809338182210922,0.06198977679014206,0.4611181616783142,0.011142341420054436,-0.016550038009881973,0.4778711199760437,-0.0030807852745056152,0.0153322983533144,-0.06457459926605225,-0.2971671521663666,-0.020859569311141968,0.02624797448515892,-0.3854497969150543,0.0021746456623077393,0.008534573018550873,-0.01601201295852661,0.0,0.0,1.600000023841858,0.32985699422186626,0.2185352306672793,0.7591850808253925,-0.017758930705324527,-0.04257654874606054,-0.028544110302521464,0.40643739084370434,-0.24383257300065492,0.8070447639107975,-0.01160584906927209,-0.11812025097936374,-0.020491824887579835,0.4718841314315796,0.007478049956262112,-0.009727626107633114,0.46215763688087463,-0.00019073777366429567,0.010872052982449532,-0.07495994865894318,-0.31580379605293274,-0.019749721512198448,0.03147173300385475,-0.403410404920578,0.0020981156267225742,0.007438773289322853,-0.008201723918318748
50,0,0.47111713886260986,0.007478049956262112,-0.009727626107633114,0.46215763688087463,-0.000572213320992887,0.010872052982449532,-0.07457847148180008,-0.3108184337615967,-0.019749721512198448,0.03147173300385475,-0.4026474356651306,0.0020981156267225742,0.007438773289322853,-0.00858320016413927,0.06809338182210922,0.06160829961299896,0.456418514251709,0.010416526347398758,-0.015588968992233276,0.4792090356349945,-0.007896244525909424,0.014713509008288383,-0.05168282985687256,-0.26373961567878723,-0.017330169677734375,0.02448943257331848,-0.369508296251297,0.005247563123703003,0.010694146156311035,-0.02607002854347229,0.0,0.0,1.6332999467849731,0.3301803431435613,0.21841600586095206,0.7592140865253949,-0.01794436400452959,-0.04097933921479102,-0.028705612595534724,0.41049369317364837,-0.24448148673431955,0.8071551396669694,-0.016557619344065966,-0.12036954030824898,-0.02500479818676693,0.47111713886260986,0.007478049956262112,-0.009727626107633114,0.46215763688087463,-0.000572213320992887,0.010872052982449532,-0.07457847148180008,-0.3108184337615967,-0.019749721512198448,0.03147173300385475,-0.4026474356651306,0.0020981156267225742,0.007438773289322853,-0.00858320016413927
51,0,0.46996667981147766,0.007478049956262112,-0.009727626107633114,0.46215763688087463,-0.0036240178160369396,0.010872052982449532,-0.07038223743438721,-0.3039156198501587,-0.019749721512198448,0.03147173300385475,-0.3923476040363312,0.0020981156267225742,0.007438773289322853,-0.01125352829694748,0.06809338182210922,0.06198977679014206,0.45411956310272217,0.010144151747226715,-0.012558557093143463,0.4815908968448639,-0.007348835468292236,0.013459773734211922,-0.04354727268218994,-0.24295654892921448,-0.014465522021055222,0.024258416146039963,-0.3608665466308594,0.006255596876144409,0.01338755339384079,-0.03334230184555054,0.0,0.0,1.666700005531311,0.33022121354976885,0.21834909328086305,0.759319546501522,-0.017886892498365725,-0.04106784650527562,-0.02875046703706685,0.4119512892222321,-0.24480130512543707,0.8070804485633387,-0.015480804327391517,-0.11916361984670942,-0.027380387523780136,0.46996667981147766,0.007478049956262112,-0.009727626107633114,0.46215763688087463,-0.0036240178160369396,0.010872052982449532,-0.07038223743438721,-0.3039156198501587,-0.019749721512198448,0.03147173300385475,-0.3923476040363312,0.0020981156267225742,0.007438773289322853,-0.01125352829694748
52,0,0.46344736218452454,0.007478049956262112,-0.009727626107633114,0.46253910660743713,-0.0078202486038208,0.010872052982449532,-0.0555046908557415,-0.2713190019130707,-0.019749721512198448,0.030708782374858856,-0.3614480793476105,0.0024795911740511656,0.0078202486038208,-0.02841992862522602,0.06809338182210922,0.06198977679014206,0.44356822967529297,0.01033603586256504,-0.004030272364616394,0.48468273878097534,-0.003830939531326294,0.009840410202741623,-0.02249780297279358,-0.19044023752212524,-0.007997285574674606,0.025334980338811874,-0.34090811014175415,0.012246847152709961,0.017346419394016266,-0.057861387729644775,0.0,0.0,1.7000000476837158,0.33040413910061733,0.21810617282324976,0.7595912857004411,-0.017188127349107685,-0.04179843318986931,-0.028914098135697675,0.41579269703457933,-0.24583185750771572,0.8071633932526493,-0.005208729251312771,-0.1135743591406686,-0.03204599547201781,0.46344736218452454,0.007478049956262112,-0.009727626107633114,0.46253910660743713,-0.0078202486038208,0.010872052982449532,-0.0555046908557415,-0.2713190019130707,-0.019749721512198448,0.030708782374858856,-0.3614480793476105,0.0024795911740511656,0.0078202486038208,-0.02841992862522602
53,0,0.4546270966529846,0.007478049956262112,-0.009727626107633114,0.46292057633399963,-0.0078202486038208,0.010872052982449532,-0.048638131469488144,-0.24677564203739166,-0.019749721512198448,0.030708782374858856,-0.3595407009124756,0.0024795911740511656,0.008201723918318748,-0.03376058489084244,0.06809338182210922,0.06198977679014206,0.4351530075073242,0.010883031412959099,-0.003378450870513916,0.4839268624782562,-0.00658223032951355,0.009851764887571335,-0.011892735958099365,-0.16573894023895264,-0.006723102182149887,0.025500692427158356,-0.33049359917640686,0.01765081286430359,0.01620684564113617,-0.0690360963344574,0.0,0.0,1.733299970626831,0.3304495155937406,0.21801905302945596,0.7598849220928754,-0.016376387379219093,-0.043940365428533745,-0.029184665763241302,0.4179460057360609,-0.24641508119748515,0.8072487114123402,-0.00041662347192072957,-0.11343480969958097,-0.03440805635117661,0.4546270966529846,0.007478049956262112,-0.009727626107633114,0.46292057633399963,-0.0078202486038208,0.010872052982449532,-0.048638131469488144,-0.24677564203739166,-0.019749721512198448,0.030708782374858856,-0.3595407009124756,0.0024795911740511656,0.008201723918318748,-0.03376058489084244
54,0,0.45079219341278076,0.007478049956262112,-0.009727626107633114,0.465209424495697,-0.007438773289322853,0.009346150793135166,-0.029564354568719864,-0.20305781066417694,-0.017832273617386818,0.027656977996230125,-0.343900203704834,0.005531395319849253,0.00858320016413927,-0.05397878959774971,0.06809338182210922,0.06160829961299896,0.43241721391677856,0.011614711955189705,-0.0008244067430496216,0.4837660491466522,-0.0045357346534729,0.009754441678524017,-0.009819000959396362,-0.14664533734321594,-0.005475886166095734,0.026903029531240463,-0.32238826155662537,0.01913541555404663,0.0176188126206398,-0.07779666781425476,0.0,0.0,1.766700029373169,0.3305270190577234,0.2180568749142574,0.7600921952435139,-0.016037295438586785,-0.045634319545514224,-0.029014740069380096,0.42081702830633183,-0.24713252634334062,0.8074159856788737,0.0009136139340619742,-0.11311850782975919,-0.037152928802035134,0.45079219341278076,0.007478049956262112,-0.009727626107633114,0.465209424495697,-0.007438773289322853,0.009346150793135166,-0.029564354568719864,-0.20305781066417694,-0.017832273617386818,0.027656977996230125,-0.343900203704834,0.005531395319849253,0.00858320016413927,-0.05397878959774971
55,0,0.44197192788124084,0.006327580660581589,-0.008201723918318748,0.465209424495697,-0.007438773289322853,0.010109102353453636,-0.018501564860343933,-0.15358763933181763,-0.014380864799022675,0.027656977996230125,-0.33436331152915955,0.013542382046580315,0.010872052982449532,-0.06466010212898254,0.06809338182210922,0.06198977679014206,0.4322965145111084,0.011610358953475952,-0.00011088699102401733,0.48566022515296936,-0.005603820085525513,0.009790517389774323,-0.004705756902694702,-0.12984485924243927,-0.002980068325996399,0.025757979601621628,-0.31502676010131836,0.017545223236083984,0.020852968096733093,-0.08309847116470337,0.0,0.0,1.7999999523162842,0.33062798597655907,0.21812757850822095,0.760229324604074,-0.016144956037476454,-0.046269169659055365,-0.028230628408251857,0.42279240813636587,-0.2475934788819436,0.8073802787810531,0.002476582934555882,-0.11222689278411524,-0.03815198620155469,0.44197192788124084,0.006327580660581589,-0.008201723918318748,0.465209424495697,-0.007438773289322853,0.010109102353453636,-0.018501564860343933,-0.15358763933181763,-0.014380864799022675,0.027656977996230125,-0.33436331152915955,0.013542382046580315,0.010872052982449532,-0.06466010212898254
56,0,0.4354526102542877,0.00671107042580843,-0.0078202486038208,0.465209424495697,-0.007438773289322853,0.009346150793135166,-0.01773861236870289,-0.1347966492176056,-0.013230396434664726,0.02727550081908703,-0.33169299364089966,0.01430533267557621,0.010872052982449532,-0.07305257022380829,0.06809338182210922,0.06198977679014206,0.430480420589447,0.011213455349206924,-0.00020756572484970093,0.4867466986179352,-0.007278650999069214,0.009253697469830513,0.0006748437881469727,-0.11401821672916412,-0.0017492249608039856,0.025125306099653244,-0.30813395977020264,0.018595844507217407,0.021560408174991608,-0.08920219540596008,0.0,0.0,1.833299994468689,0.3307256564734629,0.21826121257018474,0.760295862660818,-0.016375103808440095,-0.0465714380609743,-0.027021141728861053,0.4244991009305076,-0.24776815004307792,0.8073915916476245,0.0027182597690909027,-0.11267819971444126,-0.03720928356140618,0.4354526102542877,0.00671107042580843,-0.0078202486038208,0.465209424495697,-0.007438773289322853,0.009346150793135166,-0.01773861236870289,-0.1347966492176056,-0.013230396434664726,0.02727550081908703,-0.33169299364089966,0.01430533267557621,0.010872052982449532,-0.07305257022380829
57,0,0.43391862511634827,0.00671107042580843,-0.0078202486038208,0.465209424495697,-0.007438773289322853,0.009727626107633114,-0.01430533267557621,-0.13057824969291687,-0.010162478312849998,0.02689402550458908,-0.3255893886089325,0.01430533267557621,0.011635004542768002,-0.07801175117492676,0.06809338182210922,0.06160829961299896,0.4292992353439331,0.010504035279154778,-4.997849464416504e-05,0.48712781071662903,-0.00858771800994873,0.008301664143800735,0.004665285348892212,-0.09776778519153595,-0.00012832507491111755,0.02369305118918419,-0.29970648884773254,0.01843854784965515,0.023075982928276062,-0.09321120381355286,0.0,0.0,1.8667000532150269,0.3308551127772823,0.21835134246151908,0.7603871740535142,-0.0167252955218129,-0.04658336190710566,-0.026105552309100943,0.42729704439707716,-0.24838744351309236,0.8068784964833342,-0.0024673309075140537,-0.11255196737250417,-0.036269060440248246,0.43391862511634827,0.00671107042580843,-0.0078202486038208,0.465209424495697,-0.007438773289322853,0.009727626107633114,-0.01430533267557621,-0.13057824969291687,-0.010162478312849998,0.02689402550458908,-0.3255893886089325,0.01430533267557621,0.011635004542768002,-0.07801175117492676
58,0,0.43430212140083313,0.00671107042580843,-0.004386968910694122,0.4655908942222595,-0.007438773289322853,0.009727626107633114,-0.00476844422519207,-0.12520940601825714,-0.009778988547623158,0.02689402550458908,-0.309567391872406,0.01430533267557621,0.012779430486261845,-0.0879301130771637,0.06809338182210922,0.06198977679014206,0.4291154742240906,0.010565975680947304,0.003564000129699707,0.48971280455589294,-0.005217403173446655,0.0071535538882017136,0.008387118577957153,-0.08357129991054535,0.00285160169005394,0.024565286934375763,-0.29210394620895386,0.018001079559326172,0.026940956711769104,-0.09777200222015381,0.0,0.0,1.899999976158142,0.3308420138148337,0.2184143976880849,0.7606673850432772,-0.01553440305829401,-0.04773625985321761,-0.02577905532033009,0.4305119033737729,-0.24986974808973592,0.8055474300114498,-0.0014892940972113244,-0.10781759178778705,-0.04117999205698242,0.43430212140083313,0.00671107042580843,-0.004386968910694122,0.4655908942222595,-0.007438773289322853,0.009727626107633114,-0.00476844422519207,-0.12520940601825714,-0.009778988547623158,0.02689402550458908,-0.309567391872406,0.01430533267557621,0.012779430486261845,-0.0879301130771637
59,0,0.4335351586341858,0.00671107042580843,-0.004005493130534887,0.4655908942222595,-0.0078202486038208,0.009346150793135166,0.000572213320992887,-0.1110202819108963,-0.008628519251942635,0.02689402550458908,-0.2958342730998993,0.01430533267557621,0.014686808921396732,-0.09174486994743347,0.06809338182210922,0.06198977679014206,0.4280077815055847,0.01046971045434475,0.0038952454924583435,0.49265122413635254,-0.004933685064315796,0.006791418418288231,0.012178748846054077,-0.07453575730323792,0.0035964176058769226,0.026772841811180115,-0.2872812747955322,0.020602911710739136,0.02747705578804016,-0.10518619418144226,0.0,0.0,1.9333000183105469,0.33081050844133486,0.2184100188443592,0.7607472242509585,-0.015133615953882629,-0.04836351614501977,-0.025824065036113897,0.4319413338567427,-0.2506508679701946,0.8047482201140409,0.006184877852116966,-0.10233913401318873,-0.04142205649217967,0.4335351586341858,0.00671107042580843,-0.004005493130534887,0.4655908942222595,-0.0078202486038208,0.009346150793135166,0.000572213320992887,-0.1110202819108963,-0.008628519251942635,0.02689402550458908,-0.2958342730998993,0.01430533267557621,0.014686808921396732,-0.09174486994743347
60,0,0.43391862511634827,0.006327580660581589,-0.0036240178160369396,0.4663538634777069,-0.007438773289322853,0.009346150793135166,0.0024795911740511656,-0.0895448550581932,-0.008628519251942635,0.02689402550458908,-0.2943083941936493,0.01430533267557621,0.016212711110711098,-0.09632257372140884,0.06809338182210922,0.06160829961299896,0.4284743070602417,0.009085260331630707,0.0026143118739128113,0.49861180782318115,-0.006520777940750122,0.005972404032945633,0.0173799991607666,-0.05470678210258484,0.005137547850608826,0.028344981372356415,-0.2741570472717285,0.021409183740615845,0.030308671295642853,-0.11493396759033203,0.0,0.0,1.9666999578475952,0.3307678032633111,0.21852696383730688,0.7609431103278522,-0.014636867202532322,-0.04959056654266325,-0.025406002869605704,0.43570452650455804,-0.2529207560842983,0.8026576144616617,0.008852355298035075,-0.09357409189617849,-0.04846263628025271,0.43391862511634827,0.006327580660581589,-0.0036240178160369396,0.4663538634777069,-0.007438773289322853,0.009346150793135166,0.0024795911740511656,-0.0895448550581932,-0.008628519251942635,0.02689402550458908,-0.2943083941936493,0.01430533267557621,0.016212711110711098,-0.09632257372140884
61,0,0.43391862511634827,0.00671107042580843,-0.0036240178160369396,0.4686427116394043,-0.007438773289322853,0.009346150793135166,0.00476844422519207,-0.07305479794740677,-0.007861539721488953,0.02689402550458908,-0.2943083941936493,0.016975661739706993,0.01773861236870289,-0.10090028494596481,0.06809338182210922,0.06198977679014206,0.4298693537712097,0.0076805781573057175,-0.0011749863624572754,0.4982624650001526,-0.008943319320678711,0.005328645929694176,0.01545250415802002,-0.04117332398891449,0.005889255553483963,0.028478793799877167,-0.26165565848350525,0.01871153712272644,0.03350796550512314,-0.11505201458930969,0.0,0.0,2.0,0.33083992752134805,0.2189425948134278,0.7611461935038683,-0.01595499506675635,-0.05072688458455055,-0.022284797260348377,0.43946019950050524,-0.25495545657734714,0.8003524427257315,0.0011559263722724644,-0.09022602320738171,-0.05363116222162345,0.43391862511634827,0.00671107042580843,-0.0036240178160369396,0.4686427116394043,-0.007438773289322853,0.009346150793135166,0.00476844422519207,-0.07305479794740677,-0.007861539721488953,0.02689402550458908,-0.2943083941936493,0.016975661739706993,0.01773861236870289,-0.10090028494596481
62,0,0.43391862511634827,0.006327580660581589,-0.004005493130534887,0.4736018776893616,-0.007438773289322853,0.0078202486038208,0.011635004542768002,-0.061166614294052124,-0.00671107042580843,0.02689402550458908,-0.28629741072654724,0.01735713705420494,0.01888304017484188,-0.11005569249391556,0.06809338182210922,0.06198977679014206,0.4308890700340271,0.0069907233119010925,-0.0007803738117218018,0.49907320737838745,-0.007168680429458618,0.0038078967481851578,0.01441916823387146,-0.03692200779914856,0.006289228796958923,0.029384125024080276,-0.2587106227874756,0.017708003520965576,0.03505205363035202,-0.11839571595191956,0.0,0.0,2.0332999229431152,0.3308635604709337,0.21902638376703604,0.7611699599238266,-0.01644146128368451,-0.050843896278616185,-0.021203748853449778,0.4411032176575486,-0.2557111770840582,0.7993127788653734,0.004774192910616648,-0.08543648645436042,-0.05350883446736887,0.43391862511634827,0.006327580660581589,-0.004005493130534887,0.4736018776893616,-0.007438773289322853,0.0078202486038208,0.011635004542768002,-0.061166614294052124,-0.00671107042580843,0.02689402550458908,-0.28629741072654724,0.01735713705420494,0.01888304017484188,-0.11005569249391556
63,0,0.4331516623497009,0.006327580660581589,-0.004005493130534887,0.47589075565338135,-0.0078202486038208,0.007057297509163618,0.011635004542768002,-0.045827023684978485,-0.0028761730063706636,0.02689402550458908,-0.2641718089580536,0.01735713705420494,0.02231631986796856,-0.11463340371847153,0.06809338182210922,0.06198977679014206,0.4279898405075073,0.006632981821894646,0.0011186674237251282,0.4990614354610443,-0.00436854362487793,0.0011864230036735535,0.014882296323776245,-0.028732746839523315,0.005955703556537628,0.03138486668467522,-0.2523350715637207,0.019022434949874878,0.03558240085840225,-0.1263429820537567,0.0,0.0,2.066699981689453,0.33086807214345815,0.21904056821439974,0.7613329092777037,-0.016321729692723608,-0.051272824990830745,-0.019930990950621563,0.4453990989195274,-0.25780251355033734,0.7965846419655189,0.014051874936013231,-0.06815675332056825,-0.051339343124833015,0.4331516623497009,0.006327580660581589,-0.004005493130534887,0.47589075565338135,-0.0078202486038208,0.007057297509163618,0.011635004542768002,-0.045827023684978485,-0.0028761730063706636,0.02689402550458908,-0.2641718089580536,0.01735713705420494,0.02231631986796856,-0.11463340371847153
64,0,0.4335351586341858,0.006327580660581589,-0.004005493130534887,0.47589075565338135,-0.0078202486038208,0.007057297509163618,0.011635004542768002,-0.04352608695626259,-0.0021091934759169817,0.02689402550458908,-0.2611200213432312,0.01735713705420494,0.023079270496964455,-0.11730372905731201,0.06809338182210922,0.06198977679014206,0.42808181047439575,0.006578546017408371,0.0005648508667945862,0.4984140396118164,-0.0038088858127593994,0.000708436593413353,0.01290169358253479,-0.020818345248699188,0.006773307919502258,0.03184748813509941,-0.2449558824300766,0.017136067152023315,0.03818991035223007,-0.12928643822669983,0.0,0.0,2.0999999046325684,0.3307213836645334,0.21884798448446588,0.761565036132018,-0.014710242449190947,-0.053690986956784315,-0.020286248073237978,0.44939779654673107,-0.25958179585850194,0.7944843847672102,0.011477917356250256,-0.05755553263778035,-0.05388933590779166,0.4335351586341858,0.006327580660581589,-0.004005493130534887,0.47589075565338135,-0.0078202486038208,0.007057297509163618,0.011635004542768002,-0.04352608695626259,-0.0021091934759169817,0.02689402550458908,-0.2611200213432312,0.01735713705420494,0.023079270496964455,-0.11730372905731201
65,0,0.4335351586341858,0.006327580660581589,-0.004005493130534887,0.47589075565338135,-0.007438773289322853,0.00667582219466567,0.011635004542768002,-0.040074676275253296,-0.0021091934759169817,0.02689402550458908,-0.2607385218143463,0.01735713705420494,0.023079270496964455,-0.12455176562070847,0.06809338182210922,0.06160829961299896,0.4262240529060364,0.006298735737800598,0.003416217863559723,0.49904897809028625,-5.543231964111328e-05,-0.0014640018343925476,0.012501776218414307,-0.019581273198127747,0.005925524979829788,0.03317224234342575,-0.24476765096187592,0.019633501768112183,0.036674536764621735,-0.13629290461540222,0.0,0.0,2.1333000659942627,0.3306610046911194,0.21883774230256464,0.7616414764849728,-0.014256792915787297,-0.0544484602595432,-0.02007247939362866,0.4519935002851725,-0.26069831459214593,0.7928076987282411,0.027999304432100303,-0.0434076860644832,-0.04718915672970869,0.4335351586341858,0.006327580660581589,-0.004005493130534887,0.47589075565338135,-0.007438773289322853,0.00667582219466567,0.011635004542768002,-0.040074676275253296,-0.0021091934759169817,0.02689402550458908,-0.2607385218143463,0.01735713705420494,0.023079270496964455,-0.12455176562070847
66,0,0.4331516623497009,0.006327580660581589,-0.004005493130534887,0.47589075565338135,-0.007438773289322853,0.00667582219466567,0.01125352829694748,-0.03010394424200058,-0.0021091934759169817,0.02689402550458908,-0.25387197732925415,0.016975661739706993,0.025749599561095238,-0.12493324279785156,0.06809338182210922,0.06160829961299896,0.42751795053482056,0.005830973386764526,0.004660114645957947,0.499220073223114,0.0034703314304351807,-0.002845747396349907,0.011324286460876465,-0.009343311190605164,0.00530373677611351,0.033626604825258255,-0.233537957072258,0.02327015995979309,0.03528179973363876,-0.151423841714859,0.0,0.0,2.1666998863220215,0.3305891977569188,0.21886165230623553,0.7616864387798893,-0.013967369424015441,-0.05495398167386645,-0.019779692138100824,0.4548251124306144,-0.261901725223464,0.7911259699451508,0.03019059906212851,-0.030126585973799802,-0.04522587983498916,0.4331516623497009,0.006327580660581589,-0.004005493130534887,0.47589075565338135,-0.007438773289322853,0.00667582219466567,0.01125352829694748,-0.03010394424200058,-0.0021091934759169817,0.02689402550458908,-0.25387197732925415,0.016975661739706993,0.025749599561095238,-0.12493324279785156
67,0,0.43276816606521606,0.006327580660581589,-0.0036240178160369396,0.47589075565338135,-0.00667582219466567,0.006294346414506435,0.01125352829694748,-0.021283680573105812,-0.0021091934759169817,0.028038453310728073,-0.2473868876695633,0.01735713705420494,0.026131074875593185,-0.1329442262649536,0.06809338182210922,0.06160829961299896,0.4288511872291565,0.004888571798801422,0.005491390824317932,0.49898967146873474,0.006843119859695435,-0.004903150722384453,0.009782642126083374,0.0023541077971458435,0.004053395241498947,0.033951904624700546,-0.22046594321727753,0.027464985847473145,0.0331665500998497,-0.1663013994693756,0.0,0.0,2.200000047683716,0.3304595119263554,0.21892020351452193,0.7617333196715901,-0.013892653714846492,-0.055386613706124965,-0.018362031064824258,0.45766388417092413,-0.2634842127377642,0.789703096393572,0.022523756688261454,-0.02111597157507772,-0.0425289014688488,0.43276816606521606,0.006327580660581589,-0.0036240178160369396,0.47589075565338135,-0.00667582219466567,0.006294346414506435,0.01125352829694748,-0.021283680573105812,-0.0021091934759169817,0.028038453310728073,-0.2473868876695633,0.01735713705420494,0.026131074875593185,-0.1329442262649536
68,0,0.4320012032985687,0.006327580660581589,-0.0036240178160369396,0.47589075565338135,-0.002861066721379757,0.0020981156267225742,0.01125352829694748,-0.01591482385993004,-0.0021091934759169817,0.028038453310728073,-0.24166475236415863,0.01773861236870289,0.026131074875593185,-0.14515145123004913,0.06809338182210922,0.06160829961299896,0.42928189039230347,0.003394009545445442,0.01098431646823883,0.5017062425613403,0.015840142965316772,-0.009901745244860649,0.009842634201049805,0.011418215930461884,0.0025602467358112335,0.036508701741695404,-0.21144458651542664,0.03470700979232788,0.029899917542934418,-0.18302860856056213,0.0,0.0,2.233299970626831,0.33039406453453024,0.2189956912739295,0.7618161687072317,-0.013912696643770595,-0.05557466788757548,-0.01752790095434964,0.4595580548364846,-0.26473901260740595,0.7883838360722474,0.037284015911071666,-0.009200519238715898,-0.039125875498494445,0.4320012032985687,0.006327580660581589,-0.0036240178160369396,0.47589075565338135,-0.002861066721379757,0.0020981156267225742,0.01125352829694748,-0.01591482385993004,-0.0021091934759169817,0.028038453310728073,-0.24166475236415863,0.01773861236870289,0.026131074875593185,-0.14515145123004913
69,0,0.431234210729599,0.006327580660581589,-0.002861066721379757,0.47589075565338135,0.000572213320992887,-0.0009536888683214784,0.010872052982449532,-0.0013422140618786216,-0.0017257038271054626,0.028038453310728073,-0.2161058932542801,0.021171892061829567,0.026131074875593185,-0.1661325991153717,0.06809338182210922,0.06198977679014206,0.4269946813583374,0.003202877938747406,0.017066285014152527,0.5049755573272705,0.026027053594589233,-0.013843237422406673,0.010800480842590332,0.020552530884742737,-6.515532732009888e-06,0.0410568043589592,-0.20350313186645508,0.04346778988838196,0.025684945285320282,-0.19915246963500977,0.0,0.0,2.266700029373169,0.3302951446997542,0.21905822289158716,0.7617749554827669,-0.014059861580067778,-0.0555182599749906,-0.016112195941679452,0.46101794203411506,-0.266339322046434,0.7881434322565366,0.04701557897926234,-0.001378736231139932,-0.033867601635650946,0.431234210729599,0.006327580660581589,-0.002861066721379757,0.47589075565338135,0.000572213320992887,-0.0009536888683214784,0.010872052982449532,-0.0013422140618786216,-0.0017257038271054626,0.028038453310728073,-0.2161058932542801,0.021171892061829567,0.026131074875593185,-0.1661325991153717
70,0,0.431234210729599,0.005944090895354748,0.00019073777366429567,0.47589075565338135,0.008964675478637218,-0.004386968910694122,0.010872052982449532,0.0028761730063706636,-0.0017257038271054626,0.028038453310728073,-0.2157244235277176,0.02727550081908703,0.025749599561095238,-0.17833982408046722,0.06809338182210922,0.06198977679014206,0.4273596405982971,0.0017013419419527054,0.022110775113105774,0.5080782771110535,0.033818721771240234,-0.0185055173933506,0.011500269174575806,0.023335881531238556,-0.001819893717765808,0.043272390961647034,-0.2011306881904602,0.04953387379646301,0.021950803697109222,-0.2099331021308899,0.0,0.0,2.299999952316284,0.33027502618154425,0.21909849049193608,0.7617429992106935,-0.014588376168747086,-0.05466766565764969,-0.014687262693411807,0.46153316507242664,-0.2674198494440002,0.7885519871675615,0.05744096651427055,0.00037481445305509453,-0.026489405758275186,0.431234210729599,0.005944090895354748,0.00019073777366429567,0.47589075565338135,0.008964675478637218,-0.004386968910694122,0.010872052982449532,0.0028761730063706636,-0.0017257038271054626,0.028038453310728073,-0.2157244235277176,0.02727550081908703,0.025749599561095238,-0.17833982408046722
71,0,0.431234210729599,0.005944090895354748,0.00667582219466567,0.47779813408851624,0.019645990803837776,-0.011635004542768002,0.010872052982449532,0.01054596807807684,-0.0017257038271054626,0.03185320645570755,-0.21152819693088531,0.039101243019104004,0.023079270496964455,-0.19321736693382263,0.06809338182210922,0.06198977679014206,0.4284921884536743,-0.0001835022121667862,0.025413237512111664,0.5112699866294861,0.03816032409667969,-0.022236637771129608,0.0116824209690094,0.02330179512500763,-0.002957042306661606,0.04596616327762604,-0.20108146965503693,0.05289420485496521,0.02055610716342926,-0.2122465968132019,0.0,0.037802089005708694,2.3333001136779785,0.3302477057487111,0.21924842286446805,0.76169708359643,-0.015825293046711764,-0.05399584422187109,-0.012916526603649281,0.46140878583010214,-0.26824577263110816,0.7893606819103461,0.06202611731330876,-0.00011870710745176538,-0.02532471277371906,0.431234210729599,0.005944090895354748,0.00667582219466567,0.47779813408851624,0.019645990803837776,-0.011635004542768002,0.010872052982449532,0.01054596807807684,-0.0017257038271054626,0.03185320645570755,-0.21152819693088531,0.039101243019104004,0.023079270496964455,-0.19321736693382263
72,0,0.431234210729599,0.005944090895354748,0.016594186425209045,0.4846646785736084,0.02727550081908703,-0.016594186425209045,0.01125352829694748,0.019749721512198448,-0.0021091934759169817,0.03833829239010811,-0.20656901597976685,0.04444190114736557,0.02231631986796856,-0.20809490978717804,0.06809338182210922,0.06198977679014206,0.4239462614059448,-0.0015204539522528648,0.03149023652076721,0.5142892599105835,0.04398071765899658,-0.026211820542812347,0.016374051570892334,0.023870401084423065,-0.006241779774427414,0.051262758672237396,-0.19962216913700104,0.06459662318229675,0.014244481921195984,-0.2163214087486267,0.0,0.7305493950843811,2.3666999340057373,0.3302463657100939,0.21947978695463657,0.7615157027488183,-0.017526131949516355,-0.051647419932866256,-0.009882993494544134,0.46089478002500406,-0.2694189962648985,0.7910798823052192,0.07028554126434416,-0.005176999956244099,-0.022788244842055327,0.431234210729599,0.005944090895354748,0.016594186425209045,0.4846646785736084,0.02727550081908703,-0.016594186425209045,0.01125352829694748,0.019749721512198448,-0.0021091934759169817,0.03833829239010811,-0.20656901597976685,0.04444190114736557,0.02231631986796856,-0.20809490978717804
73,0,0.431234210729599,0.005944090895354748,0.01735713705420494,0.4877164959907532,0.03185320645570755,-0.01735713705420494,0.010872052982449532,0.020133210346102715,-0.0021091934759169817,0.03833829239010811,-0.20656901597976685,0.04711223021149635,0.02231631986796856,-0.21076524257659912,0.06809338182210922,0.06237125024199486,0.42093831300735474,-0.0026633134111762047,0.03148341923952103,0.5127668976783752,0.04443803429603577,-0.028489280492067337,0.01772889494895935,0.02231460064649582,-0.008843503892421722,0.05108257383108139,-0.2009003907442093,0.06935814023017883,0.008903563022613525,-0.21491116285324097,0.0,1.6553846597671509,2.4000000953674316,0.33026781184200227,0.21959788673855715,0.7614665806409104,-0.01924270014888263,-0.04950323280905078,-0.007134395206066735,0.4598160715664039,-0.26926755589048784,0.7930656409663823,0.07089100175043983,-0.01743349640990699,-0.009643980248855044,0.431234210729599,0.005944090895354748,0.01735713705420494,0.4877164959907532,0.03185320645570755,-0.01735713705420494,0.010872052982449532,0.020133210346102715,-0.0021091934759169817,0.03833829239010811,-0.20656901597976685,0.04711223021149635,0.02231631986796856,-0.21076524257659912
74,0,0.43085071444511414,0.005560601130127907,0.01773861236870289,0.4880979657173157,0.03795681521296501,-0.019645990803837776,0.011635004542768002,0.020133210346102715,-0.0021091934759169817,0.0398641936480999,-0.20656901597976685,0.0555046908557415,0.018501564860343933,-0.2141985148191452,0.06809338182210922,0.15506981313228607,0.4197314977645874,-0.004155107773840427,0.031048588454723358,0.5115641355514526,0.045699477195739746,-0.030763844028115273,0.01646709442138672,0.022717781364917755,-0.010953962802886963,0.0516352653503418,-0.20001645386219025,0.07359829545021057,0.004764392971992493,-0.21776410937309265,0.0,1.7964835166931152,2.433300018310547,0.3302925190518594,0.2196315695104037,0.7614706072999741,-0.01959928989722881,-0.04906521596406055,-0.006425019887517092,0.46001336710000296,-0.26960994445156167,0.793148817699731,0.0683238653089564,-0.015702937938016248,-0.007989869730430588,0.43085071444511414,0.005560601130127907,0.01773861236870289,0.4880979657173157,0.03795681521296501,-0.019645990803837776,0.011635004542768002,0.020133210346102715,-0.0021091934759169817,0.0398641936480999,-0.20656901597976685,0.0555046908557415,0.018501564860343933,-0.2141985148191452
75,0,0.4266323447227478,0.005560601130127907,0.01773861236870289,0.4888609051704407,0.03833829239010811,-0.020027466118335724,0.01201647985726595,0.020133210346102715,-0.0024926832411438227,0.04482337832450867,-0.20656901597976685,0.06580453366041183,0.014686808921396732,-0.2141985148191452,0.06809338182210922,0.404936283826828,0.4170854091644287,-0.004061345010995865,0.03150515258312225,0.5113062262535095,0.04625827074050903,-0.03071480244398117,0.01661992073059082,0.02084580808877945,-0.013411309570074081,0.05343625694513321,-0.20250797271728516,0.07847753167152405,0.0007228255271911621,-0.22049883008003235,0.0,1.7999999523162842,2.4667000770568848,0.3303124721160152,0.21965504793157753,0.7615634687636015,-0.020713528585505347,-0.048330070870407305,-0.005447829934072335,0.4598358460120868,-0.26986123810766977,0.7942320210785512,0.06724782130577855,-0.013507225854490823,-0.01080093412769001,0.4266323447227478,0.005560601130127907,0.01773861236870289,0.4888609051704407,0.03833829239010811,-0.020027466118335724,0.01201647985726595,0.020133210346102715,-0.0024926832411438227,0.04482337832450867,-0.20656901597976685,0.06580453366041183,0.014686808921396732,-0.2141985148191452
76,0,0.4247148931026459,0.005560601130127907,0.01773861236870289,0.4888609051704407,0.039101243019104004,-0.02689402550458908,0.01201647985726595,0.020133210346102715,-0.005560601130127907,0.04482337832450867,-0.20656901597976685,0.07000076025724411,0.011635004542768002,-0.2145799994468689,0.06809338182210922,0.7330052852630615,0.4169982075691223,-0.005456164479255676,0.031790755689144135,0.5114160776138306,0.04926779866218567,-0.033545587211847305,0.015323430299758911,0.02117534726858139,-0.014174927026033401,0.0542285293340683,-0.20271754264831543,0.07973387837409973,-0.0009367689490318298,-0.2190539538860321,0.0,1.7999999523162842,2.5,0.33034455163825027,0.21962041865321044,0.761560778880272,-0.020856536887750465,-0.04781620125030139,-0.005402469025457712,0.4597503603391846,-0.27000442573763367,0.7947879702551234,0.06879558680919029,-0.01375500281546449,-0.010766380406703746,0.4247148931026459,0.005560601130127907,0.01773861236870289,0.4888609051704407,0.039101243019104004,-0.02689402550458908,0.01201647985726595,0.020133210346102715,-0.005560601130127907,0.04482337832450867,-0.20656901597976685,0.07000076025724411,0.011635004542768002,-0.2145799994468689
77,0,0.4247148931026459,0.005560601130127907,0.01773861236870289,0.4888609051704407,0.039101243019104004,-0.02689402550458908,0.01201647985726595,0.020133210346102715,-0.005944090895354748,0.04482337832450867,-0.20656901597976685,0.07343403995037079,0.009727626107633114,-0.2153429538011551,0.06809338182210922,0.9485389590263367,0.41641128063201904,-0.005557222291827202,0.03125850111246109,0.5107876658439636,0.048644423484802246,-0.033529169857501984,0.014963775873184204,0.019287221133708954,-0.015027672052383423,0.0540536567568779,-0.20535153150558472,0.0806550681591034,-0.002459287643432617,-0.21986815333366394,0.0,1.7999999523162842,2.5332999229431152,0.33041583356268306,0.21944672728623787,0.7615782792673502,-0.021455172912293374,-0.047505870075020606,-0.006131716096939854,0.45946060684807066,-0.2698374787177446,0.7961900615132232,0.0664052359985079,-0.013833904627115423,-0.0074408472149825045,0.4247148931026459,0.005560601130127907,0.01773861236870289,0.4888609051704407,0.039101243019104004,-0.02689402550458908,0.01201647985726595,0.020133210346102715,-0.005944090895354748,0.04482337832450867,-0.20656901597976685,0.07343403995037079,0.009727626107633114,-0.2153429538011551
78,0,0.4247148931026459,0.005560601130127907,0.01773861236870289,0.4888609051704407,0.04253452271223068,-0.02727550081908703,0.01201647985726595,0.020133210346102715,-0.005944090895354748,0.04482337832450867,-0.20656901597976685,0.07381551712751389,0.00667582219466567,-0.2153429538011551,0.06809338182210922,1.1190584897994995,0.41641396284103394,-0.005352536216378212,0.030597425997257233,0.5107688903808594,0.04808729887008667,-0.03299633413553238,0.014021366834640503,0.016847483813762665,-0.015833459794521332,0.054067134857177734,-0.20898184180259705,0.08011308312416077,-0.0031325742602348328,-0.21941271424293518,0.0,1.7999999523162842,2.566699981689453,0.3305441399775196,0.21921965959007872,0.7614247720611453,-0.02204308739109706,-0.04653568509123396,-0.0073186206711479684,0.45909203449708774,-0.2698279682439463,0.797983914213498,0.06158939162648247,-0.01536166634660363,-0.008381129932960807,0.4247148931026459,0.005560601130127907,0.01773861236870289,0.4888609051704407,0.04253452271223068,-0.02727550081908703,0.01201647985726595,0.020133210346102715,-0.005944090895354748,0.04482337832450867,-0.20656901597976685,0.07381551712751389,0.00667582219466567,-0.2153429538011551
79,0,0.4247148931026459,0.005177111364901066,0.01773861236870289,0.4888609051704407,0.04253452271223068,-0.02727550081908703,0.01201647985726595,0.019749721512198448,-0.005944090895354748,0.04482337832450867,-0.20656901597976685,0.07381551712751389,0.005531395319849253,-0.2153429538011551,0.06809338182210922,1.2495231628417969,0.4162205457687378,-0.00534901674836874,0.029592424631118774,0.5099202394485474,0.047153860330581665,-0.032934144139289856,0.013634860515594482,0.01557091623544693,-0.016378924250602722,0.0531153678894043,-0.21125993132591248,0.07933259010314941,-0.003921084105968475,-0.21916109323501587,0.0,1.7999999523162842,2.5999999046325684,0.3306747477204013,0.21911096335921115,0.7613987817937766,-0.02285483224966267,-0.04531860828412837,-0.00746098738152412,0.4588056651490048,-0.26943541829081274,0.7995633487692888,0.05449367586280429,-0.018325414942754303,-0.0043794217827803905,0.4247148931026459,0.005177111364901066,0.01773861236870289,0.4888609051704407,0.04253452271223068,-0.02727550081908703,0.01201647985726595,0.019749721512198448,-0.005944090895354748,0.04482337832450867,-0.20656901597976685,0.07381551712751389,0.005531395319849253,-0.2153429538011551
80,0,0.4247148931026459,0.005177111364901066,0.01773861236870289,0.4888609051704407,0.04253452271223068,-0.02727550081908703,0.011635004542768002,0.019749721512198448,-0.006327580660581589,0.04482337832450867,-0.20656901597976685,0.07381551712751389,0.0032425422687083483,-0.2153429538011551,0.06809338182210922,1.3708323240280151,0.41498512029647827,-0.005090344697237015,0.02951253205537796,0.5095560550689697,0.046859532594680786,-0.032562218606472015,0.013984739780426025,0.015482291579246521,-0.016968533396720886,0.05368094891309738,-0.21143017709255219,0.08062386512756348,-0.004847116768360138,-0.22022545337677002,0.0,1.7999999523162842,2.6333000659942627,0.33070380645296865,0.21901968805618946,0.7614284189541384,-0.023137470026548534,-0.045194362600220916,-0.007959898953469047,0.458806733832014,-0.26945019126156566,0.7998804382383455,0.055070442961861144,-0.017944763965319854,-0.004119805105586849,0.4247148931026459,0.005177111364901066,0.01773861236870289,0.4888609051704407,0.04253452271223068,-0.02727550081908703,0.011635004542768002,0.019749721512198448,-0.006327580660581589,0.04482337832450867,-0.20656901597976685,0.07381551712751389,0.0032425422687083483,-0.2153429538011551
81,0,0.4247148931026459,0.005177111364901066,0.01773861236870289,0.4888609051704407,0.04253452271223068,-0.02727550081908703,0.011635004542768002,0.018982741981744766,-0.006327580660581589,0.04482337832450867,-0.20656901597976685,0.07381551712751389,0.0032425422687083483,-0.2153429538011551,0.06809338182210922,1.3784618377685547,0.41454648971557617,-0.0046500032767653465,0.029285959899425507,0.509538471698761,0.04649963974952698,-0.031882837414741516,0.014077723026275635,0.014753453433513641,-0.017144963145256042,0.05386696755886078,-0.2126254290342331,0.08034786581993103,-0.00481317937374115,-0.22014638781547546,0.0,1.7999999523162842,2.6666998863220215,0.3308026581247518,0.21888055216171992,0.7614186868385092,-0.023188480997564653,-0.04466120170728782,-0.009114916145126717,0.4586713244241578,-0.26938320614871664,0.8008917790098926,0.05610204915854489,-0.01964716768119512,-0.004699507004787051,0.4247148931026459,0.005177111364901066,0.01773861236870289,0.4888609051704407,0.04253452271223068,-0.02727550081908703,0.011635004542768002,0.018982741981744766,-0.006327580660581589,0.04482337832450867,-0.20656901597976685,0.07381551712751389,0.0032425422687083483,-0.2153429538011551
